;FLAVOR:Marlin
;TIME:9097
;Filament used: 10.9163m
;Layer height: 0.2
;Generated with Cura_SteamEngine 1.2.2
M190 S35
M104 S220
M109 S220
G28
G1 Z50.00 F400
G92 E0
G1 F200 E3
G92 E0
M132 X Y Z A
M907 X100 Y100 Z50 A100
;LAYER_COUNT:150
;LAYER:0
M107
G0 F3000 X34.991 Y-39.79 Z0.3
;TYPE:SKIRT
G1 F1500 X35.609 Y-39.75 E0.0309
G1 X36.217 Y-39.631 E0.06181
G1 X36.804 Y-39.434 E0.0927
G1 X37.361 Y-39.164 E0.12358
G1 X37.879 Y-38.824 E0.15449
G1 X38.349 Y-38.42 E0.18541
G1 X38.762 Y-37.959 E0.21629
G1 X39.113 Y-37.449 E0.24718
G1 X39.396 Y-36.898 E0.27808
G1 X39.605 Y-36.314 E0.30903
G1 X39.737 Y-35.709 E0.33992
G1 X39.791 Y-34.99 E0.37589
G1 X39.791 Y34.991 E3.86726
G1 X39.751 Y35.609 E3.89816
G1 X39.632 Y36.217 E3.92906
G1 X39.435 Y36.804 E3.95995
G1 X39.165 Y37.361 E3.99084
G1 X38.825 Y37.879 E4.02175
G1 X38.421 Y38.349 E4.05267
G1 X37.96 Y38.762 E4.08355
G1 X37.45 Y39.113 E4.11444
G1 X36.899 Y39.396 E4.14534
G1 X36.316 Y39.605 E4.17624
G1 X35.71 Y39.737 E4.20718
G1 X34.991 Y39.791 E4.24315
G1 X-34.991 Y39.791 E7.73457
G1 X-35.609 Y39.751 E7.76547
G1 X-36.217 Y39.632 E7.79637
G1 X-36.804 Y39.435 E7.82727
G1 X-37.361 Y39.165 E7.85815
G1 X-37.879 Y38.825 E7.88906
G1 X-38.349 Y38.421 E7.91998
G1 X-38.762 Y37.96 E7.95086
G1 X-39.113 Y37.45 E7.98175
G1 X-39.396 Y36.899 E8.01265
G1 X-39.605 Y36.316 E8.04355
G1 X-39.737 Y35.71 E8.07449
G1 X-39.791 Y34.991 E8.11046
G1 X-39.791 Y-34.991 E11.60188
G1 X-39.751 Y-35.609 E11.63278
G1 X-39.632 Y-36.217 E11.66368
G1 X-39.435 Y-36.804 E11.69458
G1 X-39.165 Y-37.361 E11.72546
G1 X-38.825 Y-37.879 E11.75637
G1 X-38.421 Y-38.349 E11.78729
G1 X-37.96 Y-38.762 E11.81817
G1 X-37.45 Y-39.113 E11.84906
G1 X-36.899 Y-39.396 E11.87996
G1 X-36.316 Y-39.605 E11.91086
G1 X-35.71 Y-39.737 E11.9418
G1 X-34.991 Y-39.791 E11.97777
G1 X34.991 Y-39.79 E15.46919
G0 F3000 X34.991 Y-39.39
G1 F1500 X35.583 Y-39.35 E15.49879
G1 X36.164 Y-39.231 E15.52838
G1 X36.723 Y-39.035 E15.55793
G1 X37.251 Y-38.765 E15.58752
G1 X37.738 Y-38.427 E15.61709
G1 X38.175 Y-38.026 E15.64668
G1 X38.555 Y-37.571 E15.67626
G1 X38.869 Y-37.068 E15.70584
G1 X39.114 Y-36.528 E15.73543
G1 X39.283 Y-35.959 E15.76504
G1 X39.374 Y-35.373 E15.79463
G1 X39.391 Y-34.99 E15.81375
G1 X39.391 Y34.991 E19.30512
G1 X39.351 Y35.583 E19.33472
G1 X39.232 Y36.163 E19.36426
G1 X39.036 Y36.723 E19.39386
G1 X38.766 Y37.251 E19.42345
G1 X38.428 Y37.738 E19.45302
G1 X38.027 Y38.175 E19.48261
G1 X37.572 Y38.555 E19.51219
G1 X37.069 Y38.869 E19.54177
G1 X36.529 Y39.114 E19.57135
G1 X35.96 Y39.283 E19.60097
G1 X35.375 Y39.374 E19.6305
G1 X34.991 Y39.391 E19.64968
G1 X-34.991 Y39.391 E23.1411
G1 X-35.583 Y39.351 E23.1707
G1 X-36.163 Y39.232 E23.20024
G1 X-36.723 Y39.036 E23.22984
G1 X-37.251 Y38.766 E23.25943
G1 X-37.738 Y38.428 E23.289
G1 X-38.175 Y38.027 E23.31859
G1 X-38.555 Y37.572 E23.34817
G1 X-38.869 Y37.069 E23.37775
G1 X-39.114 Y36.529 E23.40733
G1 X-39.283 Y35.96 E23.43695
G1 X-39.374 Y35.375 E23.46648
G1 X-39.391 Y34.991 E23.48566
G1 X-39.391 Y-34.991 E26.97708
G1 X-39.351 Y-35.583 E27.00668
G1 X-39.232 Y-36.163 E27.03622
G1 X-39.036 Y-36.723 E27.06582
G1 X-38.766 Y-37.251 E27.0954
G1 X-38.428 Y-37.738 E27.12498
G1 X-38.027 Y-38.175 E27.15457
G1 X-37.572 Y-38.555 E27.18414
G1 X-37.069 Y-38.869 E27.21373
G1 X-36.529 Y-39.114 E27.24331
G1 X-35.96 Y-39.283 E27.27292
G1 X-35.375 Y-39.374 E27.30246
G1 X-34.991 Y-39.391 E27.32164
G1 X34.991 Y-39.39 E30.81305
G0 F3000 X34.991 Y-38.99
G1 F1500 X35.555 Y-38.95 E30.84126
G1 X36.108 Y-38.831 E30.86948
G1 X36.638 Y-38.635 E30.89768
G1 X37.135 Y-38.367 E30.92585
G1 X37.59 Y-38.031 E30.95406
G1 X37.993 Y-37.634 E30.98229
G1 X38.335 Y-37.184 E31.01049
G1 X38.611 Y-36.691 E31.03867
G1 X38.815 Y-36.163 E31.06691
G1 X38.942 Y-35.613 E31.09508
G1 X38.991 Y-34.99 E31.12625
G1 X38.991 Y34.991 E34.61762
G1 X38.951 Y35.555 E34.64583
G1 X38.832 Y36.108 E34.67405
G1 X38.636 Y36.638 E34.70224
G1 X38.368 Y37.135 E34.73041
G1 X38.032 Y37.59 E34.75863
G1 X37.635 Y37.993 E34.78685
G1 X37.185 Y38.335 E34.81505
G1 X36.692 Y38.611 E34.84324
G1 X36.164 Y38.815 E34.87148
G1 X35.614 Y38.942 E34.89964
G1 X34.991 Y38.991 E34.93082
G1 X-34.991 Y38.991 E38.42223
G1 X-35.555 Y38.951 E38.45044
G1 X-36.108 Y38.832 E38.47866
G1 X-36.638 Y38.636 E38.50686
G1 X-37.135 Y38.368 E38.53503
G1 X-37.59 Y38.032 E38.56325
G1 X-37.993 Y37.635 E38.59147
G1 X-38.335 Y37.185 E38.61967
G1 X-38.611 Y36.692 E38.64786
G1 X-38.815 Y36.164 E38.6761
G1 X-38.942 Y35.614 E38.70426
G1 X-38.991 Y34.991 E38.73543
G1 X-38.991 Y-34.991 E42.22685
G1 X-38.951 Y-35.555 E42.25506
G1 X-38.832 Y-36.108 E42.28328
G1 X-38.636 Y-36.638 E42.31147
G1 X-38.368 Y-37.135 E42.33964
G1 X-38.032 Y-37.59 E42.36786
G1 X-37.635 Y-37.993 E42.39608
G1 X-37.185 Y-38.335 E42.42428
G1 X-36.692 Y-38.611 E42.45247
G1 X-36.164 Y-38.815 E42.48071
G1 X-35.614 Y-38.942 E42.50887
G1 X-34.991 Y-38.991 E42.54005
G1 X34.991 Y-38.99 E46.03147
G0 F3000 X34.991 Y-38.59
G1 F1500 X35.526 Y-38.55 E46.05823
G1 X36.049 Y-38.431 E46.08499
G1 X36.548 Y-38.236 E46.11172
G1 X37.013 Y-37.968 E46.1385
G1 X37.433 Y-37.635 E46.16524
G1 X37.799 Y-37.243 E46.19199
G1 X38.102 Y-36.801 E46.21873
G1 X38.337 Y-36.318 E46.24553
G1 X38.497 Y-35.807 E46.27224
G1 X38.58 Y-35.277 E46.299
G1 X38.591 Y-34.99 E46.31333
G1 X38.591 Y34.991 E49.8047
G1 X38.551 Y35.526 E49.83147
G1 X38.432 Y36.049 E49.85823
G1 X38.237 Y36.548 E49.88495
G1 X37.969 Y37.013 E49.91173
G1 X37.636 Y37.433 E49.93847
G1 X37.244 Y37.799 E49.96523
G1 X36.802 Y38.102 E49.99196
G1 X36.319 Y38.337 E50.01876
G1 X35.808 Y38.497 E50.04547
G1 X35.278 Y38.58 E50.07224
G1 X34.991 Y38.591 E50.08657
G1 X-34.991 Y38.591 E53.57798
G1 X-35.526 Y38.551 E53.60475
G1 X-36.049 Y38.432 E53.63151
G1 X-36.548 Y38.237 E53.65824
G1 X-37.013 Y37.969 E53.68501
G1 X-37.433 Y37.636 E53.71175
G1 X-37.799 Y37.244 E53.73851
G1 X-38.102 Y36.802 E53.76525
G1 X-38.337 Y36.319 E53.79204
G1 X-38.497 Y35.808 E53.81876
G1 X-38.58 Y35.278 E53.84552
G1 X-38.591 Y34.991 E53.85985
G1 X-38.591 Y-34.991 E57.35127
G1 X-38.551 Y-35.526 E57.37803
G1 X-38.432 Y-36.049 E57.40479
G1 X-38.237 Y-36.548 E57.43152
G1 X-37.969 Y-37.013 E57.4583
G1 X-37.636 Y-37.433 E57.48504
G1 X-37.244 Y-37.799 E57.51179
G1 X-36.802 Y-38.102 E57.53853
G1 X-36.319 Y-38.337 E57.56533
G1 X-35.808 Y-38.497 E57.59204
G1 X-35.278 Y-38.58 E57.61881
G1 X-34.991 Y-38.591 E57.63314
G1 X34.991 Y-38.59 E61.12455
G0 F3000 X34.991 Y-38.19
G1 F1500 X35.495 Y-38.15 E61.14978
G1 X35.986 Y-38.031 E61.17498
G1 X36.453 Y-37.836 E61.20023
G1 X36.883 Y-37.571 E61.22543
G1 X37.266 Y-37.241 E61.25065
G1 X37.592 Y-36.854 E61.2759
G1 X37.853 Y-36.421 E61.30112
G1 X38.043 Y-35.953 E61.32632
G1 X38.156 Y-35.46 E61.35155
G1 X38.191 Y-34.99 E61.37507
G1 X38.191 Y34.991 E64.86643
G1 X38.151 Y35.495 E64.89166
G1 X38.032 Y35.986 E64.91686
G1 X37.838 Y36.453 E64.94209
G1 X37.572 Y36.883 E64.96732
G1 X37.242 Y37.266 E64.99254
G1 X36.855 Y37.592 E65.01778
G1 X36.422 Y37.853 E65.04301
G1 X35.954 Y38.043 E65.06821
G1 X35.461 Y38.156 E65.09344
G1 X34.991 Y38.191 E65.11695
G1 X-34.991 Y38.191 E68.60837
G1 X-35.495 Y38.151 E68.63359
G1 X-35.986 Y38.032 E68.6588
G1 X-36.453 Y37.838 E68.68403
G1 X-36.883 Y37.572 E68.70925
G1 X-37.266 Y37.242 E68.73447
G1 X-37.592 Y36.855 E68.75972
G1 X-37.853 Y36.422 E68.78494
G1 X-38.043 Y35.954 E68.81014
G1 X-38.156 Y35.461 E68.83538
G1 X-38.191 Y34.991 E68.85889
G1 X-38.191 Y-34.991 E72.35031
G1 X-38.151 Y-35.495 E72.37553
G1 X-38.032 Y-35.986 E72.40073
G1 X-37.838 Y-36.453 E72.42596
G1 X-37.572 Y-36.883 E72.45119
G1 X-37.242 Y-37.266 E72.47641
G1 X-36.855 Y-37.592 E72.50166
G1 X-36.422 Y-37.853 E72.52688
G1 X-35.954 Y-38.043 E72.55208
G1 X-35.461 Y-38.156 E72.57731
G1 X-34.991 Y-38.191 E72.60083
G1 X34.991 Y-38.19 E76.09224
G1 F1500 E74.09224
G0 F3000 X34.386 Y-35.665
G0 X34.386 Y-34.386
G0 X34.33 Y-34.33
G0 X34.4 Y-34.4
;TYPE:WALL-INNER
G1 F1500 E76.17539
G1 X34.4 Y34.4 E79.60784
G1 X-34.4 Y34.4 E83.04029
G1 X-34.4 Y-34.4 E86.47273
G1 X34.4 Y-34.4 E89.90518
G0 F3000 X34.8 Y-34.8
;TYPE:WALL-OUTER
G1 F1500 X34.8 Y34.8 E93.37754
G1 X-34.8 Y34.8 E96.84989
G1 X-34.8 Y-34.8 E100.32225
G1 X34.8 Y-34.8 E103.79461
G0 F3000 X34.8 Y-34.6
G0 X34.2 Y-34.2
G0 X33.642 Y-34.239
;TYPE:SKIN
G1 F1500 X34.239 Y-33.642 E103.83673
G1 X34.309 Y-33.572
G0 F3000 X34.239 Y-33.077
G1 F1500 X33.077 Y-34.239 E103.91872
G1 X33.007 Y-34.309
G0 F3000 X32.511 Y-34.239
G1 F1500 X34.239 Y-32.511 E104.04064
G1 X34.309 Y-32.441
G0 F3000 X34.239 Y-31.945
G1 F1500 X31.945 Y-34.239 E104.20249
G1 X31.875 Y-34.309
G0 F3000 X31.379 Y-34.239
G1 F1500 X34.239 Y-31.379 E104.40428
G1 X34.309 Y-31.309
G0 F3000 X34.239 Y-30.814
G1 F1500 X30.814 Y-34.239 E104.64593
G1 X30.744 Y-34.309
G0 F3000 X30.248 Y-34.239
G1 F1500 X34.239 Y-30.248 E104.92752
G1 X34.309 Y-30.178
G0 F3000 X34.239 Y-29.682
G1 F1500 X29.682 Y-34.239 E105.24904
G1 X29.612 Y-34.309
G0 F3000 X29.117 Y-34.239
G1 F1500 X34.239 Y-29.117 E105.61042
G1 X34.309 Y-29.047
G0 F3000 X34.239 Y-28.551
G1 F1500 X28.551 Y-34.239 E106.01174
G1 X28.481 Y-34.309
G0 F3000 X27.985 Y-34.239
G1 F1500 X34.239 Y-27.985 E106.453
G1 X34.309 Y-27.915
G0 F3000 X34.239 Y-27.42
G1 F1500 X27.42 Y-34.239 E106.93411
G1 X27.35 Y-34.309
G0 F3000 X26.854 Y-34.239
G1 F1500 X34.239 Y-26.854 E107.45516
G1 X34.309 Y-26.784
G0 F3000 X34.239 Y-26.288
G1 F1500 X26.288 Y-34.239 E108.01615
G1 X26.218 Y-34.309
G0 F3000 X25.723 Y-34.239
G1 F1500 X34.239 Y-25.723 E108.617
G1 X34.309 Y-25.653
G0 F3000 X34.239 Y-25.157
G1 F1500 X25.157 Y-34.239 E109.25778
G1 X25.087 Y-34.309
G0 F3000 X24.591 Y-34.239
G1 F1500 X34.239 Y-24.591 E109.9385
G1 X34.309 Y-24.521
G0 F3000 X34.239 Y-24.026
G1 F1500 X24.026 Y-34.239 E110.65909
G1 X23.956 Y-34.309
G0 F3000 X23.46 Y-34.239
G1 F1500 X34.239 Y-23.46 E111.4196
G1 X34.309 Y-23.39
G0 F3000 X34.239 Y-22.894
G1 F1500 X22.894 Y-34.239 E112.22005
G1 X22.824 Y-34.309
G0 F3000 X22.329 Y-34.239
G1 F1500 X34.239 Y-22.329 E113.06037
G1 X34.309 Y-22.259
G0 F3000 X34.239 Y-21.763
G1 F1500 X21.763 Y-34.239 E113.94062
G1 X21.693 Y-34.309
G0 F3000 X21.197 Y-34.239
G1 F1500 X34.239 Y-21.197 E114.8608
G1 X34.309 Y-21.127
G0 F3000 X34.239 Y-20.631
G1 F1500 X20.631 Y-34.239 E115.82092
G1 X20.561 Y-34.309
G0 F3000 X20.066 Y-34.239
G1 F1500 X34.239 Y-20.066 E116.8209
G1 X34.309 Y-19.996
G0 F3000 X34.239 Y-19.5
G1 F1500 X19.5 Y-34.239 E117.86082
G1 X19.43 Y-34.309
G0 F3000 X18.934 Y-34.239
G1 F1500 X34.239 Y-18.934 E118.94067
G1 X34.309 Y-18.864
G0 F3000 X34.239 Y-18.369
G1 F1500 X18.369 Y-34.239 E120.06038
G1 X18.299 Y-34.309
G0 F3000 X17.803 Y-34.239
G1 F1500 X34.239 Y-17.803 E121.22003
G1 X34.309 Y-17.733
G0 F3000 X34.239 Y-17.237
G1 F1500 X17.237 Y-34.239 E122.41961
G1 X17.167 Y-34.309
G0 F3000 X16.672 Y-34.239
G1 F1500 X34.239 Y-16.672 E123.65906
G1 X34.309 Y-16.602
G0 F3000 X34.239 Y-16.106
G1 F1500 X16.106 Y-34.239 E124.93844
G1 X16.036 Y-34.309
G0 F3000 X15.54 Y-34.239
G1 F1500 X34.239 Y-15.54 E126.25776
G1 X34.309 Y-15.47
G0 F3000 X34.239 Y-14.975
G1 F1500 X14.975 Y-34.239 E127.61694
G1 X14.905 Y-34.309
G0 F3000 X14.409 Y-34.239
G1 F1500 X34.239 Y-14.409 E129.01605
G1 X34.309 Y-14.339
G0 F3000 X34.239 Y-13.843
G1 F1500 X13.843 Y-34.239 E130.4551
G1 X13.773 Y-34.309
G0 F3000 X13.278 Y-34.239
G1 F1500 X34.239 Y-13.278 E131.93401
G1 X34.309 Y-13.208
G0 F3000 X34.239 Y-12.712
G1 F1500 X12.712 Y-34.239 E133.45285
G1 X12.642 Y-34.309
G0 F3000 X12.146 Y-34.239
G1 F1500 X34.239 Y-12.146 E135.01164
G1 X34.309 Y-12.076
G0 F3000 X34.239 Y-11.58
G1 F1500 X11.58 Y-34.239 E136.61035
G1 X11.51 Y-34.309
G0 F3000 X11.015 Y-34.239
G1 F1500 X34.239 Y-11.015 E138.24893
G1 X34.309 Y-10.945
G0 F3000 X34.239 Y-10.449
G1 F1500 X10.449 Y-34.239 E139.92744
G1 X10.379 Y-34.309
G0 F3000 X9.883 Y-34.239
G1 F1500 X34.239 Y-9.883 E141.64589
G1 X34.309 Y-9.813
G0 F3000 X34.239 Y-9.318
G1 F1500 X9.318 Y-34.239 E143.4042
G1 X9.248 Y-34.309
G0 F3000 X8.752 Y-34.239
G1 F1500 X34.239 Y-8.752 E145.20245
G1 X34.309 Y-8.682
G0 F3000 X34.239 Y-8.186
G1 F1500 X8.186 Y-34.239 E147.04063
G1 X8.116 Y-34.309
G0 F3000 X7.621 Y-34.239
G1 F1500 X34.239 Y-7.621 E148.91867
G1 X34.309 Y-7.551
G0 F3000 X34.239 Y-7.055
G1 F1500 X7.055 Y-34.239 E150.83665
G1 X6.985 Y-34.309
G0 F3000 X6.489 Y-34.239
G1 F1500 X34.239 Y-6.489 E152.79456
G1 X34.309 Y-6.419
G0 F3000 X34.239 Y-5.924
G1 F1500 X5.924 Y-34.239 E154.79234
G1 X5.854 Y-34.309
G0 F3000 X5.358 Y-34.239
G1 F1500 X34.239 Y-5.358 E156.83005
G1 X34.309 Y-5.288
G0 F3000 X34.239 Y-4.792
G1 F1500 X4.792 Y-34.239 E158.90769
G1 X4.722 Y-34.309
G0 F3000 X4.227 Y-34.239
G1 F1500 X34.239 Y-4.227 E161.0252
G1 X34.309 Y-4.157
G0 F3000 X34.239 Y-3.661
G1 F1500 X3.661 Y-34.239 E163.18264
G1 X3.591 Y-34.309
G0 F3000 X3.095 Y-34.239
G1 F1500 X34.239 Y-3.095 E165.38002
G1 X34.309 Y-3.025
G0 F3000 X34.239 Y-2.53
G1 F1500 X2.53 Y-34.239 E167.61726
G1 X2.46 Y-34.309
G0 F3000 X1.964 Y-34.239
G1 F1500 X34.239 Y-1.964 E169.89444
G1 X34.309 Y-1.894
G0 F3000 X34.239 Y-1.398
G1 F1500 X1.398 Y-34.239 E172.21155
G1 X1.328 Y-34.309
G0 F3000 X0.832 Y-34.239
G1 F1500 X34.239 Y-.832 E174.56859
G1 X34.309 Y-.762
G0 F3000 X34.239 Y-.267
G1 F1500 X0.267 Y-34.239 E176.9655
G1 X0.197 Y-34.309
G0 F3000 X-.298 Y-34.239
G1 F1500 X34.239 Y0.298 E179.40227
G1 X34.309 Y0.368
G0 F3000 X34.239 Y0.864
G1 F1500 X-.864 Y-34.239 E181.87898
G1 X-.934 Y-34.309
G0 F3000 X-1.429 Y-34.239
G1 F1500 X34.239 Y1.429 E184.39555
G1 X34.309 Y1.499
G0 F3000 X34.239 Y1.995
G1 F1500 X-1.995 Y-34.239 E186.95205
G1 X-2.065 Y-34.309
G0 F3000 X-2.561 Y-34.239
G1 F1500 X34.239 Y2.561 E189.54849
G1 X34.309 Y2.631
G0 F3000 X34.239 Y3.126
G1 F1500 X-3.126 Y-34.239 E192.18479
G1 X-3.196 Y-34.309
G0 F3000 X-3.692 Y-34.239
G1 F1500 X34.239 Y3.692 E194.86103
G1 X34.309 Y3.762
G0 F3000 X34.239 Y4.258
G1 F1500 X-4.258 Y-34.239 E197.5772
G1 X-4.328 Y-34.309
G0 F3000 X-4.823 Y-34.239
G1 F1500 X34.239 Y4.823 E200.33324
G1 X34.309 Y4.893
G0 F3000 X34.239 Y5.389
G1 F1500 X-5.389 Y-34.239 E203.12921
G1 X-5.459 Y-34.309
G0 F3000 X-5.955 Y-34.239
G1 F1500 X34.239 Y5.955 E205.96511
G1 X34.309 Y6.025
G0 F3000 X34.239 Y6.52
G1 F1500 X-6.52 Y-34.239 E208.84088
G1 X-6.59 Y-34.309
G0 F3000 X-7.086 Y-34.239
G1 F1500 X34.239 Y7.086 E211.75658
G1 X34.309 Y7.156
G0 F3000 X34.239 Y7.652
G1 F1500 X-7.652 Y-34.239 E214.71222
G1 X-7.722 Y-34.309
G0 F3000 X-8.217 Y-34.239
G1 F1500 X34.239 Y8.217 E217.70772
G1 X34.309 Y8.287
G0 F3000 X34.239 Y8.783
G1 F1500 X-8.783 Y-34.239 E220.74315
G1 X-8.853 Y-34.309
G0 F3000 X-9.349 Y-34.239
G1 F1500 X34.239 Y9.349 E223.81852
G1 X34.309 Y9.419
G0 F3000 X34.239 Y9.915
G1 F1500 X-9.915 Y-34.239 E226.93382
G1 X-9.985 Y-34.309
G0 F3000 X-10.48 Y-34.239
G1 F1500 X34.239 Y10.48 E230.08899
G1 X34.309 Y10.55
G0 F3000 X34.239 Y11.046
G1 F1500 X-11.046 Y-34.239 E233.28409
G1 X-11.116 Y-34.309
G0 F3000 X-11.612 Y-34.239
G1 F1500 X34.239 Y11.612 E236.51913
G1 X34.309 Y11.682
G0 F3000 X34.239 Y12.177
G1 F1500 X-12.177 Y-34.239 E239.79403
G1 X-12.247 Y-34.309
G0 F3000 X-12.743 Y-34.239
G1 F1500 X34.239 Y12.743 E243.10886
G1 X34.309 Y12.813
G0 F3000 X34.239 Y13.309
G1 F1500 X-13.309 Y-34.239 E246.46363
G1 X-13.379 Y-34.309
G0 F3000 X-13.874 Y-34.239
G1 F1500 X34.239 Y13.874 E249.85826
G1 X34.309 Y13.944
G0 F3000 X34.239 Y14.44
G1 F1500 X-14.44 Y-34.239 E253.29283
G1 X-14.51 Y-34.309
G0 F3000 X-15.006 Y-34.239
G1 F1500 X34.239 Y15.006 E256.76733
G1 X34.309 Y15.076
G0 F3000 X34.239 Y15.571
G1 F1500 X-15.571 Y-34.239 E260.28169
G1 X-15.641 Y-34.309
G0 F3000 X-16.137 Y-34.239
G1 F1500 X34.239 Y16.137 E263.83599
G1 X34.309 Y16.207
G0 F3000 X34.239 Y16.703
G1 F1500 X-16.703 Y-34.239 E267.43022
G1 X-16.773 Y-34.309
G0 F3000 X-17.268 Y-34.239
G1 F1500 X34.239 Y17.268 E271.06432
G1 X34.309 Y17.338
G0 F3000 X34.239 Y17.834
G1 F1500 X-17.834 Y-34.239 E274.73835
G1 X-17.904 Y-34.309
G0 F3000 X-18.4 Y-34.239
G1 F1500 X34.239 Y18.4 E278.45232
G1 X34.309 Y18.47
G0 F3000 X34.239 Y18.966
G1 F1500 X-18.966 Y-34.239 E282.20622
G1 X-19.036 Y-34.309
G0 F3000 X-19.531 Y-34.239
G1 F1500 X34.239 Y19.531 E285.99998
G1 X34.309 Y19.601
G0 F3000 X34.239 Y20.097
G1 F1500 X-20.097 Y-34.239 E289.83368
G1 X-20.167 Y-34.309
G0 F3000 X-20.663 Y-34.239
G1 F1500 X34.239 Y20.663 E293.70731
G1 X34.309 Y20.733
G0 F3000 X34.239 Y21.228
