(1001)
(T1  D=3.175 CR=0. - ZMIN=-18.75 - FLAT END MILL)
G0 G90 G94 G17
G21
G53 G0 Z0.

(ADAPTIVE5)
M5
M9
T1
S16500 M3
G4 P4.
G55
G0 X-38.477 Y-0.793
Z15.
Z5.
Z2.5
G3 X-41.043 Y0.793 Z2.335 I-1.283 J0.793 F1016.
X-38.477 Y-0.793 Z2.169 I1.283 J-0.793
X-41.043 Y0.793 Z2.004 I-1.283 J0.793
X-38.477 Y-0.793 Z1.838 I1.283 J-0.793
X-41.043 Y0.793 Z1.673 I-1.283 J0.793
X-38.477 Y-0.793 Z1.507 I1.283 J-0.793
X-41.043 Y0.793 Z1.342 I-1.283 J0.793
X-38.477 Y-0.793 Z1.176 I1.283 J-0.793
X-41.043 Y0.793 Z1.011 I-1.283 J0.793
X-38.477 Y-0.793 Z0.845 I1.283 J-0.793
X-41.043 Y0.793 Z0.68 I-1.283 J0.793
X-38.477 Y-0.793 Z0.515 I1.283 J-0.793
X-41.043 Y0.793 Z0.349 I-1.283 J0.793
X-38.477 Y-0.793 Z0.184 I1.283 J-0.793
X-41.043 Y0.793 Z0.018 I-1.283 J0.793
X-38.477 Y-0.793 Z-0.147 I1.283 J-0.793
X-41.043 Y0.793 Z-0.313 I-1.283 J0.793
X-38.477 Y-0.793 Z-0.478 I1.283 J-0.793
X-41.043 Y0.793 Z-0.644 I-1.283 J0.793
X-38.477 Y-0.793 Z-0.809 I1.283 J-0.793
X-41.043 Y0.793 Z-0.974 I-1.283 J0.793
X-38.477 Y-0.793 Z-1.14 I1.283 J-0.793
X-41.043 Y0.793 Z-1.305 I-1.283 J0.793
X-38.477 Y-0.793 Z-1.471 I1.283 J-0.793
X-38.252 Y0. Z-1.5 I-1.283 J0.793
X-41.268 I-1.508 J0.
X-38.252 I1.508 J0.
G1 X-38.233 Y0.738
X-38.211 Y0.827
X-38.195 Y0.976
X-38.208 Y1.126
X-38.244 Y1.272
X-38.298 Y1.411
X-38.37 Y1.543
X-38.456 Y1.666
X-38.554 Y1.78
X-38.663 Y1.883
X-38.78 Y1.976
X-38.906 Y2.058
X-39.038 Y2.129
X-39.177 Y2.189
X-39.323 Y2.24
X-39.477 Y2.279
X-39.637 Y2.306
X-39.802 Y2.321
X-39.971 Y2.323
X-40.142 Y2.311
X-40.314 Y2.284
X-40.485 Y2.244
X-40.655 Y2.189
X-40.821 Y2.121
X-40.983 Y2.038
X-41.138 Y1.942
X-41.287 Y1.833
X-41.427 Y1.711
X-41.558 Y1.578
X-41.678 Y1.434
X-41.787 Y1.281
X-41.883 Y1.118
X-41.967 Y0.948
X-42.036 Y0.771
X-42.092 Y0.589
X-42.132 Y0.402
X-42.158 Y0.212
X-42.168 Y0.021
X-42.163 Y-0.171
X-42.143 Y-0.362
X-42.107 Y-0.551
X-42.056 Y-0.737
X-41.99 Y-0.918
X-41.91 Y-1.094
X-41.816 Y-1.262
X-41.708 Y-1.423
X-41.589 Y-1.575
X-41.457 Y-1.716
X-41.314 Y-1.847
X-41.161 Y-1.965
X-40.999 Y-2.072
X-40.829 Y-2.164
X-40.652 Y-2.243
X-40.47 Y-2.308
X-40.282 Y-2.357
X-40.092 Y-2.392
X-39.899 Y-2.411
X-39.705 Y-2.414
X-39.511 Y-2.402
X-39.32 Y-2.374
X-39.13 Y-2.331
X-38.945 Y-2.273
X-38.766 Y-2.201
X-38.592 Y-2.114
X-38.426 Y-2.013
X-38.269 Y-1.9
X-38.122 Y-1.774
X-37.985 Y-1.637
X-37.859 Y-1.489
X-37.746 Y-1.332
X-37.641 Y-1.159
X-37.53 Y-0.937
X-37.383 Y-0.572
X-37.276 Y-0.229
X-37.212 Y0.054
X-37.175 Y0.309
X-37.16 Y0.546
X-37.165 Y0.77
X-37.186 Y0.983
X-37.223 Y1.19
X-37.277 Y1.392
X-37.347 Y1.589
X-37.432 Y1.779
X-37.532 Y1.962
X-37.647 Y2.137
X-37.776 Y2.304
X-37.92 Y2.461
X-38.078 Y2.608
X-38.25 Y2.744
X-38.434 Y2.867
X-38.631 Y2.976
X-38.839 Y3.071
X-39.057 Y3.15
X-39.283 Y3.212
X-39.517 Y3.256
X-39.757 Y3.281
X-40.001 Y3.288
X-40.247 Y3.274
X-40.494 Y3.241
X-40.74 Y3.187
X-40.983 Y3.113
X-41.22 Y3.019
X-41.452 Y2.906
X-41.674 Y2.773
X-41.887 Y2.622
X-42.088 Y2.454
X-42.276 Y2.269
X-42.449 Y2.069
X-42.606 Y1.854
X-42.746 Y1.627
X-42.868 Y1.388
X-42.971 Y1.14
X-43.053 Y0.883
X-43.115 Y0.62
X-43.155 Y0.353
X-43.174 Y0.082
X-43.172 Y-0.19
X-43.147 Y-0.461
X-43.101 Y-0.73
X-43.033 Y-0.994
X-42.944 Y-1.253
X-42.834 Y-1.503
X-42.705 Y-1.744
X-42.557 Y-1.975
X-42.39 Y-2.192
X-42.206 Y-2.396
X-42.007 Y-2.585
X-41.793 Y-2.757
X-41.566 Y-2.911
X-41.327 Y-3.046
X-41.078 Y-3.162
X-40.82 Y-3.258
X-40.556 Y-3.333
X-40.286 Y-3.386
X-40.013 Y-3.417
X-39.738 Y-3.427
X-39.463 Y-3.414
X-39.19 Y-3.379
X-38.921 Y-3.323
X-38.657 Y-3.245
X-38.4 Y-3.146
X-38.152 Y-3.026
X-37.915 Y-2.888
X-37.689 Y-2.73
X-37.475 Y-2.554
X-37.269 Y-2.355
X-37.055 Y-2.111
X-36.853 Y-1.84
X-36.666 Y-1.543
X-36.502 Y-1.227
X-36.364 Y-0.902
X-36.256 Y-0.575
X-36.178 Y-0.252
X-36.126 Y0.068
X-36.102 Y0.385
Y0.697
X-36.128 Y1.005
X-36.177 Y1.306
X-36.25 Y1.6
X-36.346 Y1.886
X-36.464 Y2.162
X-36.603 Y2.427
X-36.764 Y2.681
X-36.945 Y2.922
X-37.145 Y3.148
X-37.365 Y3.359
X-37.602 Y3.553
X-37.856 Y3.728
X-38.126 Y3.884
X-38.409 Y4.019
X-38.706 Y4.132
X-39.012 Y4.221
X-39.328 Y4.286
X-39.651 Y4.326
X-39.978 Y4.34
X-40.308 Y4.327
X-40.638 Y4.288
X-40.965 Y4.222
X-41.289 Y4.129
X-41.606 Y4.01
X-41.915 Y3.865
X-42.212 Y3.695
X-42.496 Y3.5
X-42.765 Y3.282
X-43.017 Y3.042
X-43.249 Y2.782
X-43.461 Y2.503
X-43.651 Y2.206
X-43.816 Y1.895
X-43.957 Y1.57
X-44.071 Y1.234
X-44.158 Y0.889
X-44.217 Y0.538
X-44.248 Y0.182
X-44.25 Y-0.176
X-44.224 Y-0.533
X-44.168 Y-0.887
X-44.085 Y-1.236
X-43.973 Y-1.578
X-43.835 Y-1.91
X-43.67 Y-2.23
X-43.48 Y-2.536
X-43.265 Y-2.826
X-43.028 Y-3.098
X-42.77 Y-3.35
X-42.493 Y-3.58
X-42.197 Y-3.788
X-41.886 Y-3.972
X-41.561 Y-4.129
X-41.224 Y-4.261
X-40.878 Y-4.365
X-40.525 Y-4.441
X-40.166 Y-4.488
X-39.805 Y-4.506
X-39.443 Y-4.495
X-39.084 Y-4.455
X-38.729 Y-4.387
X-38.38 Y-4.29
X-38.04 Y-4.166
X-37.711 Y-4.014
X-37.393 Y-3.835
X-37.081 Y-3.625
X-36.777 Y-3.383
X-36.485 Y-3.11
X-36.209 Y-2.805
X-35.953 Y-2.474
X-35.723 Y-2.12
X-35.522 Y-1.749
X-35.352 Y-1.365
X-35.214 Y-0.971
X-35.11 Y-0.572
X-35.039 Y-0.169
X-35. Y0.235
X-34.995 Y0.637
X-35.021 Y1.036
X-35.079 Y1.428
X-35.167 Y1.812
X-35.286 Y2.187
X-35.434 Y2.55
X-35.611 Y2.9
X-35.815 Y3.235
X-36.046 Y3.552
X-36.302 Y3.851
X-36.582 Y4.129
X-36.885 Y4.385
X-37.209 Y4.617
X-37.553 Y4.824
X-37.915 Y5.003
X-38.291 Y5.154
X-38.682 Y5.274
X-39.083 Y5.364
X-39.492 Y5.421
X-39.907 Y5.445
X-40.325 Y5.436
X-40.743 Y5.393
X-41.159 Y5.317
X-41.57 Y5.206
X-41.972 Y5.063
X-42.363 Y4.886
X-42.741 Y4.678
X-43.102 Y4.44
X-43.444 Y4.171
X-43.765 Y3.876
X-44.063 Y3.554
X-44.334 Y3.208
X-44.577 Y2.841
X-44.791 Y2.454
X-44.973 Y2.05
X-45.123 Y1.632
X-45.239 Y1.203
X-45.32 Y0.765
X-45.366 Y0.32
X-45.376 Y-0.127
X-45.351 Y-0.574
X-45.289 Y-1.018
X-45.192 Y-1.456
X-45.059 Y-1.886
X-44.893 Y-2.304
X-44.693 Y-2.707
X-44.462 Y-3.094
X-44.2 Y-3.46
X-43.909 Y-3.805
X-43.592 Y-4.125
X-43.25 Y-4.42
X-42.885 Y-4.685
X-42.499 Y-4.921
X-42.096 Y-5.125
X-41.678 Y-5.296
X-41.247 Y-5.433
X-40.807 Y-5.535
X-40.36 Y-5.601
X-39.909 Y-5.632
X-39.457 Y-5.626
X-39.006 Y-5.583
X-38.561 Y-5.505
X-38.122 Y-5.391
X-37.692 Y-5.241
X-37.272 Y-5.056
X-36.862 Y-4.835
X-36.467 Y-4.578
X-36.086 Y-4.285
X-35.723 Y-3.955
X-35.382 Y-3.593
X-35.069 Y-3.2
X-34.786 Y-2.781
X-34.537 Y-2.339
X-34.325 Y-1.88
X-34.151 Y-1.406
X-34.016 Y-0.922
X-33.921 Y-0.432
X-33.866 Y0.062
X-33.85 Y0.556
X-33.875 Y1.047
X-33.938 Y1.533
X-34.04 Y2.01
X-34.179 Y2.476
X-34.355 Y2.928
X-34.566 Y3.364
X-34.812 Y3.783
X-35.091 Y4.18
X-35.402 Y4.554
X-35.742 Y4.904
X-36.11 Y5.225
X-36.505 Y5.518
X-36.923 Y5.778
X-37.363 Y6.006
X-37.822 Y6.198
X-38.297 Y6.353
X-38.786 Y6.471
X-39.284 Y6.549
X-39.79 Y6.587
X-40.3 Y6.584
X-40.81 Y6.541
X-41.317 Y6.456
X-41.818 Y6.33
X-42.309 Y6.163
X-42.787 Y5.957
X-43.249 Y5.713
X-43.692 Y5.431
X-44.111 Y5.113
X-44.506 Y4.761
X-44.871 Y4.378
X-45.206 Y3.966
X-45.508 Y3.527
X-45.773 Y3.064
X-46.002 Y2.58
X-46.191 Y2.078
X-46.339 Y1.562
X-46.446 Y1.035
X-46.51 Y0.5
X-46.531 Y-0.039
X-46.509 Y-0.579
X-46.443 Y-1.116
X-46.335 Y-1.646
X-46.184 Y-2.166
X-45.992 Y-2.673
X-45.759 Y-3.164
X-45.488 Y-3.634
X-45.179 Y-4.081
X-44.836 Y-4.503
X-44.46 Y-4.895
X-44.053 Y-5.256
X-43.618 Y-5.584
X-43.159 Y-5.875
X-42.677 Y-6.129
X-42.177 Y-6.344
X-41.66 Y-6.517
X-41.132 Y-6.649
X-40.594 Y-6.738
X-40.051 Y-6.783
X-39.506 Y-6.785
X-38.962 Y-6.743
X-38.423 Y-6.657
X-37.89 Y-6.528
X-37.366 Y-6.355
X-36.854 Y-6.14
X-36.356 Y-5.881
X-35.875 Y-5.579
X-35.413 Y-5.236
X-34.976 Y-4.852
X-34.566 Y-4.431
X-34.19 Y-3.975
X-33.85 Y-3.487
X-33.549 Y-2.973
X-33.29 Y-2.437
X-33.076 Y-1.882
X-32.907 Y-1.312
X-32.785 Y-0.733
X-32.709 Y-0.148
X-32.682 Y0.44
X-32.701 Y1.025
X-32.767 Y1.606
X-32.879 Y2.177
X-33.036 Y2.737
X-33.238 Y3.281
X-33.482 Y3.807
X-33.768 Y4.312
X-34.093 Y4.793
X-34.457 Y5.246
X-34.856 Y5.67
X-35.29 Y6.061
X-35.754 Y6.417
X-36.247 Y6.736
X-36.766 Y7.015
X-37.308 Y7.252
X-37.869 Y7.446
X-38.446 Y7.595
X-39.036 Y7.697
X-39.634 Y7.752
X-40.237 Y7.759
X-40.841 Y7.717
X-41.443 Y7.627
X-42.037 Y7.488
X-42.62 Y7.301
X-43.188 Y7.067
X-43.737 Y6.787
X-44.264 Y6.464
X-44.765 Y6.097
X-45.236 Y5.691
X-45.674 Y5.247
X-46.076 Y4.768
X-46.439 Y4.258
X-46.76 Y3.718
X-47.038 Y3.154
X-47.27 Y2.568
X-47.455 Y1.964
X-47.59 Y1.347
X-47.676 Y0.719
X-47.711 Y0.086
X-47.695 Y-0.548
X-47.629 Y-1.18
X-47.512 Y-1.805
X-47.344 Y-2.419
X-47.128 Y-3.018
X-46.865 Y-3.598
X-46.555 Y-4.156
X-46.202 Y-4.687
X-45.807 Y-5.188
X-45.372 Y-5.656
X-44.902 Y-6.088
X-44.398 Y-6.481
X-43.864 Y-6.832
X-43.303 Y-7.14
X-42.72 Y-7.401
X-42.117 Y-7.615
X-41.499 Y-7.78
X-40.869 Y-7.894
X-40.233 Y-7.958
X-39.592 Y-7.971
X-38.952 Y-7.932
X-38.316 Y-7.841
X-37.686 Y-7.699
X-37.067 Y-7.507
X-36.46 Y-7.263
X-35.871 Y-6.969
X-35.302 Y-6.626
X-34.759 Y-6.235
X-34.244 Y-5.798
X-33.763 Y-5.319
X-33.319 Y-4.799
X-32.917 Y-4.243
X-32.56 Y-3.655
X-32.25 Y-3.039
X-31.991 Y-2.4
X-31.785 Y-1.743
X-31.632 Y-1.074
X-31.533 Y-0.395
X-31.49 Y0.287
X-31.501 Y0.969
X-31.567 Y1.646
X-31.687 Y2.315
X-31.859 Y2.97
X-32.084 Y3.609
X-32.359 Y4.228
X-32.682 Y4.822
X-33.053 Y5.389
X-33.468 Y5.924
X-33.925 Y6.426
X-34.422 Y6.89
X-34.956 Y7.313
X-35.524 Y7.693
X-36.122 Y8.027
X-36.747 Y8.314
X-37.394 Y8.549
X-38.061 Y8.733
X-38.743 Y8.863
X-39.435 Y8.938
X-40.133 Y8.957
X-40.833 Y8.921
X-41.53 Y8.827
X-42.22 Y8.678
X-42.897 Y8.473
X-43.558 Y8.214
X-44.198 Y7.901
X-44.812 Y7.537
X-45.397 Y7.124
X-45.948 Y6.665
X-46.462 Y6.161
X-46.934 Y5.616
X-47.362 Y5.034
X-47.743 Y4.419
X-48.074 Y3.774
X-48.352 Y3.103
X-48.576 Y2.411
X-48.744 Y1.702
X-48.855 Y0.982
X-48.907 Y0.253
X-48.901 Y-0.477
X-48.837 Y-1.206
X-48.713 Y-1.928
X-48.533 Y-2.637
X-48.295 Y-3.331
X-48.003 Y-4.004
X-47.657 Y-4.651
X-47.261 Y-5.269
X-46.815 Y-5.853
X-46.325 Y-6.4
X-45.791 Y-6.906
X-45.219 Y-7.368
X-44.611 Y-7.782
X-43.972 Y-8.147
X-43.305 Y-8.458
X-42.616 Y-8.716
X-41.908 Y-8.917
X-41.186 Y-9.061
X-40.454 Y-9.146
X-39.718 Y-9.173
X-38.981 Y-9.14
X-38.249 Y-9.048
X-37.526 Y-8.898
X-36.818 Y-8.691
X-36.129 Y-8.428
X-35.462 Y-8.112
X-34.822 Y-7.745
X-34.213 Y-7.328
X-33.638 Y-6.866
X-33.1 Y-6.362
X-32.602 Y-5.817
X-32.146 Y-5.237
X-31.736 Y-4.624
X-31.373 Y-3.981
X-31.059 Y-3.313
X-30.797 Y-2.624
X-30.587 Y-1.917
X-30.43 Y-1.196
X-30.329 Y-0.465
X-30.284 Y0.272
X-30.295 Y1.009
X-30.363 Y1.744
X-30.488 Y2.471
X-30.667 Y3.187
X-30.901 Y3.887
X-31.188 Y4.567
X-31.526 Y5.222
X-31.913 Y5.851
X-32.346 Y6.448
X-32.824 Y7.01
X-33.344 Y7.534
X-33.901 Y8.017
X-34.494 Y8.456
X-35.119 Y8.849
X-35.771 Y9.194
X-36.447 Y9.489
X-37.144 Y9.732
X-37.857 Y9.923
X-38.582 Y10.059
X-39.315 Y10.139
X-40.052 Y10.164
X-40.79 Y10.134
X-41.522 Y10.048
X-42.247 Y9.909
X-42.96 Y9.718
X-43.656 Y9.474
X-44.333 Y9.181
X-44.987 Y8.839
X-45.614 Y8.451
X-46.212 Y8.019
X-46.777 Y7.544
X-47.304 Y7.028
X-47.792 Y6.474
X-48.238 Y5.887
X-48.641 Y5.269
X-48.999 Y4.623
X-49.31 Y3.954
X-49.572 Y3.264
X-49.785 Y2.558
X-49.948 Y1.838
X-50.057 Y1.109
X-50.112 Y0.373
X-50.113 Y-0.365
X-50.062 Y-1.101
X-49.959 Y-1.831
X-49.804 Y-2.553
X-49.599 Y-3.262
X-49.345 Y-3.954
X-49.042 Y-4.627
X-48.692 Y-5.277
X-48.295 Y-5.898
X-47.853 Y-6.49
X-47.371 Y-7.048
X-46.851 Y-7.571
X-46.295 Y-8.056
X-45.706 Y-8.501
X-45.088 Y-8.904
X-44.443 Y-9.262
X-43.774 Y-9.573
X-43.084 Y-9.833
X-42.376 Y-10.043
X-41.656 Y-10.203
X-40.926 Y-10.311
X-40.191 Y-10.368
X-39.453 Y-10.374
X-38.716 Y-10.328
X-37.985 Y-10.23
X-37.263 Y-10.079
X-36.554 Y-9.876
X-35.86 Y-9.624
X-35.186 Y-9.324
X-34.534 Y-8.978
X-33.908 Y-8.589
X-33.309 Y-8.158
X-32.74 Y-7.687
X-32.205 Y-7.18
X-31.707 Y-6.635
X-31.247 Y-6.058
X-30.828 Y-5.451
X-30.45 Y-4.817
X-30.115 Y-4.16
X-29.824 Y-3.482
X-29.578 Y-2.786
X-29.379 Y-2.076
X-29.228 Y-1.354
X-29.127 Y-0.623
X-29.078 Y0.113
Y0.851
X-29.129 Y1.587
X-29.23 Y2.318
X-29.379 Y3.041
X-29.577 Y3.752
X-29.821 Y4.448
X-30.112 Y5.126
X-30.45 Y5.781
X-30.833 Y6.412
X-31.258 Y7.015
X-31.722 Y7.589
X-32.224 Y8.129
X-32.761 Y8.635
X-33.331 Y9.105
X-33.93 Y9.535
X-34.557 Y9.924
X-35.209 Y10.269
X-35.884 Y10.568
X-36.577 Y10.821
X-37.285 Y11.028
X-38.006 Y11.187
X-38.735 Y11.297
X-39.47 Y11.359
X-40.208 Y11.373
X-40.945 Y11.337
X-41.678 Y11.252
X-42.403 Y11.117
X-43.118 Y10.934
X-43.819 Y10.706
X-44.505 Y10.432
X-45.171 Y10.115
X-45.816 Y9.756
X-46.436 Y9.357
X-47.03 Y8.919
X-47.592 Y8.442
X-48.121 Y7.928
X-48.615 Y7.379
X-49.072 Y6.8
X-49.491 Y6.193
X-49.871 Y5.56
X-50.21 Y4.905
X-50.507 Y4.229
X-50.761 Y3.537
X-50.97 Y2.829
X-51.132 Y2.109
X-51.246 Y1.38
X-51.311 Y0.645
X-51.33 Y-0.092
X-51.301 Y-0.829
X-51.226 Y-1.563
X-51.105 Y-2.291
X-50.939 Y-3.01
X-50.728 Y-3.717
X-50.472 Y-4.409
X-50.171 Y-5.083
X-49.827 Y-5.735
X-49.441 Y-6.364
X-49.016 Y-6.967
X-48.553 Y-7.542
X-48.055 Y-8.086
X-47.524 Y-8.599
X-46.963 Y-9.077
X-46.372 Y-9.519
X-45.754 Y-9.922
X-45.111 Y-10.284
X-44.445 Y-10.603
X-43.761 Y-10.878
X-43.06 Y-11.11
X-42.347 Y-11.297
X-41.623 Y-11.438
X-40.891 Y-11.535
X-40.155 Y-11.585
X-39.417 Y-11.589
X-38.681 Y-11.545
X-37.949 Y-11.453
X-37.224 Y-11.314
X-36.51 Y-11.13
X-35.808 Y-10.9
X-35.123 Y-10.628
X-34.455 Y-10.314
X-33.808 Y-9.96
X-33.183 Y-9.568
X-32.584 Y-9.136
X-32.014 Y-8.669
X-31.474 Y-8.166
X-30.966 Y-7.631
X-30.491 Y-7.066
X-30.052 Y-6.473
X-29.649 Y-5.855
X-29.283 Y-5.214
X-28.956 Y-4.553
X-28.669 Y-3.873
X-28.424 Y-3.177
X-28.222 Y-2.468
X-28.064 Y-1.747
X-27.951 Y-1.018
X-27.882 Y-0.283
X-27.859 Y0.454
X-27.88 Y1.192
X-27.946 Y1.927
X-28.055 Y2.656
X-28.208 Y3.378
X-28.406 Y4.089
X-28.647 Y4.786
X-28.932 Y5.467
X-29.258 Y6.129
X-29.624 Y6.769
X-30.028 Y7.387
X-30.469 Y7.978
X-30.944 Y8.542
X-31.453 Y9.077
X-31.992 Y9.581
X-32.561 Y10.05
X-33.159 Y10.483
X-33.782 Y10.878
X-34.428 Y11.235
X-35.094 Y11.552
X-35.778 Y11.828
X-36.478 Y12.063
X-37.19 Y12.255
X-37.912 Y12.406
X-38.642 Y12.513
X-39.377 Y12.575
X-40.115 Y12.592
X-40.852 Y12.564
X-41.586 Y12.491
X-42.315 Y12.374
X-43.035 Y12.215
X-43.745 Y12.014
X-44.442 Y11.771
X-45.124 Y11.489
X-45.788 Y11.169
X-46.433 Y10.809
X-47.054 Y10.412
X-47.651 Y9.978
X-48.221 Y9.509
X-48.762 Y9.007
X-49.272 Y8.474
X-49.75 Y7.912
X-50.195 Y7.324
X-50.605 Y6.71
X-50.98 Y6.075
X-51.317 Y5.419
X-51.615 Y4.744
X-51.874 Y4.053
X-52.091 Y3.348
X-52.267 Y2.631
X-52.4 Y1.905
X-52.49 Y1.173
X-52.538 Y0.437
X-52.544 Y-0.301
X-52.507 Y-1.038
X-52.429 Y-1.772
X-52.308 Y-2.499
X-52.145 Y-3.219
X-51.941 Y-3.928
X-51.696 Y-4.624
X-51.41 Y-5.304
X-51.086 Y-5.967
X-50.723 Y-6.609
X-50.325 Y-7.23
X-49.891 Y-7.827
X-49.424 Y-8.399
X-48.926 Y-8.943
X-48.396 Y-9.456
X-47.838 Y-9.938
X-47.252 Y-10.388
X-46.642 Y-10.802
X-46.009 Y-11.181
X-45.354 Y-11.522
X-44.681 Y-11.824
X-43.992 Y-12.088
X-43.289 Y-12.312
X-42.575 Y-12.496
X-41.851 Y-12.638
X-41.12 Y-12.738
X-40.384 Y-12.796
X-39.647 Y-12.811
X-38.909 Y-12.783
X-38.175 Y-12.713
X-37.446 Y-12.6
X-36.724 Y-12.447
X-36.012 Y-12.252
X-35.313 Y-12.018
X-34.627 Y-11.745
X-33.959 Y-11.432
X-33.309 Y-11.083
X-32.68 Y-10.697
X-32.074 Y-10.277
X-31.492 Y-9.823
X-30.937 Y-9.337
X-30.409 Y-8.821
X-29.911 Y-8.277
X-29.444 Y-7.706
X-29.008 Y-7.111
X-28.605 Y-6.493
X-28.238 Y-5.853
X-27.906 Y-5.194
X-27.611 Y-4.517
X-27.354 Y-3.826
X-27.135 Y-3.121
X-26.955 Y-2.406
X-26.816 Y-1.681
X-26.716 Y-0.95
X-26.656 Y-0.215
X-26.637 Y0.523
X-26.659 Y1.26
X-26.723 Y1.995
X-26.827 Y2.726
X-26.972 Y3.449
X-27.156 Y4.164
X-27.38 Y4.867
X-27.643 Y5.556
X-27.944 Y6.23
X-28.282 Y6.886
X-28.655 Y7.522
X-29.062 Y8.137
X-29.504 Y8.729
X-29.977 Y9.294
X-30.481 Y9.833
X-31.014 Y10.343
X-31.575 Y10.823
X-32.161 Y11.271
X-32.771 Y11.686
X-33.403 Y12.067
X-34.055 Y12.412
X-34.725 Y12.722
X-35.41 Y12.995
X-36.11 Y13.229
X-36.821 Y13.424
X-37.543 Y13.58
X-38.271 Y13.696
X-39.005 Y13.772
X-39.742 Y13.808
X-40.48 Y13.803
X-41.216 Y13.757
X-41.949 Y13.672
X-42.676 Y13.548
X-43.396 Y13.385
X-44.106 Y13.183
X-44.803 Y12.943
X-45.487 Y12.666
X-46.155 Y12.353
X-46.806 Y12.005
X-47.436 Y11.622
X-48.046 Y11.206
X-48.631 Y10.757
X-49.192 Y10.278
X-49.727 Y9.769
X-50.234 Y9.233
X-50.711 Y8.67
X-51.157 Y8.083
X-51.571 Y7.472
X-51.952 Y6.84
X-52.3 Y6.189
X-52.612 Y5.521
X-52.889 Y4.837
X-53.129 Y4.14
X-53.332 Y3.43
X-53.497 Y2.711
X-53.624 Y1.984
X-53.712 Y1.252
X-53.761 Y0.515
X-53.769 Y-0.222
X-53.74 Y-0.96
X-53.671 Y-1.694
X-53.564 Y-2.424
X-53.419 Y-3.148
X-53.236 Y-3.862
X-53.015 Y-4.566
X-52.758 Y-5.258
X-52.465 Y-5.935
X-52.137 Y-6.596
X-51.774 Y-7.238
X-51.377 Y-7.86
X-50.948 Y-8.46
X-50.487 Y-9.037
X-49.997 Y-9.589
X-49.479 Y-10.114
X-48.934 Y-10.611
X-48.364 Y-11.08
X-47.77 Y-11.517
X-47.154 Y-11.923
X-46.518 Y-12.297
X-45.863 Y-12.636
X-45.19 Y-12.939
X-44.502 Y-13.206
X-43.802 Y-13.437
X-43.09 Y-13.631
X-42.368 Y-13.787
X-41.64 Y-13.905
X-40.907 Y-13.984
X-40.17 Y-14.026
X-39.432 Y-14.029
X-38.695 Y-13.993
X-37.961 Y-13.919
X-37.232 Y-13.807
X-36.51 Y-13.655
X-35.797 Y-13.465
X-35.094 Y-13.239
X-34.405 Y-12.977
X-33.73 Y-12.68
X-33.071 Y-12.348
X-32.43 Y-11.982
X-31.808 Y-11.585
X-31.208 Y-11.156
X-30.63 Y-10.697
X-30.076 Y-10.21
X-29.548 Y-9.694
X-29.048 Y-9.152
X-28.576 Y-8.585
X-28.132 Y-7.995
X-27.72 Y-7.384
X-27.338 Y-6.752
X-26.989 Y-6.102
X-26.672 Y-5.436
X-26.39 Y-4.754
X-26.141 Y-4.06
X-25.928 Y-3.353
X-25.751 Y-2.637
X-25.611 Y-1.913
X-25.508 Y-1.182
X-25.443 Y-0.447
X-25.415 Y0.29
X-25.424 Y1.028
X-25.471 Y1.764
X-25.555 Y2.497
X-25.675 Y3.225
X-25.833 Y3.946
X-26.026 Y4.658
X-26.256 Y5.359
X-26.52 Y6.048
X-26.82 Y6.722
X-27.155 Y7.38
X-27.523 Y8.019
X-27.922 Y8.64
X-28.352 Y9.239
X-28.812 Y9.816
X-29.301 Y10.369
X-29.817 Y10.896
X-30.358 Y11.397
X-30.925 Y11.87
X-31.514 Y12.314
X-32.125 Y12.728
X-32.756 Y13.11
X-33.406 Y13.459
X-34.073 Y13.774
X-34.755 Y14.056
X-35.45 Y14.303
X-36.157 Y14.515
X-36.873 Y14.692
X-37.598 Y14.832
X-38.328 Y14.936
X-39.063 Y15.004
X-39.8 Y15.034
X-40.538 Y15.028
X-41.274 Y14.984
X-42.008 Y14.903
X-42.736 Y14.785
X-43.458 Y14.631
X-44.171 Y14.442
X-44.874 Y14.219
X-45.565 Y13.96
X-46.243 Y13.669
X-46.906 Y13.345
X-47.552 Y12.989
X-48.18 Y12.601
X-48.788 Y12.183
X-49.374 Y11.735
X-49.937 Y11.258
X-50.475 Y10.754
X-50.989 Y10.224
X-51.475 Y9.669
X-51.934 Y9.092
X-52.364 Y8.492
X-52.765 Y7.873
X-53.135 Y7.234
X-53.474 Y6.579
X-53.781 Y5.908
X-54.055 Y5.223
X-54.295 Y4.525
X-54.5 Y3.817
X-54.67 Y3.099
X-54.804 Y2.373
X-54.903 Y1.642
X-54.967 Y0.907
X-54.994 Y0.17
X-54.986 Y-0.568
X-54.942 Y-1.305
X-54.863 Y-2.038
X-54.748 Y-2.767
X-54.599 Y-3.49
X-54.415 Y-4.204
X-54.196 Y-4.909
X-53.943 Y-5.602
X-53.656 Y-6.281
X-53.336 Y-6.946
X-52.985 Y-7.595
X-52.602 Y-8.226
X-52.189 Y-8.837
X-51.747 Y-9.428
X-51.278 Y-9.998
X-50.782 Y-10.544
X-50.26 Y-11.065
X-49.714 Y-11.561
X-49.144 Y-12.03
X-48.551 Y-12.469
X-47.938 Y-12.88
X-47.306 Y-13.26
X-46.656 Y-13.61
X-45.99 Y-13.927
X-45.309 Y-14.212
X-44.616 Y-14.463
X-43.911 Y-14.681
X-43.196 Y-14.865
X-42.474 Y-15.014
X-41.745 Y-15.129
X-41.011 Y-15.209
X-40.275 Y-15.252
X-39.537 Y-15.259
X-38.8 Y-15.23
X-38.065 Y-15.166
X-37.334 Y-15.067
X-36.608 Y-14.932
X-35.89 Y-14.762
X-35.181 Y-14.559
X-34.482 Y-14.322
X-33.796 Y-14.052
X-33.122 Y-13.75
X-32.464 Y-13.417
X-31.823 Y-13.052
X-31.2 Y-12.657
X-30.596 Y-12.232
X-30.013 Y-11.78
X-29.452 Y-11.301
X-28.914 Y-10.796
X-28.401 Y-10.266
X-27.913 Y-9.712
X-27.451 Y-9.137
X-27.016 Y-8.541
X-26.61 Y-7.925
X-26.232 Y-7.292
X-25.883 Y-6.641
X-25.566 Y-5.975
X-25.281 Y-5.295
X-25.027 Y-4.602
X-24.806 Y-3.898
X-24.618 Y-3.185
X-24.464 Y-2.463
X-24.343 Y-1.735
X-24.257 Y-1.002
X-24.205 Y-0.267
X-24.187 Y0.471
X-24.203 Y1.209
X-24.253 Y1.945
X-24.338 Y2.678
X-24.458 Y3.406
X-24.612 Y4.127
X-24.8 Y4.841
X-25.021 Y5.545
X-25.274 Y6.238
X-25.561 Y6.918
X-25.878 Y7.584
X-26.227 Y8.234
X-26.605 Y8.867
X-27.013 Y9.482
X-27.448 Y10.078
X-27.911 Y10.653
X-28.4 Y11.205
X-28.914 Y11.734
X-29.454 Y12.238
X-30.015 Y12.716
X-30.599 Y13.167
X-31.203 Y13.591
X-31.826 Y13.986
X-32.467 Y14.351
X-33.124 Y14.687
X-33.796 Y14.992
X-34.482 Y15.265
X-35.179 Y15.507
X-35.886 Y15.716
X-36.603 Y15.892
X-37.327 Y16.034
X-38.057 Y16.142
X-38.791 Y16.216
X-39.527 Y16.256
X-40.265 Y16.262
X-41.003 Y16.233
X-41.738 Y16.171
X-42.469 Y16.075
X-43.196 Y15.946
X-43.915 Y15.784
X-44.627 Y15.589
X-45.329 Y15.362
X-46.02 Y15.104
X-46.699 Y14.814
X-47.363 Y14.493
X-48.012 Y14.142
X-48.645 Y13.762
X-49.259 Y13.354
X-49.854 Y12.918
X-50.429 Y12.455
X-50.982 Y11.967
X-51.512 Y11.454
X-52.019 Y10.917
X-52.5 Y10.358
X-52.957 Y9.778
X-53.386 Y9.179
X-53.788 Y8.56
X-54.161 Y7.923
X-54.505 Y7.27
X-54.819 Y6.603
X-55.103 Y5.922
X-55.356 Y5.229
X-55.578 Y4.525
X-55.767 Y3.812
X-55.924 Y3.091
X-56.049 Y2.364
X-56.14 Y1.632
X-56.199 Y0.896
X-56.225 Y0.159
X-56.217 Y-0.579
X-56.176 Y-1.316
X-56.102 Y-2.05
X-55.995 Y-2.78
X-55.855 Y-3.504
X-55.684 Y-4.222
X-55.48 Y-4.931
X-55.244 Y-5.63
X-54.977 Y-6.318
X-54.68 Y-6.993
X-54.353 Y-7.655
X-53.997 Y-8.301
X-53.612 Y-8.93
X-53.199 Y-9.542
X-52.759 Y-10.134
X-52.293 Y-10.705
X-51.801 Y-11.256
X-51.286 Y-11.784
X-50.747 Y-12.288
X-50.186 Y-12.768
X-49.605 Y-13.222
X-49.004 Y-13.649
X-48.384 Y-14.05
X-47.747 Y-14.422
X-47.094 Y-14.765
X-46.426 Y-15.079
X-45.745 Y-15.363
X-45.052 Y-15.616
X-44.348 Y-15.836
X-43.635 Y-16.026
X-42.914 Y-16.183
X-42.187 Y-16.308
X-41.455 Y-16.4
X-40.719 Y-16.46
X-39.982 Y-16.487
X-39.244 Y-16.48
X-38.507 Y-16.441
X-37.773 Y-16.37
X-37.043 Y-16.265
X-36.318 Y-16.129
X-35.599 Y-15.959
X-34.89 Y-15.758
X-34.19 Y-15.525
X-33.5 Y-15.262
X-32.823 Y-14.968
X-32.16 Y-14.645
X-31.512 Y-14.293
X-30.879 Y-13.913
X-30.264 Y-13.506
X-29.667 Y-13.072
X-29.09 Y-12.613
X-28.533 Y-12.128
X-27.998 Y-11.621
X-27.485 Y-11.09
X-26.996 Y-10.538
X-26.532 Y-9.964
X-26.094 Y-9.371
X-25.681 Y-8.759
X-25.294 Y-8.131
X-24.936 Y-7.486
X-24.605 Y-6.826
X-24.303 Y-6.153
X-24.03 Y-5.468
X-23.787 Y-4.771
X-23.575 Y-4.064
X-23.392 Y-3.349
X-23.241 Y-2.627
X-23.122 Y-1.899
X-23.034 Y-1.167
X-22.979 Y-0.431
X-22.956 Y0.307
X-22.965 Y1.044
X-23.005 Y1.781
X-23.077 Y2.515
X-23.182 Y3.246
X-23.318 Y3.971
X-23.485 Y4.69
X-23.683 Y5.4
X-23.912 Y6.102
X-24.171 Y6.793
X-24.459 Y7.472
X-24.777 Y8.137
X-25.125 Y8.788
X-25.5 Y9.424
X-25.903 Y10.042
X-26.332 Y10.642
X-26.786 Y11.224
X-27.265 Y11.785
X-27.768 Y12.324
X-28.294 Y12.842
X-28.842 Y13.336
X-29.41 Y13.807
X-29.998 Y14.252
X-30.605 Y14.672
X-31.23 Y15.065
X-31.87 Y15.43
X-32.527 Y15.767
X-33.197 Y16.075
X-33.88 Y16.354
X-34.575 Y16.604
X-35.279 Y16.823
X-35.992 Y17.012
X-36.713 Y17.171
X-37.44 Y17.297
X-38.171 Y17.393
X-38.906 Y17.457
X-39.643 Y17.49
X-40.381 Y17.491
X-41.118 Y17.461
X-41.854 Y17.399
X-42.585 Y17.305
X-43.312 Y17.179
X-44.033 Y17.023
X-44.747 Y16.837
X-45.453 Y16.62
X-46.148 Y16.374
X-46.833 Y16.099
X-47.505 Y15.795
X-48.164 Y15.463
X-48.808 Y15.104
X-49.437 Y14.717
X-50.049 Y14.305
X-50.643 Y13.867
X-51.217 Y13.404
X-51.771 Y12.917
X-52.304 Y12.406
X-52.814 Y11.874
X-53.302 Y11.32
X-53.766 Y10.747
X-54.206 Y10.154
X-54.621 Y9.544
X-55.009 Y8.917
X-55.371 Y8.274
X-55.706 Y7.616
X-56.013 Y6.945
X-56.292 Y6.262
X-56.543 Y5.568
X-56.764 Y4.864
X-56.954 Y4.152
X-57.114 Y3.431
X-57.244 Y2.705
X-57.343 Y1.974
X-57.411 Y1.239
X-57.449 Y0.502
X-57.456 Y-0.235
X-57.432 Y-0.973
X-57.377 Y-1.709
X-57.292 Y-2.442
X-57.177 Y-3.17
X-57.031 Y-3.894
X-56.856 Y-4.61
X-56.651 Y-5.319
X-56.416 Y-6.018
X-56.151 Y-6.707
X-55.858 Y-7.384
X-55.537 Y-8.048
X-55.188 Y-8.699
X-54.813 Y-9.334
X-54.412 Y-9.953
X-53.985 Y-10.555
X-53.533 Y-11.138
X-53.058 Y-11.702
X-52.559 Y-12.246
X-52.039 Y-12.769
X-51.497 Y-13.27
X-50.935 Y-13.749
X-50.354 Y-14.203
X-49.753 Y-14.632
X-49.136 Y-15.035
X-48.501 Y-15.412
X-47.852 Y-15.763
X-47.189 Y-16.086
X-46.513 Y-16.381
X-45.825 Y-16.648
X-45.127 Y-16.886
X-44.419 Y-17.095
X-43.703 Y-17.274
X-42.981 Y-17.424
X-42.253 Y-17.544
X-41.52 Y-17.633
X-40.785 Y-17.692
X-40.048 Y-17.72
X-39.31 Y-17.716
X-38.573 Y-17.682
X-37.838 Y-17.618
X-37.106 Y-17.523
X-36.379 Y-17.397
X-35.658 Y-17.242
X-34.944 Y-17.057
X-34.238 Y-16.842
X-33.541 Y-16.599
X-32.855 Y-16.328
X-32.181 Y-16.028
X-31.519 Y-15.702
X-30.871 Y-15.349
X-30.239 Y-14.969
X-29.622 Y-14.563
X-29.023 Y-14.132
X-28.442 Y-13.678
X-27.88 Y-13.199
X-27.338 Y-12.699
X-26.817 Y-12.177
X-26.317 Y-11.635
X-25.839 Y-11.072
X-25.385 Y-10.491
X-24.954 Y-9.892
X-24.548 Y-9.276
X-24.166 Y-8.644
X-23.811 Y-7.998
X-23.481 Y-7.338
X-23.178 Y-6.665
X-22.904 Y-5.98
X-22.657 Y-5.285
X-22.438 Y-4.58
X-22.248 Y-3.867
X-22.087 Y-3.147
X-21.955 Y-2.421
X-21.852 Y-1.691
X-21.779 Y-0.957
X-21.736 Y-0.22
X-21.723 Y0.518
X-21.739 Y1.255
X-21.785 Y1.992
X-21.86 Y2.726
X-21.965 Y3.456
X-22.1 Y4.181
X-22.265 Y4.9
X-22.458 Y5.612
X-22.681 Y6.316
X-22.932 Y7.01
X-23.21 Y7.693
X-23.516 Y8.364
X-23.849 Y9.023
X-24.209 Y9.667
X-24.594 Y10.296
X-25.004 Y10.91
X-25.439 Y11.506
X-25.897 Y12.084
X-26.377 Y12.644
X-26.881 Y13.184
X-27.406 Y13.702
X-27.951 Y14.199
X-28.517 Y14.673
X-29.101 Y15.124
X-29.702 Y15.551
X-30.32 Y15.953
X-30.954 Y16.331
X-31.603 Y16.682
X-32.266 Y17.007
X-32.94 Y17.305
X-33.627 Y17.576
X-34.323 Y17.82
X-35.029 Y18.035
X-35.743 Y18.222
X-36.463 Y18.38
X-37.19 Y18.509
X-37.921 Y18.608
X-38.656 Y18.677
X-39.392 Y18.717
X-40.13 Y18.728
X-40.868 Y18.709
X-41.604 Y18.661
X-42.338 Y18.583
X-43.068 Y18.476
X-43.793 Y18.34
X-44.512 Y18.176
X-45.224 Y17.983
X-45.928 Y17.763
X-46.623 Y17.515
X-47.308 Y17.24
X-47.981 Y16.937
X-48.641 Y16.608
X-49.288 Y16.253
X-49.92 Y15.873
X-50.537 Y15.468
X-51.137 Y15.039
X-51.72 Y14.587
X-52.285 Y14.112
X-52.83 Y13.614
X-53.355 Y13.096
X-53.859 Y12.558
X-54.342 Y12.
X-54.803 Y11.424
X-55.241 Y10.83
X-55.656 Y10.22
X-56.045 Y9.593
X-56.41 Y8.952
X-56.749 Y8.296
X-57.062 Y7.628
X-57.349 Y6.948
X-57.609 Y6.258
X-57.843 Y5.558
X-58.048 Y4.849
X-58.225 Y4.133
X-58.374 Y3.41
X-58.494 Y2.683
X-58.587 Y1.951
X-58.65 Y1.216
X-58.685 Y0.479
X-58.692 Y-0.259
X-58.669 Y-0.997
X-58.616 Y-1.733
X-58.535 Y-2.466
X-58.426 Y-3.196
X-58.288 Y-3.921
X-58.123 Y-4.64
X-57.929 Y-5.352
X-57.708 Y-6.055
X-57.46 Y-6.75
X-57.184 Y-7.434
X-56.882 Y-8.108
X-56.554 Y-8.769
X-56.201 Y-9.416
X-55.822 Y-10.05
X-55.42 Y-10.668
X-54.993 Y-11.27
X-54.543 Y-11.855
X-54.071 Y-12.421
X-53.576 Y-12.969
X-53.061 Y-13.497
X-52.526 Y-14.005
X-51.971 Y-14.492
X-51.398 Y-14.957
X-50.808 Y-15.399
X-50.2 Y-15.817
X-49.576 Y-16.212
X-48.938 Y-16.582
X-48.286 Y-16.927
X-47.621 Y-17.246
X-46.944 Y-17.54
X-46.256 Y-17.807
X-45.558 Y-18.046
X-44.852 Y-18.258
X-44.137 Y-18.442
X-43.416 Y-18.598
X-42.689 Y-18.726
X-41.958 Y-18.827
X-41.224 Y-18.898
X-40.488 Y-18.941
X-39.75 Y-18.955
X-39.012 Y-18.941
X-38.276 Y-18.898
X-37.541 Y-18.826
X-36.81 Y-18.726
X-36.084 Y-18.598
X-35.362 Y-18.443
X-34.648 Y-18.258
X-33.941 Y-18.046
X-33.243 Y-17.807
X-32.555 Y-17.541
X-31.878 Y-17.249
X-31.212 Y-16.931
X-30.558 Y-16.588
X-29.919 Y-16.221
X-29.294 Y-15.828
X-28.684 Y-15.413
X-28.091 Y-14.974
X-27.515 Y-14.513
X-26.957 Y-14.031
X-26.417 Y-13.528
X-25.897 Y-13.004
X-25.397 Y-12.462
X-24.918 Y-11.9
X-24.462 Y-11.321
X-24.027 Y-10.724
X-23.615 Y-10.112
X-23.227 Y-9.485
X-22.862 Y-8.844
X-22.522 Y-8.189
X-22.206 Y-7.522
X-21.916 Y-6.844
X-21.652 Y-6.155
X-21.414 Y-5.456
X-21.203 Y-4.749
X-21.018 Y-4.035
X-20.86 Y-3.314
X-20.729 Y-2.588
X-20.626 Y-1.858
X-20.552 Y-1.124
X-20.505 Y-0.387
X-20.487 Y0.35
X-20.496 Y1.088
X-20.533 Y1.825
X-20.598 Y2.56
X-20.69 Y3.292
X-20.811 Y4.02
X-20.959 Y4.743
X-21.134 Y5.459
X-21.337 Y6.169
X-21.565 Y6.87
X-21.821 Y7.562
X-22.102 Y8.245
X-22.409 Y8.916
X-22.741 Y9.574
X-23.099 Y10.22
X-23.481 Y10.851
X-23.887 Y11.467
X-24.315 Y12.068
X-24.766 Y12.652
X-25.238 Y13.219
X-25.732 Y13.767
X-26.246 Y14.296
X-26.78 Y14.806
X-27.332 Y15.295
X-27.903 Y15.762
X-28.491 Y16.208
X-29.095 Y16.632
X-29.714 Y17.032
X-30.349 Y17.409
X-30.997 Y17.762
X-31.658 Y18.089
X-32.331 Y18.391
X-33.015 Y18.667
X-33.709 Y18.918
X-34.412 Y19.142
X-35.123 Y19.34
X-35.841 Y19.511
X-36.564 Y19.655
X-37.293 Y19.772
X-38.025 Y19.861
X-38.761 Y19.922
X-39.498 Y19.956
X-40.235 Y19.963
X-40.973 Y19.942
X-41.709 Y19.894
X-42.443 Y19.817
X-43.173 Y19.712
X-43.899 Y19.581
X-44.62 Y19.422
X-45.334 Y19.237
X-46.041 Y19.026
X-46.74 Y18.789
X-47.429 Y18.526
X-48.108 Y18.238
X-48.776 Y17.924
X-49.432 Y17.586
X-50.075 Y17.225
X-50.704 Y16.839
X-51.319 Y16.431
X-51.918 Y16.
X-52.5 Y15.548
X-53.066 Y15.073
X-53.612 Y14.578
X-54.14 Y14.062
X-54.649 Y13.528
X-55.138 Y12.975
X-55.606 Y12.405
X-56.053 Y11.818
X-56.478 Y11.215
X-56.88 Y10.596
X-57.259 Y9.963
X-57.615 Y9.317
X-57.947 Y8.658
X-58.255 Y7.988
X-58.538 Y7.306
X-58.796 Y6.615
X-59.028 Y5.915
X-59.234 Y5.206
X-59.413 Y4.49
X-59.566 Y3.768
X-59.691 Y3.041
X-59.791 Y2.31
X-59.863 Y1.576
X-59.909 Y0.84
X-59.928 Y0.102
X-59.919 Y-0.636
X-59.884 Y-1.373
X-59.821 Y-2.108
X-59.732 Y-2.84
X-59.616 Y-3.569
X-59.474 Y-4.293
X-59.305 Y-5.011
X-59.111 Y-5.723
X-58.89 Y-6.427
X-58.643 Y-7.122
X-58.37 Y-7.808
X-58.072 Y-8.483
X-57.75 Y-9.146
X-57.404 Y-9.798
X-57.035 Y-10.437
X-56.643 Y-11.062
X-56.227 Y-11.672
X-55.79 Y-12.266
X-55.331 Y-12.844
X-54.852 Y-13.404
X-54.352 Y-13.947
X-53.833 Y-14.472
X-53.296 Y-14.977
X-52.74 Y-15.463
X-52.167 Y-15.927
X-51.577 Y-16.37
X-50.971 Y-16.791
X-50.35 Y-17.189
X-49.715 Y-17.565
X-49.066 Y-17.917
X-48.405 Y-18.245
X-47.733 Y-18.549
X-47.05 Y-18.828
X-46.357 Y-19.082
X-45.656 Y-19.31
X-44.946 Y-19.513
X-44.23 Y-19.689
X-43.508 Y-19.84
X-42.78 Y-19.964
X-42.049 Y-20.062
X-41.315 Y-20.133
X-40.578 Y-20.177
X-39.841 Y-20.193
X-39.103 Y-20.183
X-38.366 Y-20.145
X-37.631 Y-20.081
X-36.899 Y-19.99
X-36.17 Y-19.872
X-35.447 Y-19.729
X-34.729 Y-19.559
X-34.017 Y-19.363
X-33.314 Y-19.141
X-32.619 Y-18.894
X-31.933 Y-18.622
X-31.257 Y-18.325
X-30.592 Y-18.005
X-29.94 Y-17.661
X-29.3 Y-17.294
X-28.674 Y-16.903
X-28.063 Y-16.49
X-27.467 Y-16.055
X-26.887 Y-15.599
X-26.323 Y-15.123
X-25.777 Y-14.627
X-25.249 Y-14.111
X-24.739 Y-13.578
X-24.249 Y-13.026
X-23.779 Y-12.457
X-23.33 Y-11.872
X-22.901 Y-11.272
X-22.494 Y-10.656
X-22.109 Y-10.027
X-21.746 Y-9.384
X-21.407 Y-8.73
X-21.09 Y-8.063
X-20.799 Y-7.385
X-20.532 Y-6.697
X-20.289 Y-6.001
X-20.071 Y-5.296
X-19.878 Y-4.584
X-19.71 Y-3.865
X-19.568 Y-3.141
X-19.452 Y-2.412
X-19.362 Y-1.68
X-19.298 Y-0.945
X-19.261 Y-0.208
X-19.249 Y0.529
X-19.264 Y1.267
X-19.305 Y2.004
X-19.372 Y2.739
X-19.464 Y3.471
X-19.584 Y4.199
X-19.729 Y4.922
X-19.901 Y5.64
X-20.098 Y6.35
X-20.32 Y7.054
X-20.568 Y7.749
X-20.839 Y8.435
X-21.135 Y9.111
X-21.454 Y9.776
X-21.798 Y10.429
X-22.165 Y11.07
X-22.554 Y11.696
X-22.965 Y12.309
X-23.397 Y12.907
X-23.85 Y13.489
X-24.324 Y14.055
X-24.817 Y14.603
X-25.33 Y15.134
X-25.862 Y15.645
X-26.412 Y16.137
X-26.979 Y16.609
X-27.562 Y17.061
X-28.161 Y17.492
X-28.775 Y17.902
X-29.402 Y18.29
X-30.044 Y18.655
X-30.697 Y18.997
X-31.363 Y19.315
X-32.039 Y19.61
X-32.726 Y19.88
X-33.421 Y20.127
X-34.125 Y20.349
X-34.836 Y20.546
X-35.553 Y20.717
X-36.277 Y20.863
X-37.005 Y20.982
X-37.737 Y21.076
X-38.471 Y21.143
X-39.208 Y21.185
X-39.946 Y21.201
X-40.683 Y21.191
X-41.42 Y21.156
X-42.156 Y21.094
X-42.888 Y21.006
X-43.617 Y20.892
X-44.342 Y20.753
X-45.061 Y20.589
X-45.774 Y20.4
X-46.48 Y20.186
X-47.179 Y19.948
X-47.868 Y19.686
X-48.548 Y19.399
X-49.217 Y19.088
X-49.875 Y18.754
X-50.521 Y18.398
X-51.154 Y18.019
X-51.774 Y17.618
X-52.379 Y17.197
X-52.97 Y16.754
X-53.544 Y16.291
X-54.102 Y15.808
X-54.642 Y15.305
X-55.165 Y14.785
X-55.669 Y14.246
X-56.155 Y13.691
X-56.621 Y13.119
X-57.067 Y12.531
X-57.492 Y11.928
X-57.896 Y11.311
X-58.278 Y10.679
X-58.637 Y10.035
X-58.974 Y9.379
X-59.289 Y8.711
X-59.58 Y8.033
X-59.848 Y7.346
X-60.092 Y6.649
X-60.311 Y5.945
X-60.506 Y5.233
X-60.675 Y4.515
X-60.82 Y3.792
X-60.94 Y3.064
X-61.035 Y2.332
X-61.104 Y1.598
X-61.149 Y0.861
X-61.168 Y0.123
X-61.161 Y-0.614
X-61.128 Y-1.351
X-61.069 Y-2.087
X-60.985 Y-2.82
X-60.876 Y-3.55
X-60.742 Y-4.275
X-60.584 Y-4.996
X-60.401 Y-5.711
X-60.193 Y-6.418
X-59.96 Y-7.119
X-59.704 Y-7.81
X-59.423 Y-8.493
X-59.12 Y-9.165
X-58.793 Y-9.827
X-58.444 Y-10.477
X-58.074 Y-11.115
X-57.681 Y-11.74
X-57.267 Y-12.35
X-56.831 Y-12.946
X-56.375 Y-13.526
X-55.899 Y-14.09
X-55.405 Y-14.637
X-54.892 Y-15.167
X-54.361 Y-15.68
X-53.813 Y-16.174
X-53.248 Y-16.648
X-52.667 Y-17.103
X-52.071 Y-17.538
X-51.46 Y-17.951
X-50.835 Y-18.344
X-50.197 Y-18.714
X-49.547 Y-19.063
X-48.885 Y-19.389
X-48.212 Y-19.693
X-47.529 Y-19.972
X-46.837 Y-20.228
X-46.137 Y-20.459
X-45.429 Y-20.666
X-44.714 Y-20.849
X-43.993 Y-21.007
X-43.267 Y-21.14
X-42.538 Y-21.249
X-41.805 Y-21.333
X-41.069 Y-21.391
X-40.332 Y-21.423
X-39.594 Y-21.43
X-38.857 Y-21.412
X-38.12 Y-21.369
X-37.385 Y-21.3
X-36.653 Y-21.207
X-35.925 Y-21.088
X-35.201 Y-20.945
X-34.483 Y-20.776
X-33.771 Y-20.583
X-33.066 Y-20.365
X-32.369 Y-20.123
X-31.681 Y-19.858
X-31.002 Y-19.569
X-30.333 Y-19.258
X-29.674 Y-18.925
X-29.028 Y-18.569
X-28.394 Y-18.191
X-27.774 Y-17.792
X-27.167 Y-17.372
X-26.575 Y-16.932
X-25.998 Y-16.472
X-25.437 Y-15.993
X-24.892 Y-15.496
X-24.364 Y-14.981
X-23.854 Y-14.448
X-23.362 Y-13.897
X-22.89 Y-13.331
X-22.436 Y-12.748
X-22.003 Y-12.151
X-21.59 Y-11.54
X-21.197 Y-10.916
X-20.825 Y-10.278
X-20.474 Y-9.629
X-20.146 Y-8.968
X-19.84 Y-8.297
X-19.557 Y-7.616
X-19.297 Y-6.925
X-19.06 Y-6.227
X-18.846 Y-5.52
X-18.656 Y-4.808
X-18.49 Y-4.089
X-18.348 Y-3.365
X-18.231 Y-2.636
X-18.138 Y-1.904
X-18.071 Y-1.169
X-18.028 Y-0.433
X-18.011 Y0.305
X-18.017 Y1.043
X-18.048 Y1.78
X-18.104 Y2.515
X-18.185 Y3.249
X-18.29 Y3.979
X-18.42 Y4.705
X-18.574 Y5.427
X-18.753 Y6.143
X-18.955 Y6.852
X-19.181 Y7.555
X-19.431 Y8.249
X-19.703 Y8.935
X-19.999 Y9.611
X-20.317 Y10.276
X-20.658 Y10.93
X-21.021 Y11.573
X-21.406 Y12.202
X-21.811 Y12.819
X-22.237 Y13.422
X-22.682 Y14.01
X-23.147 Y14.583
X-23.63 Y15.14
X-24.133 Y15.681
X-24.653 Y16.204
X-25.19 Y16.709
X-25.745 Y17.196
X-26.315 Y17.665
X-26.9 Y18.114
X-27.5 Y18.543
X-28.114 Y18.952
X-28.741 Y19.341
X-29.382 Y19.707
X-30.034 Y20.052
X-30.698 Y20.374
X-31.372 Y20.674
X-32.056 Y20.952
X-32.748 Y21.206
X-33.449 Y21.438
X-34.156 Y21.646
X-34.871 Y21.831
X-35.591 Y21.991
X-36.316 Y22.127
X-37.045 Y22.239
X-37.778 Y22.326
X-38.513 Y22.389
X-39.25 Y22.428
X-39.988 Y22.442
X-40.725 Y22.432
X-41.462 Y22.397
X-42.198 Y22.337
X-42.931 Y22.252
X-43.66 Y22.143
X-44.386 Y22.01
X-45.107 Y21.853
X-45.822 Y21.673
X-46.532 Y21.469
X-47.234 Y21.242
X-47.928 Y20.992
X-48.613 Y20.719
X-49.289 Y20.424
X-49.955 Y20.106
X-50.61 Y19.767
X-51.254 Y19.406
X-51.886 Y19.024
X-52.504 Y18.623
X-53.11 Y18.2
X-53.7 Y17.758
X-54.276 Y17.297
X-54.836 Y16.816
X-55.379 Y16.317
X-55.906 Y15.801
X-56.416 Y15.267
X-56.908 Y14.717
X-57.382 Y14.152
X-57.837 Y13.571
X-58.273 Y12.976
X-58.689 Y12.367
X-59.085 Y11.744
X-59.46 Y11.109
X-59.814 Y10.462
X-60.147 Y9.803
X-60.458 Y9.134
X-60.748 Y8.456
X-61.015 Y7.768
X-61.26 Y7.072
X-61.481 Y6.368
X-61.678 Y5.657
X-61.852 Y4.94
X-62.003 Y4.218
X-62.129 Y3.491
X-62.233 Y2.76
X-62.312 Y2.027
X-62.368 Y1.291
X-62.399 Y0.554
X-62.407 Y-0.184
X-62.39 Y-0.922
X-62.349 Y-1.658
X-62.284 Y-2.393
X-62.195 Y-3.126
X-62.083 Y-3.855
X-61.947 Y-4.58
X-61.787 Y-5.3
X-61.605 Y-6.015
X-61.398 Y-6.724
X-61.168 Y-7.425
X-60.915 Y-8.118
X-60.64 Y-8.802
X-60.343 Y-9.478
X-60.024 Y-10.143
X-59.683 Y-10.797
X-59.322 Y-11.441
X-58.94 Y-12.072
X-58.537 Y-12.69
X-58.114 Y-13.295
X-57.672 Y-13.885
X-57.211 Y-14.461
X-56.731 Y-15.022
X-56.234 Y-15.567
X-55.719 Y-16.095
X-55.187 Y-16.607
X-54.639 Y-17.101
X-54.075 Y-17.576
X-53.496 Y-18.033
X-52.901 Y-18.47
X-52.293 Y-18.888
X-51.672 Y-19.286
X-51.038 Y-19.663
X-50.392 Y-20.02
X-49.735 Y-20.356
X-49.067 Y-20.67
X-48.39 Y-20.962
X-47.703 Y-21.232
X-47.008 Y-21.479
X-46.305 Y-21.704
X-45.595 Y-21.905
X-44.88 Y-22.084
X-44.158 Y-22.239
X-43.432 Y-22.371
X-42.703 Y-22.48
X-41.97 Y-22.564
X-41.234 Y-22.624
X-40.497 Y-22.66
X-39.76 Y-22.672
X-39.022 Y-22.66
X-38.285 Y-22.624
X-37.55 Y-22.564
X-36.816 Y-22.48
X-36.086 Y-22.373
X-35.36 Y-22.243
X-34.639 Y-22.089
X-33.923 Y-21.911
X-33.213 Y-21.71
X-32.51 Y-21.486
X-31.814 Y-21.24
X-31.127 Y-20.972
X-30.448 Y-20.682
X-29.78 Y-20.37
X-29.121 Y-20.037
X-28.474 Y-19.683
X-27.839 Y-19.308
X-27.216 Y-18.912
X-26.606 Y-18.496
X-26.01 Y-18.062
X-25.428 Y-17.608
X-24.861 Y-17.137
X-24.309 Y-16.647
X-23.772 Y-16.141
X-23.252 Y-15.617
X-22.75 Y-15.077
X-22.265 Y-14.521
X-21.797 Y-13.95
X-21.348 Y-13.365
X-20.918 Y-12.765
X-20.507 Y-12.153
X-20.115 Y-11.527
X-19.743 Y-10.89
X-19.392 Y-10.241
X-19.062 Y-9.581
X-18.753 Y-8.911
X-18.466 Y-8.232
X-18.2 Y-7.543
X-17.957 Y-6.847
X-17.735 Y-6.143
X-17.536 Y-5.433
X-17.359 Y-4.717
X-17.205 Y-3.995
X-17.074 Y-3.269
X-16.966 Y-2.539
X-16.882 Y-1.806
X-16.821 Y-1.071
X-16.783 Y-0.334
X-16.769 Y0.404
X-16.778 Y1.142
X-16.81 Y1.879
X-16.866 Y2.614
X-16.945 Y3.348
X-17.048 Y4.078
X-17.174 Y4.805
X-17.324 Y5.528
X-17.497 Y6.245
X-17.692 Y6.957
X-17.91 Y7.662
X-18.149 Y8.359
X-18.411 Y9.049
X-18.695 Y9.73
X-19. Y10.402
X-19.327 Y11.064
X-19.674 Y11.714
X-20.042 Y12.354
X-20.431 Y12.981
X-20.839 Y13.596
X-21.266 Y14.198
X-21.711 Y14.786
X-22.176 Y15.359
X-22.658 Y15.917
X-23.159 Y16.459
X-23.676 Y16.985
X-24.21 Y17.494
X-24.76 Y17.986
X-25.325 Y18.461
X-25.905 Y18.917
X-26.498 Y19.355
X-27.106 Y19.774
X-27.726 Y20.174
X-28.359 Y20.553
X-29.003 Y20.912
X-29.659 Y21.251
X-30.325 Y21.568
X-31.001 Y21.864
X-31.685 Y22.139
X-32.378 Y22.393
X-33.079 Y22.624
X-33.786 Y22.833
X-34.5 Y23.019
X-35.22 Y23.183
X-35.944 Y23.323
X-36.673 Y23.44
X-37.405 Y23.534
X-38.139 Y23.605
X-38.875 Y23.653
X-39.613 Y23.678
X-40.35 Y23.68
X-41.088 Y23.659
X-41.824 Y23.614
X-42.559 Y23.546
X-43.291 Y23.455
X-44.02 Y23.34
X-44.745 Y23.204
X-45.465 Y23.044
X-46.181 Y22.863
X-46.89 Y22.659
X-47.592 Y22.433
X-48.287 Y22.185
X-48.974 Y21.915
X-49.651 Y21.623
X-50.32 Y21.311
X-50.978 Y20.977
X-51.626 Y20.624
X-52.262 Y20.251
X-52.886 Y19.858
X-53.498 Y19.446
X-54.097 Y19.014
X-54.682 Y18.565
X-55.252 Y18.097
X-55.808 Y17.611
X-56.348 Y17.108
X-56.872 Y16.589
X-57.38 Y16.054
X-57.871 Y15.503
X-58.345 Y14.938
X-58.801 Y14.358
X-59.238 Y13.764
X-59.657 Y13.156
X-60.056 Y12.535
X-60.436 Y11.903
X-60.796 Y11.259
X-61.136 Y10.604
X-61.456 Y9.939
X-61.755 Y9.265
X-62.033 Y8.582
X-62.29 Y7.89
X-62.525 Y7.191
X-62.739 Y6.484
X-62.93 Y5.771
X-63.098 Y5.053
X-63.245 Y4.33
X-63.369 Y3.603
X-63.471 Y2.872
X-63.55 Y2.139
X-63.607 Y1.403
X-63.64 Y0.666
X-63.65 Y-0.072
X-63.637 Y-0.81
X-63.601 Y-1.547
X-63.543 Y-2.282
X-63.462 Y-3.015
X-63.358 Y-3.746
X-63.233 Y-4.473
X-63.085 Y-5.196
X-62.914 Y-5.914
X-62.722 Y-6.626
X-62.507 Y-7.332
X-62.271 Y-8.031
X-62.012 Y-8.722
X-61.733 Y-9.405
X-61.433 Y-10.079
X-61.113 Y-10.743
X-60.772 Y-11.398
X-60.411 Y-12.041
X-60.03 Y-12.673
X-59.629 Y-13.293
X-59.21 Y-13.9
X-58.771 Y-14.493
X-58.315 Y-15.073
X-57.841 Y-15.638
X-57.35 Y-16.189
X-56.843 Y-16.725
X-56.319 Y-17.244
X-55.779 Y-17.748
X-55.224 Y-18.234
X-54.655 Y-18.703
X-54.071 Y-19.153
X-53.473 Y-19.586
X-52.862 Y-20.
X-52.239 Y-20.395
X-51.604 Y-20.771
X-50.958 Y-21.127
X-50.301 Y-21.463
X-49.634 Y-21.778
X-48.957 Y-22.073
X-48.272 Y-22.346
X-47.578 Y-22.597
X-46.877 Y-22.827
X-46.17 Y-23.036
X-45.456 Y-23.223
X-44.737 Y-23.387
X-44.013 Y-23.53
X-43.285 Y-23.651
X-42.554 Y-23.749
X-41.82 Y-23.824
X-41.084 Y-23.876
X-40.346 Y-23.906
X-39.609 Y-23.913
X-38.871 Y-23.897
X-38.134 Y-23.859
X-37.399 Y-23.798
X-36.666 Y-23.715
X-35.936 Y-23.609
X-35.209 Y-23.48
X-34.487 Y-23.329
X-33.77 Y-23.155
X-33.058 Y-22.96
X-32.353 Y-22.743
X-31.655 Y-22.504
X-30.964 Y-22.245
X-30.282 Y-21.964
X-29.608 Y-21.663
X-28.944 Y-21.342
X-28.29 Y-21.
X-27.647 Y-20.639
X-27.015 Y-20.258
X-26.395 Y-19.858
X-25.788 Y-19.439
X-25.193 Y-19.002
X-24.612 Y-18.547
X-24.045 Y-18.075
X-23.492 Y-17.587
X-22.955 Y-17.081
X-22.434 Y-16.559
X-21.928 Y-16.022
X-21.439 Y-15.469
X-20.967 Y-14.902
X-20.513 Y-14.321
X-20.076 Y-13.726
X-19.656 Y-13.119
X-19.255 Y-12.5
X-18.873 Y-11.869
X-18.51 Y-11.226
X-18.167 Y-10.573
X-17.844 Y-9.91
X-17.541 Y-9.237
X-17.258 Y-8.556
X-16.996 Y-7.866
X-16.754 Y-7.169
X-16.534 Y-6.465
X-16.334 Y-5.755
X-16.156 Y-5.039
X-16. Y-4.317
X-15.867 Y-3.592
X-15.755 Y-2.862
X-15.666 Y-2.13
X-15.598 Y-1.395
X-15.553 Y-0.659
X-15.53 Y0.079
X-15.529 Y0.816
X-15.55 Y1.554
X-15.593 Y2.29
X-15.659 Y3.025
X-15.747 Y3.758
X-15.857 Y4.487
X-15.989 Y5.213
X-16.143 Y5.935
X-16.318 Y6.652
X-16.516 Y7.363
X-16.734 Y8.067
X-16.973 Y8.765
X-17.234 Y9.455
X-17.516 Y10.137
X-17.818 Y10.81
X-18.141 Y11.474
X-18.483 Y12.127
X-18.846 Y12.77
X-19.227 Y13.402
X-19.627 Y14.022
X-20.045 Y14.629
X-20.482 Y15.224
X-20.936 Y15.806
X-21.408 Y16.373
X-21.896 Y16.926
X-22.402 Y17.463
X-22.923 Y17.986
X-23.46 Y18.492
X-24.011 Y18.982
X-24.577 Y19.455
X-25.157 Y19.911
X-25.75 Y20.35
X-26.357 Y20.77
X-26.976 Y21.172
X-27.607 Y21.554
X-28.249 Y21.917
X-28.902 Y22.261
X-29.565 Y22.585
X-30.237 Y22.889
X-30.918 Y23.173
X-31.607 Y23.436
X-32.304 Y23.679
X-33.008 Y23.901
X-33.718 Y24.101
X-34.434 Y24.28
X-35.155 Y24.437
X-35.88 Y24.572
X-36.609 Y24.686
X-37.341 Y24.778
X-38.075 Y24.848
X-38.812 Y24.896
X-39.549 Y24.922
X-40.287 Y24.925
X-41.024 Y24.906
X-41.761 Y24.865
X-42.496 Y24.802
X-43.229 Y24.717
X-43.959 Y24.61
X-44.686 Y24.482
X-45.408 Y24.332
X-46.126 Y24.161
X-46.838 Y23.969
X-47.545 Y23.756
X-48.244 Y23.522
X-48.937 Y23.266
X-49.621 Y22.991
X-50.297 Y22.695
X-50.964 Y22.379
X-51.621 Y22.044
X-52.268 Y21.689
X-52.904 Y21.316
X-53.529 Y20.924
X-54.142 Y20.513
X-54.743 Y20.084
X-55.33 Y19.637
X-55.903 Y19.173
X-56.463 Y18.692
X-57.008 Y18.195
X-57.538 Y17.682
X-58.053 Y17.154
X-58.552 Y16.61
X-59.035 Y16.053
X-59.501 Y15.481
X-59.951 Y14.895
X-60.382 Y14.297
X-60.796 Y13.686
X-61.191 Y13.063
X-61.568 Y12.429
X-61.926 Y11.783
X-62.265 Y11.128
X-62.585 Y10.463
X-62.885 Y9.789
X-63.164 Y9.106
X-63.424 Y8.416
X-63.662 Y7.718
X-63.88 Y7.013
X-64.077 Y6.301
X-64.253 Y5.585
X-64.407 Y4.864
X-64.541 Y4.138
X-64.653 Y3.409
X-64.744 Y2.677
X-64.814 Y1.942
X-64.861 Y1.206
X-64.887 Y0.468
X-64.891 Y-0.269
X-64.873 Y-1.007
X-64.834 Y-1.744
X-64.773 Y-2.479
X-64.691 Y-3.212
X-64.587 Y-3.943
X-64.462 Y-4.67
X-64.316 Y-5.393
X-64.148 Y-6.112
X-63.958 Y-6.825
X-63.748 Y-7.532
X-63.517 Y-8.233
X-63.266 Y-8.926
X-62.994 Y-9.612
X-62.702 Y-10.29
X-62.391 Y-10.959
X-62.061 Y-11.619
X-61.711 Y-12.268
X-61.342 Y-12.907
X-60.955 Y-13.535
X-60.549 Y-14.151
X-60.125 Y-14.755
X-59.684 Y-15.346
X-59.225 Y-15.925
X-58.75 Y-16.489
X-58.259 Y-17.039
X-57.752 Y-17.575
X-57.229 Y-18.096
X-56.691 Y-18.601
X-56.138 Y-19.09
X-55.571 Y-19.562
X-54.99 Y-20.017
X-54.397 Y-20.455
X-53.79 Y-20.875
X-53.172 Y-21.278
X-52.542 Y-21.663
X-51.902 Y-22.029
X-51.251 Y-22.376
X-50.59 Y-22.703
X-49.919 Y-23.011
X-49.24 Y-23.3
X-48.553 Y-23.568
X-47.858 Y-23.815
X-47.156 Y-24.043
X-46.447 Y-24.25
X-45.734 Y-24.436
X-45.014 Y-24.601
X-44.291 Y-24.745
X-43.563 Y-24.867
X-42.832 Y-24.968
X-42.099 Y-25.048
X-41.363 Y-25.105
X-40.626 Y-25.141
X-39.889 Y-25.156
X-39.151 Y-25.149
X-38.414 Y-25.12
X-37.677 Y-25.071
X-36.943 Y-24.999
X-36.211 Y-24.907
X-35.482 Y-24.793
X-34.757 Y-24.657
X-34.036 Y-24.5
X-33.32 Y-24.322
X-32.609 Y-24.124
X-31.905 Y-23.905
X-31.207 Y-23.665
X-30.516 Y-23.406
X-29.833 Y-23.126
X-29.159 Y-22.827
X-28.494 Y-22.508
X-27.838 Y-22.17
X-27.192 Y-21.812
X-26.558 Y-21.437
X-25.934 Y-21.042
X-25.322 Y-20.631
X-24.722 Y-20.201
X-24.134 Y-19.755
X-23.56 Y-19.292
X-22.999 Y-18.813
X-22.452 Y-18.317
X-21.92 Y-17.806
X-21.403 Y-17.28
X-20.901 Y-16.739
X-20.415 Y-16.184
X-19.945 Y-15.615
X-19.491 Y-15.033
X-19.055 Y-14.439
X-18.635 Y-13.832
X-18.233 Y-13.213
X-17.849 Y-12.583
X-17.483 Y-11.942
X-17.136 Y-11.291
X-16.808 Y-10.63
X-16.499 Y-9.96
X-16.21 Y-9.282
X-15.94 Y-8.595
X-15.689 Y-7.901
X-15.458 Y-7.2
X-15.247 Y-6.493
X-15.057 Y-5.78
X-14.887 Y-5.062
X-14.738 Y-4.34
X-14.611 Y-3.613
X-14.503 Y-2.883
X-14.417 Y-2.15
X-14.352 Y-1.415
X-14.308 Y-0.679
X-14.285 Y0.059
X-14.283 Y0.796
X-14.303 Y1.534
X-14.344 Y2.271
X-14.406 Y3.006
X-14.489 Y3.739
X-14.594 Y4.469
X-14.719 Y5.196
X-14.866 Y5.92
X-15.032 Y6.638
X-15.22 Y7.352
X-15.427 Y8.06
X-15.655 Y8.762
X-15.903 Y9.457
X-16.171 Y10.144
X-16.459 Y10.823
X-16.766 Y11.494
X-17.093 Y12.156
X-17.438 Y12.808
X-17.802 Y13.45
X-18.184 Y14.081
X-18.583 Y14.701
X-19.001 Y15.309
X-19.436 Y15.905
X-19.888 Y16.488
X-20.357 Y17.058
X-20.842 Y17.614
X-21.343 Y18.156
X-21.859 Y18.683
X-22.39 Y19.196
X-22.935 Y19.693
X-23.494 Y20.174
X-24.067 Y20.639
X-24.653 Y21.088
X-25.251 Y21.519
X-25.862 Y21.933
X-26.484 Y22.33
X-27.118 Y22.708
X-27.762 Y23.068
X-28.416 Y23.409
X-29.079 Y23.732
X-29.752 Y24.035
X-30.433 Y24.32
X-31.121 Y24.585
X-31.817 Y24.829
X-32.52 Y25.054
X-33.229 Y25.258
X-33.944 Y25.442
X-34.663 Y25.605
X-35.387 Y25.748
X-36.115 Y25.87
X-36.846 Y25.971
X-37.579 Y26.052
X-38.314 Y26.112
X-39.051 Y26.151
X-39.789 Y26.168
X-40.527 Y26.165
X-41.264 Y26.14
X-42. Y26.095
X-42.735 Y26.028
X-43.468 Y25.941
X-44.198 Y25.833
X-44.924 Y25.704
X-45.647 Y25.555
X-46.365 Y25.386
X-47.078 Y25.196
X-47.785 Y24.985
X-48.486 Y24.755
X-49.18 Y24.505
X-49.867 Y24.235
X-50.546 Y23.946
X-51.216 Y23.639
X-51.878 Y23.312
X-52.53 Y22.967
X-53.172 Y22.604
X-53.804 Y22.223
X-54.425 Y21.824
X-55.034 Y21.407
X-55.631 Y20.973
X-56.215 Y20.523
X-56.786 Y20.056
X-57.344 Y19.574
X-57.889 Y19.076
X-58.419 Y18.562
X-58.934 Y18.035
X-59.435 Y17.492
X-59.919 Y16.936
X-60.388 Y16.366
X-60.84 Y15.783
X-61.276 Y15.188
X-61.695 Y14.581
X-62.097 Y13.962
X-62.481 Y13.332
X-62.847 Y12.691
X-63.196 Y12.041
X-63.526 Y11.381
X-63.838 Y10.712
X-64.13 Y10.035
X-64.404 Y9.35
X-64.658 Y8.657
X-64.892 Y7.957
X-65.106 Y7.251
X-65.301 Y6.54
X-65.475 Y5.823
X-65.63 Y5.101
X-65.764 Y4.376
X-65.878 Y3.647
X-65.971 Y2.915
X-66.044 Y2.181
X-66.095 Y1.445
X-66.126 Y0.708
X-66.137 Y-0.03
X-66.126 Y-0.768
X-66.095 Y-1.505
X-66.044 Y-2.241
X-65.972 Y-2.975
X-65.879 Y-3.707
X-65.767 Y-4.436
X-65.634 Y-5.162
X-65.48 Y-5.884
X-65.307 Y-6.601
X-65.113 Y-7.313
X-64.899 Y-8.019
X-64.666 Y-8.719
X-64.413 Y-9.412
X-64.141 Y-10.098
X-63.85 Y-10.776
X-63.54 Y-11.446
X-63.211 Y-12.106
X-62.864 Y-12.757
X-62.498 Y-13.398
X-62.115 Y-14.028
X-61.714 Y-14.648
X-61.296 Y-15.256
X-60.862 Y-15.852
X-60.411 Y-16.436
X-59.943 Y-17.007
X-59.461 Y-17.565
X-58.962 Y-18.109
X-58.449 Y-18.639
X-57.921 Y-19.155
X-57.379 Y-19.655
X-56.823 Y-20.14
X-56.254 Y-20.609
X-55.671 Y-21.062
X-55.077 Y-21.499
X-54.47 Y-21.919
X-53.852 Y-22.322
X-53.223 Y-22.708
X-52.583 Y-23.075
X-51.933 Y-23.425
X-51.274 Y-23.756
X-50.606 Y-24.068
X-49.929 Y-24.362
X-49.244 Y-24.636
X-48.552 Y-24.891
X-47.853 Y-25.127
X-47.147 Y-25.344
X-46.436 Y-25.541
X-45.72 Y-25.718
X-44.999 Y-25.875
X-44.274 Y-26.011
X-43.545 Y-26.127
X-42.814 Y-26.223
X-42.08 Y-26.299
X-41.344 Y-26.353
X-40.607 Y-26.387
X-39.869 Y-26.401
X-39.131 Y-26.395
X-38.394 Y-26.367
X-37.658 Y-26.319
X-36.923 Y-26.25
X-36.191 Y-26.161
X-35.461 Y-26.051
X-34.735 Y-25.921
X-34.013 Y-25.771
X-33.295 Y-25.601
X-32.582 Y-25.41
X-31.875 Y-25.201
X-31.173 Y-24.972
X-30.478 Y-24.723
X-29.791 Y-24.456
X-29.111 Y-24.169
X-28.439 Y-23.864
X-27.776 Y-23.54
X-27.123 Y-23.198
X-26.479 Y-22.838
X-25.845 Y-22.46
X-25.222 Y-22.065
X-24.61 Y-21.653
X-24.009 Y-21.224
X-23.421 Y-20.779
X-22.845 Y-20.318
X-22.282 Y-19.841
X-21.733 Y-19.348
X-21.197 Y-18.841
X-20.675 Y-18.319
X-20.168 Y-17.783
X-19.676 Y-17.233
X-19.199 Y-16.671
X-18.738 Y-16.095
X-18.292 Y-15.507
X-17.863 Y-14.907
X-17.45 Y-14.296
X-17.054 Y-13.673
X-16.675 Y-13.04
X-16.313 Y-12.397
X-15.97 Y-11.744
X-15.644 Y-11.082
X-15.337 Y-10.411
X-15.048 Y-9.732
X-14.777 Y-9.046
X-14.526 Y-8.352
X-14.294 Y-7.652
X-14.081 Y-6.945
X-13.887 Y-6.233
X-13.713 Y-5.516
X-13.559 Y-4.795
X-13.425 Y-4.069
X-13.31 Y-3.34
X-13.216 Y-2.609
X-13.141 Y-1.875
X-13.087 Y-1.139
X-13.052 Y-0.402
X-13.038 Y0.336
X-13.044 Y1.074
X-13.07 Y1.811
X-13.116 Y2.547
X-13.183 Y3.282
X-13.27 Y4.015
X-13.377 Y4.745
X-13.504 Y5.472
X-13.65 Y6.195
X-13.817 Y6.914
X-14.003 Y7.628
X-14.208 Y8.336
X-14.434 Y9.039
X-14.678 Y9.735
X-14.942 Y10.424
X-15.224 Y11.106
X-15.525 Y11.779
X-15.844 Y12.444
X-16.182 Y13.101
X-16.537 Y13.747
X-16.91 Y14.384
X-17.3 Y15.01
X-17.706 Y15.626
X-18.13 Y16.23
X-18.57 Y16.822
X-19.026 Y17.402
X-19.498 Y17.969
X-19.985 Y18.523
X-20.488 Y19.064
X-21.004 Y19.591
X-21.535 Y20.103
X-22.08 Y20.6
X-22.638 Y21.083
X-23.21 Y21.55
X-23.794 Y22.001
X-24.39 Y22.436
X-24.997 Y22.854
X-25.616 Y23.255
X-26.246 Y23.64
X-26.886 Y24.007
X-27.536 Y24.357
X-28.195 Y24.688
X-28.863 Y25.002
X-29.539 Y25.298
X-30.222 Y25.575
X-30.914 Y25.833
X-31.612 Y26.072
X-32.316 Y26.292
X-33.026 Y26.493
X-33.741 Y26.674
X-34.461 Y26.835
X-35.185 Y26.978
X-35.913 Y27.1
X-36.643 Y27.202
X-37.377 Y27.285
X-38.112 Y27.347
X-38.848 Y27.389
X-39.586 Y27.411
X-40.324 Y27.413
X-41.061 Y27.395
X-41.798 Y27.357
X-42.534 Y27.299
X-43.267 Y27.221
X-43.999 Y27.123
X-44.727 Y27.006
X-45.452 Y26.869
X-46.173 Y26.712
X-46.889 Y26.536
X-47.601 Y26.341
X-48.307 Y26.126
X-49.007 Y25.892
X-49.7 Y25.64
X-50.386 Y25.369
X-51.065 Y25.079
X-51.736 Y24.772
X-52.398 Y24.446
X-53.051 Y24.103
X-53.694 Y23.742
X-54.328 Y23.364
X-54.951 Y22.968
X-55.563 Y22.556
X-56.163 Y22.128
X-56.752 Y21.684
X-57.329 Y21.224
X-57.893 Y20.748
X-58.445 Y20.258
X-58.982 Y19.753
X-59.507 Y19.233
X-60.017 Y18.7
X-60.512 Y18.153
X-60.993 Y17.594
X-61.458 Y17.021
X-61.908 Y16.436
X-62.341 Y15.839
X-62.759 Y15.231
X-63.16 Y14.612
X-63.545 Y13.982
X-63.912 Y13.342
X-64.262 Y12.693
X-64.595 Y12.034
X-64.909 Y11.367
X-65.206 Y10.691
X-65.484 Y10.008
X-65.744 Y9.317
X-65.985 Y8.62
X-66.208 Y7.917
X-66.411 Y7.207
X-66.596 Y6.493
X-66.762 Y5.774
X-66.908 Y5.051
X-67.035 Y4.324
X-67.142 Y3.594
X-67.229 Y2.862
X-67.297 Y2.127
X-67.345 Y1.391
X-67.374 Y0.653
X-67.382 Y-0.084
X-67.371 Y-0.822
X-67.341 Y-1.559
X-67.29 Y-2.295
X-67.22 Y-3.03
X-67.13 Y-3.762
X-67.021 Y-4.492
X-66.892 Y-5.218
X-66.744 Y-5.941
X-66.576 Y-6.66
X-66.389 Y-7.373
X-66.183 Y-8.082
X-65.959 Y-8.785
X-65.715 Y-9.481
X-65.454 Y-10.171
X-65.174 Y-10.854
X-64.876 Y-11.529
X-64.56 Y-12.195
X-64.226 Y-12.853
X-63.874 Y-13.502
X-63.506 Y-14.141
X-63.12 Y-14.77
X-62.718 Y-15.389
X-62.299 Y-15.996
X-61.865 Y-16.593
X-61.414 Y-17.177
X-60.948 Y-17.749
X-60.467 Y-18.309
X-59.972 Y-18.855
X-59.461 Y-19.388
X-58.937 Y-19.907
X-58.399 Y-20.412
X-57.847 Y-20.902
X-57.283 Y-21.377
X-56.707 Y-21.838
X-56.118 Y-22.282
X-55.517 Y-22.711
X-54.906 Y-23.124
X-54.284 Y-23.52
X-53.651 Y-23.9
X-53.008 Y-24.262
X-52.356 Y-24.607
X-51.695 Y-24.935
X-51.025 Y-25.245
X-50.348 Y-25.537
X-49.663 Y-25.81
X-48.97 Y-26.066
X-48.272 Y-26.302
X-47.567 Y-26.52
X-46.856 Y-26.719
X-46.141 Y-26.899
X-45.421 Y-27.06
X-44.696 Y-27.201
X-43.969 Y-27.323
X-43.238 Y-27.426
X-42.505 Y-27.509
X-41.77 Y-27.573
X-41.033 Y-27.617
X-40.296 Y-27.641
X-39.558 Y-27.646
X-38.821 Y-27.631
X-38.084 Y-27.597
X-37.348 Y-27.542
X-36.614 Y-27.469
X-35.882 Y-27.375
X-35.153 Y-27.263
X-34.427 Y-27.13
X-33.705 Y-26.979
X-32.987 Y-26.809
X-32.274 Y-26.619
X-31.566 Y-26.411
X-30.864 Y-26.184
X-30.168 Y-25.938
X-29.479 Y-25.674
X-28.798 Y-25.391
X-28.124 Y-25.091
X-27.458 Y-24.773
X-26.801 Y-24.438
X-26.153 Y-24.085
X-25.514 Y-23.715
X-24.886 Y-23.329
X-24.267 Y-22.926
X-23.66 Y-22.508
X-23.064 Y-22.073
X-22.479 Y-21.623
X-21.907 Y-21.157
X-21.346 Y-20.677
X-20.799 Y-20.182
X-20.265 Y-19.673
X-19.745 Y-19.15
X-19.238 Y-18.614
X-18.746 Y-18.064
X-18.268 Y-17.502
X-17.805 Y-16.927
X-17.358 Y-16.341
X-16.926 Y-15.743
X-16.509 Y-15.134
X-16.109 Y-14.514
X-15.725 Y-13.884
X-15.358 Y-13.244
X-15.007 Y-12.595
X-14.674 Y-11.936
X-14.358 Y-11.27
X-14.059 Y-10.595
X-13.778 Y-9.913
X-13.515 Y-9.224
X-13.27 Y-8.528
X-13.043 Y-7.826
X-12.835 Y-7.118
X-12.645 Y-6.405
X-12.474 Y-5.687
X-12.322 Y-4.965
X-12.189 Y-4.239
X-12.075 Y-3.51
X-11.98 Y-2.779
X-11.904 Y-2.045
X-11.847 Y-1.309
X-11.81 Y-0.572
X-11.793 Y0.165
X-11.794 Y0.903
X-11.815 Y1.641
X-11.855 Y2.377
X-11.915 Y3.113
X-11.993 Y3.846
X-12.091 Y4.578
X-12.208 Y5.306
X-12.344 Y6.031
X-12.499 Y6.753
X-12.672 Y7.47
X-12.865 Y8.182
X-13.076 Y8.889
X-13.306 Y9.59
X-13.553 Y10.285
X-13.819 Y10.973
X-14.103 Y11.654
X-14.405 Y12.328
X-14.724 Y12.993
X-15.061 Y13.649
X-15.415 Y14.297
X-15.786 Y14.935
X-16.173 Y15.563
X-16.576 Y16.18
X-16.996 Y16.787
X-17.432 Y17.383
X-17.882 Y17.967
X-18.348 Y18.539
X-18.829 Y19.099
X-19.325 Y19.645
X-19.834 Y20.179
X-20.357 Y20.7
X-20.893 Y21.206
X-21.443 Y21.699
X-22.005 Y22.176
X-22.58 Y22.639
X-23.166 Y23.087
X-23.764 Y23.519
X-24.373 Y23.935
X-24.993 Y24.336
X-25.623 Y24.72
X-26.263 Y25.087
X-26.912 Y25.438
X-27.57 Y25.771
X-28.237 Y26.087
X-28.911 Y26.386
X-29.594 Y26.667
X-30.283 Y26.93
X-30.979 Y27.175
X-31.681 Y27.401
X-32.389 Y27.61
X-33.102 Y27.799
X-33.82 Y27.97
X-34.111 Y28.032
X-34.162 Y28.041
X-34.213 Y28.046
X-34.264 Y28.048
X-44.488
X-45.225 Y28.011
X-45.96 Y27.947
X-46.687 Y27.824
X-47.407 Y27.664
X-48.12 Y27.474
X-48.827 Y27.261
X-49.527 Y27.027
X-50.22 Y26.774
X-50.906 Y26.502
X-51.584 Y26.213
X-52.255 Y25.906
X-52.918 Y25.581
X-53.572 Y25.24
X-54.216 Y24.881
X-54.851 Y24.505
X-55.477 Y24.113
X-56.091 Y23.706
X-56.696 Y23.282
X-57.289 Y22.843
X-57.87 Y22.389
X-58.44 Y21.92
X-58.997 Y21.437
X-59.542 Y20.939
X-60.074 Y20.428
X-60.593 Y19.903
X-61.098 Y19.365
X-61.589 Y18.815
X-62.066 Y18.252
X-62.528 Y17.676
X-62.975 Y17.09
X-63.407 Y16.491
X-63.823 Y15.882
X-64.224 Y15.263
X-64.609 Y14.634
X-64.977 Y13.994
X-65.329 Y13.346
X-65.664 Y12.688
X-65.981 Y12.022
X-66.281 Y11.348
X-66.564 Y10.667
X-66.83 Y9.978
X-67.077 Y9.283
X-67.307 Y8.582
X-67.519 Y7.875
X-67.712 Y7.163
X-67.787 Y6.858
X-67.799 Y6.8
X-67.806 Y6.741
X-67.808 Y6.682
Y-5.526
X-67.771 Y-6.263
X-67.728 Y-6.63
X-67.612 Y-7.358
X-67.447 Y-8.077
X-67.249 Y-8.788
X-67.024 Y-9.491
X-66.778 Y-10.186
X-66.511 Y-10.874
X-66.227 Y-11.555
X-65.924 Y-12.228
X-65.604 Y-12.893
X-65.267 Y-13.549
X-64.914 Y-14.197
X-64.544 Y-14.835
X-64.157 Y-15.464
X-63.755 Y-16.082
X-63.337 Y-16.69
X-62.904 Y-17.287
X-62.455 Y-17.873
X-61.991 Y-18.447
X-61.513 Y-19.008
X-61.02 Y-19.558
X-60.514 Y-20.094
X-59.994 Y-20.618
X-59.461 Y-21.128
X-58.915 Y-21.624
X-58.356 Y-22.106
X-57.785 Y-22.574
X-57.203 Y-23.027
X-56.61 Y-23.465
X-56.005 Y-23.888
X-55.39 Y-24.295
X-54.765 Y-24.687
X-54.129 Y-25.063
X-53.485 Y-25.422
X-52.832 Y-25.764
X-52.17 Y-26.09
X-51.5 Y-26.399
X-50.822 Y-26.691
X-50.137 Y-26.965
X-49.445 Y-27.221
X-48.747 Y-27.46
X-48.043 Y-27.68
X-47.333 Y-27.883
X-46.782 Y-28.025
X-46.721 Y-28.038
X-46.659 Y-28.045
X-46.597 Y-28.048
X-34.099
X-33.362 Y-28.011
X-32.63 Y-27.917
X-31.908 Y-27.766
X-31.195 Y-27.578
X-30.489 Y-27.362
X-29.791 Y-27.122
X-29.101 Y-26.863
X-28.418 Y-26.584
X-27.742 Y-26.288
X-27.074 Y-25.974
X-26.415 Y-25.643
X-25.764 Y-25.295
X-25.122 Y-24.931
X-24.49 Y-24.551
X-23.867 Y-24.156
X-23.254 Y-23.745
X-22.652 Y-23.318
X-22.061 Y-22.877
X-21.481 Y-22.42
X-20.913 Y-21.95
X-20.357 Y-21.465
X-19.813 Y-20.966
X-19.282 Y-20.454
X-18.764 Y-19.929
X-18.259 Y-19.391
X-17.768 Y-18.84
X-17.29 Y-18.278
X-16.828 Y-17.703
X-16.379 Y-17.117
X-15.946 Y-16.52
X-15.528 Y-15.912
X-15.125 Y-15.294
X-14.738 Y-14.665
X-14.367 Y-14.028
X-14.012 Y-13.381
X-13.674 Y-12.726
X-13.351 Y-12.062
X-13.045 Y-11.39
X-12.756 Y-10.712
X-12.484 Y-10.026
X-12.23 Y-9.333
X-11.992 Y-8.635
X-11.773 Y-7.93
X-11.74 Y-7.818
X-11.725 Y-7.751
X-11.715 Y-7.683
X-11.712 Y-7.615
Y7.368
X-11.743 Y7.994
X-11.826 Y8.621
X-11.98 Y9.342
X-12.181 Y10.052
X-12.415 Y10.752
X-12.673 Y11.443
X-12.953 Y12.126
X-13.251 Y12.801
X-13.568 Y13.467
X-13.902 Y14.125
X-14.253 Y14.774
X-14.62 Y15.414
X-15.003 Y16.045
X-15.402 Y16.666
X-15.816 Y17.276
X-16.245 Y17.876
X-16.689 Y18.465
X-17.148 Y19.043
X-17.622 Y19.609
X-18.109 Y20.163
X-18.61 Y20.705
X-19.124 Y21.234
X-19.651 Y21.75
X-20.191 Y22.253
X-20.743 Y22.742
X-21.308 Y23.217
X-21.884 Y23.678
X-22.471 Y24.125
X-23.07 Y24.556
X-23.679 Y24.973
X-24.298 Y25.374
X-24.927 Y25.759
X-25.566 Y26.128
X-26.214 Y26.481
X-26.871 Y26.818
X-27.536 Y27.138
X-28.208 Y27.441
X-28.888 Y27.727
X-29.594 Y28.003
X-29.676 Y28.028
X-29.761 Y28.043
X-29.847 Y28.048
X-34.264
G3 X-34.441 Y27.475 I0.011 J-0.317
G1 X-34.384 Y27.433 Z-1.492
X-34.33 Y27.393 Z-1.469
X-34.281 Y27.358 Z-1.431
X-34.241 Y27.328 Z-1.38
X-34.21 Y27.305 Z-1.32
X-34.191 Y27.292 Z-1.253
X-34.185 Y27.287 Z-1.183
G0 Z5.
X-12.096 Y6.342
Z-0.865
G1 Z-1.183 F1016.
X-12.092 Y6.349 Z-1.253
X-12.08 Y6.369 Z-1.32
X-12.06 Y6.401 Z-1.38
X-12.035 Y6.445 Z-1.431
X-12.004 Y6.496 Z-1.469
X-11.97 Y6.554 Z-1.492
X-11.933 Y6.615 Z-1.5
G3 X-11.712 Y7.368 I-1.36 J0.809
G1 Y11.053
X-11.732 Y11.453
X-11.785 Y11.857
X-11.892 Y12.358
X-12.097 Y13.042
X-12.365 Y13.729
X-12.67 Y14.401
X-13.002 Y15.06
X-13.356 Y15.707
X-13.727 Y16.345
X-14.116 Y16.972
X-14.52 Y17.589
X-14.939 Y18.197
X-15.373 Y18.793
X-15.821 Y19.38
X-16.283 Y19.955
X-16.758 Y20.519
X-17.247 Y21.071
X-17.749 Y21.612
X-18.264 Y22.14
X-18.792 Y22.657
X-19.331 Y23.16
X-19.883 Y23.65
X-20.446 Y24.126
X-21.021 Y24.589
X-21.607 Y25.038
X-22.203 Y25.472
X-22.809 Y25.892
X-23.426 Y26.298
X-24.052 Y26.688
X-24.687 Y27.063
X-25.331 Y27.423
X-25.984 Y27.767
X-26.393 Y27.971
X-26.499 Y28.013
X-26.609 Y28.039
X-26.723 Y28.048
X-29.847
G3 X-30.024 Y27.475 I0.011 J-0.317
G1 X-29.967 Y27.433 Z-1.492
X-29.913 Y27.393 Z-1.469
X-29.864 Y27.358 Z-1.431
X-29.824 Y27.328 Z-1.38
X-29.793 Y27.305 Z-1.32
X-29.774 Y27.292 Z-1.253
X-29.768 Y27.287 Z-1.183
G0 Z5.
X-12.096 Y10.026
Z-0.865
G1 Z-1.183 F1016.
X-12.092 Y10.033 Z-1.253
X-12.08 Y10.053 Z-1.32
X-12.06 Y10.086 Z-1.38
X-12.035 Y10.129 Z-1.431
X-12.004 Y10.181 Z-1.469
X-11.97 Y10.238 Z-1.492
X-11.933 Y10.299 Z-1.5
G3 X-11.712 Y11.053 I-1.36 J0.809
G1 Y13.9
X-11.73 Y14.252
X-11.769 Y14.554
X-11.853 Y14.944
X-11.997 Y15.424
X-12.247 Y16.066
X-12.569 Y16.73
X-12.929 Y17.374
X-13.315 Y18.003
X-13.721 Y18.619
X-14.144 Y19.223
X-14.583 Y19.816
X-15.037 Y20.398
X-15.504 Y20.969
X-15.984 Y21.53
X-16.477 Y22.079
X-16.982 Y22.616
X-17.5 Y23.142
X-18.03 Y23.655
X-18.571 Y24.156
X-19.124 Y24.645
X-19.688 Y25.12
X-20.263 Y25.583
X-20.849 Y26.032
X-21.445 Y26.467
X-22.05 Y26.888
X-22.666 Y27.295
X-23.291 Y27.688
X-23.72 Y27.943
X-23.839 Y28.001
X-23.967 Y28.036
X-24.099 Y28.048
X-26.723
G3 X-26.9 Y27.475 I0.011 J-0.317
G1 X-26.843 Y27.433 Z-1.492
X-26.789 Y27.393 Z-1.469
X-26.74 Y27.358 Z-1.431
X-26.7 Y27.328 Z-1.38
X-26.669 Y27.305 Z-1.32
X-26.65 Y27.292 Z-1.253
X-26.644 Y27.287 Z-1.183
G0 Z5.
X-12.096 Y12.873
Z-0.865
G1 Z-1.183 F1016.
X-12.092 Y12.88 Z-1.253
X-12.08 Y12.9 Z-1.32
X-12.06 Y12.933 Z-1.38
X-12.035 Y12.976 Z-1.431
X-12.004 Y13.028 Z-1.469
X-11.97 Y13.085 Z-1.492
X-11.933 Y13.146 Z-1.5
G3 X-11.712 Y13.9 I-1.36 J0.809
G1 Y16.411
X-11.726 Y16.682
X-11.76 Y16.941
X-11.83 Y17.269
X-11.944 Y17.651
X-12.139 Y18.15
X-12.457 Y18.807
X-12.831 Y19.443
X-13.239 Y20.057
X-13.671 Y20.656
X-14.12 Y21.241
X-14.586 Y21.814
X-15.065 Y22.375
X-15.557 Y22.924
X-16.062 Y23.462
X-16.579 Y23.989
X-17.107 Y24.504
X-17.647 Y25.006
X-18.198 Y25.497
X-18.76 Y25.975
X-19.333 Y26.44
X-19.915 Y26.893
X-20.508 Y27.332
X-21.11 Y27.759
X-21.352 Y27.921
X-21.481 Y27.991
X-21.621 Y28.034
X-21.766 Y28.048
X-24.099
G3 X-24.276 Y27.475 I0.011 J-0.317
G1 X-24.219 Y27.433 Z-1.492
X-24.165 Y27.393 Z-1.469
X-24.116 Y27.358 Z-1.431
X-24.076 Y27.328 Z-1.38
X-24.045 Y27.305 Z-1.32
X-24.026 Y27.292 Z-1.253
X-24.02 Y27.287 Z-1.183
G0 Z5.
X-12.096 Y15.385
Z-0.865
G1 Z-1.183 F1016.
X-12.092 Y15.392 Z-1.253
X-12.08 Y15.412 Z-1.32
X-12.06 Y15.445 Z-1.38
X-12.035 Y15.488 Z-1.431
X-12.004 Y15.539 Z-1.469
X-11.97 Y15.597 Z-1.492
X-11.933 Y15.658 Z-1.5
G3 X-11.712 Y16.411 I-1.36 J0.809
G1 Y18.589
X-11.728 Y18.897
X-11.758 Y19.132
X-11.82 Y19.419
X-11.918 Y19.748
X-12.082 Y20.168
X-12.339 Y20.697
X-12.713 Y21.333
X-13.133 Y21.94
X-13.581 Y22.526
X-14.05 Y23.095
X-14.536 Y23.651
X-15.036 Y24.193
X-15.549 Y24.724
X-16.073 Y25.243
X-16.609 Y25.75
X-17.156 Y26.245
X-17.714 Y26.728
X-18.282 Y27.199
X-18.86 Y27.658
X-19.175 Y27.897
X-19.312 Y27.98
X-19.464 Y28.031
X-19.623 Y28.048
X-21.766
G3 X-21.972 Y27.499 I0.011 J-0.317
G1 X-21.944 Y27.473
X-12.289 Y18.408
X-12.247 Y18.368
G3 X-11.712 Y18.589 I0.217 J0.231
G1 Y20.766
X-11.721 Y20.944
X-11.75 Y21.166
X-11.805 Y21.422
X-11.894 Y21.721
X-12.038 Y22.089
X-12.256 Y22.538
X-12.592 Y23.11
X-13.016 Y23.713
X-13.476 Y24.29
X-13.961 Y24.847
X-14.463 Y25.388
X-14.979 Y25.914
X-15.509 Y26.428
X-16.05 Y26.93
X-16.601 Y27.42
X-17.133 Y27.872
X-17.277 Y27.968
X-17.44 Y28.028
X-17.612 Y28.048
X-19.623
G3 X-19.849 Y27.508 I0. J-0.318
G1 X-19.821 Y27.479
X-12.433 Y19.952
G3 X-11.933 Y20.012 I0.227 J0.222
X-11.712 Y20.766 I-1.36 J0.809
G1 Y22.7
X-11.722 Y22.888
X-11.75 Y23.102
X-11.798 Y23.329
X-11.882 Y23.61
X-12.01 Y23.937
X-12.204 Y24.338
X-12.491 Y24.826
X-12.915 Y25.429
X-13.384 Y26.
X-13.88 Y26.546
X-14.395 Y27.074
X-14.926 Y27.586
X-15.217 Y27.853
X-15.366 Y27.959
X-15.537 Y28.025
X-15.718 Y28.048
G3 X-15.963 Y27.543 I0.011 J-0.317
G1 X-15.906 Y27.465
X-12.286 Y22.523
G3 X-11.712 Y22.7 I0.256 J0.188
G1 Y24.617
X-11.72 Y24.767
X-11.747 Y24.958
X-11.797 Y25.182
X-11.883 Y25.458
X-12.003 Y25.757
X-12.192 Y26.137
X-12.457 Y26.578
X-12.871 Y27.153
X-13.348 Y27.716
X-13.444 Y27.817
X-13.6 Y27.942
X-13.783 Y28.021
X-13.981 Y28.048
G3 X-14.239 Y27.562 I0.011 J-0.317
G1 X-14.175 Y27.46
X-12.299 Y24.46
G3 X-11.712 Y24.617 I0.269 J0.168
G1 Y26.292
X-11.724 Y26.537
X-11.748 Y26.714
X-11.792 Y26.923
X-11.869 Y27.179
X-11.973 Y27.445
X-12.083 Y27.673
X-12.089 Y27.683
X-12.207 Y27.834
X-12.36 Y27.95
X-12.537 Y28.023
X-12.728 Y28.048
G3 X-13.003 Y27.593 I0.011 J-0.317
G1 X-12.935 Y27.453
X-12.316 Y26.165
G3 X-11.712 Y26.292 I0.286 J0.138
G1 Y27.715
X-11.714 Y27.757
X-11.722 Y27.799
X-11.735 Y27.837
X-11.753 Y27.875
X-11.778 Y27.913
X-11.813 Y27.951
X-11.831 Y27.966
X-11.868 Y27.994
X-11.906 Y28.015
X-11.943 Y28.031
X-11.981 Y28.041
X-12.023 Y28.047
X-12.064 Y28.048
X-17.612
G3 X-17.789 Y27.475 I0.011 J-0.317
G1 X-17.732 Y27.433 Z-1.492
X-17.678 Y27.393 Z-1.469
X-17.63 Y27.358 Z-1.431
X-17.589 Y27.328 Z-1.38
X-17.559 Y27.305 Z-1.32
X-17.54 Y27.292 Z-1.253
X-17.533 Y27.287 Z-1.183
G0 Z5.
X-35.125 Y-27.664
Z-0.865
G1 Z-1.183 F1016.
X-35.119 Y-27.668 Z-1.253
X-35.098 Y-27.68 Z-1.32
X-35.066 Y-27.7 Z-1.38
X-35.023 Y-27.726 Z-1.431
X-34.971 Y-27.756 Z-1.469
X-34.913 Y-27.791 Z-1.492
X-34.853 Y-27.827 Z-1.5
G3 X-34.099 Y-28.048 I0.809 J1.36
G1 X-30.077
X-29.605 Y-28.024
X-29.174 Y-27.968
X-28.604 Y-27.846
X-27.898 Y-27.634
X-27.208 Y-27.371
X-26.533 Y-27.075
X-25.868 Y-26.754
X-25.215 Y-26.412
X-24.571 Y-26.052
X-23.936 Y-25.675
X-23.311 Y-25.283
X-22.696 Y-24.875
X-22.092 Y-24.453
X-21.497 Y-24.015
X-20.914 Y-23.564
X-20.341 Y-23.099
X-19.78 Y-22.62
X-19.23 Y-22.127
X-18.693 Y-21.622
X-18.167 Y-21.104
X-17.655 Y-20.573
X-17.155 Y-20.03
X-16.668 Y-19.476
X-16.195 Y-18.91
X-15.736 Y-18.332
X-15.291 Y-17.744
X-14.86 Y-17.145
X-14.444 Y-16.536
X-14.042 Y-15.917
X-13.656 Y-15.288
X-13.285 Y-14.65
X-12.929 Y-14.004
X-12.589 Y-13.349
X-12.265 Y-12.687
X-11.957 Y-12.016
X-11.773 Y-11.589
X-11.739 Y-11.495
X-11.719 Y-11.396
X-11.712 Y-11.296
Y-7.615
G3 X-12.285 Y-7.438 I-0.317 J-0.011
G1 X-12.327 Y-7.495 Z-1.492
X-12.367 Y-7.549 Z-1.469
X-12.403 Y-7.598 Z-1.431
X-12.432 Y-7.638 Z-1.38
X-12.455 Y-7.669 Z-1.32
X-12.469 Y-7.688 Z-1.253
X-12.473 Y-7.694 Z-1.183
G0 Z5.
X-31.104 Y-27.664
Z-0.865
G1 Z-1.183 F1016.
X-31.097 Y-27.668 Z-1.253
X-31.077 Y-27.68 Z-1.32
X-31.044 Y-27.7 Z-1.38
X-31.001 Y-27.726 Z-1.431
X-30.949 Y-27.756 Z-1.469
X-30.892 Y-27.791 Z-1.492
X-30.831 Y-27.827 Z-1.5
G3 X-30.077 Y-28.048 I0.809 J1.36
G1 X-27.061
X-26.68 Y-28.029
X-26.36 Y-27.987
X-25.948 Y-27.899
X-25.425 Y-27.742
X-24.737 Y-27.474
X-24.073 Y-27.153
X-23.426 Y-26.798
X-22.793 Y-26.419
X-22.172 Y-26.02
X-21.563 Y-25.604
X-20.964 Y-25.173
X-20.376 Y-24.728
X-19.799 Y-24.269
X-19.232 Y-23.796
X-18.677 Y-23.31
X-18.133 Y-22.812
X-17.6 Y-22.301
X-17.08 Y-21.778
X-16.572 Y-21.243
X-16.076 Y-20.696
X-15.593 Y-20.138
X-15.123 Y-19.57
X-14.667 Y-18.99
X-14.224 Y-18.4
X-13.794 Y-17.8
X-13.379 Y-17.19
X-12.978 Y-16.571
X-12.591 Y-15.943
X-12.219 Y-15.306
X-11.862 Y-14.66
X-11.796 Y-14.534
X-11.75 Y-14.425
X-11.722 Y-14.309
X-11.712 Y-14.191
Y-11.296
G3 X-12.285 Y-11.119 I-0.317 J-0.011
G1 X-12.327 Y-11.176 Z-1.492
X-12.367 Y-11.23 Z-1.469
X-12.403 Y-11.279 Z-1.431
X-12.432 Y-11.32 Z-1.38
X-12.455 Y-11.35 Z-1.32
X-12.469 Y-11.369 Z-1.253
X-12.473 Y-11.375 Z-1.183
G0 Z5.
X-28.088 Y-27.664
Z-0.865
G1 Z-1.183 F1016.
X-28.081 Y-27.668 Z-1.253
X-28.061 Y-27.68 Z-1.32
X-28.028 Y-27.7 Z-1.38
X-27.985 Y-27.726 Z-1.431
X-27.933 Y-27.756 Z-1.469
X-27.876 Y-27.791 Z-1.492
X-27.815 Y-27.827 Z-1.5
G3 X-27.061 Y-28.048 I0.809 J1.36
G1 X-24.38
X-24.177 Y-28.038
X-23.91 Y-28.003
X-23.57 Y-27.93
X-23.167 Y-27.809
X-22.637 Y-27.603
X-21.973 Y-27.281
X-21.336 Y-26.91
X-20.717 Y-26.507
X-20.114 Y-26.082
X-19.524 Y-25.639
X-18.946 Y-25.181
X-18.379 Y-24.709
X-17.824 Y-24.223
X-17.279 Y-23.725
X-16.746 Y-23.215
X-16.225 Y-22.692
X-15.716 Y-22.159
X-15.219 Y-21.614
X-14.734 Y-21.058
X-14.261 Y-20.491
X-13.801 Y-19.914
X-13.354 Y-19.327
X-12.921 Y-18.73
X-12.501 Y-18.123
X-12.094 Y-17.508
X-11.826 Y-17.082
X-11.763 Y-16.958
X-11.725 Y-16.825
X-11.712 Y-16.687
Y-14.191
G3 X-12.285 Y-14.014 I-0.317 J-0.011
G1 X-12.327 Y-14.071 Z-1.492
X-12.367 Y-14.125 Z-1.469
X-12.403 Y-14.174 Z-1.431
X-12.432 Y-14.214 Z-1.38
X-12.455 Y-14.245 Z-1.32
X-12.469 Y-14.264 Z-1.253
X-12.473 Y-14.27 Z-1.183
G0 Z5.
X-25.407 Y-27.664
Z-0.865
G1 Z-1.183 F1016.
X-25.4 Y-27.668 Z-1.253
X-25.38 Y-27.68 Z-1.32
X-25.347 Y-27.7 Z-1.38
X-25.304 Y-27.726 Z-1.431
X-25.252 Y-27.756 Z-1.469
X-25.195 Y-27.791 Z-1.492
X-25.134 Y-27.827 Z-1.5
G3 X-24.38 Y-28.048 I0.809 J1.36
G1 X-22.202
X-21.908 Y-28.033
X-21.668 Y-28.002
X-21.371 Y-27.938
X-21.03 Y-27.836
X-20.593 Y-27.666
X-20.034 Y-27.395
X-19.398 Y-27.02
X-18.789 Y-26.604
X-18.199 Y-26.16
X-17.626 Y-25.696
X-17.066 Y-25.216
X-16.518 Y-24.721
X-15.982 Y-24.214
X-15.458 Y-23.695
X-14.945 Y-23.164
X-14.444 Y-22.622
X-13.955 Y-22.07
X-13.478 Y-21.507
X-13.014 Y-20.934
X-12.561 Y-20.351
X-12.121 Y-19.759
X-11.849 Y-19.375
X-11.774 Y-19.243
X-11.728 Y-19.098
X-11.712 Y-18.947
Y-16.687
G3 X-12.262 Y-16.483 I-0.317 J-0.011
G1 X-12.287 Y-16.509
X-22.929 Y-28.007
X-22.962 Y-28.032
X-23. Y-28.044
X-23.041 Y-28.042
X-23.078 Y-28.027
X-23.108 Y-28.
X-23.127 Y-27.964
X-23.133 Y-27.924
X-23.125 Y-27.885
X-23.104 Y-27.85
X-23.072 Y-27.825
X-23.034 Y-27.812
X-22.993
X-22.956 Y-27.827
G3 X-22.202 Y-28.048 I0.809 J1.36
G1 X-20.024
X-19.822 Y-28.038
X-19.596 Y-28.008
X-19.332 Y-27.952
X-19.026 Y-27.86
X-18.646 Y-27.712
X-18.177 Y-27.485
X-17.576 Y-27.131
X-16.972 Y-26.707
X-16.394 Y-26.249
X-15.834 Y-25.768
X-15.29 Y-25.27
X-14.759 Y-24.758
X-14.24 Y-24.233
X-13.734 Y-23.696
X-13.239 Y-23.149
X-12.756 Y-22.591
X-12.285 Y-22.024
X-11.873 Y-21.506
X-11.785 Y-21.366
X-11.731 Y-21.209
X-11.712 Y-21.045
Y-18.947
G3 X-12.264 Y-18.744 I-0.317 J-0.011
G1 X-12.287 Y-18.769
X-20.205 Y-27.47
X-20.247 Y-27.517
G3 X-20.024 Y-28.048 I0.235 J-0.214
G1 X-18.013
X-17.852 Y-28.04
X-17.634 Y-28.011
X-17.401 Y-27.961
X-17.117 Y-27.876
X-16.778 Y-27.744
X-16.367 Y-27.545
X-15.859 Y-27.246
X-15.255 Y-26.822
X-14.683 Y-26.356
X-14.134 Y-25.863
X-13.602 Y-25.351
X-13.086 Y-24.824
X-12.582 Y-24.285
X-12.091 Y-23.734
X-11.89 Y-23.498
X-11.793 Y-23.353
X-11.733 Y-23.189
X-11.712 Y-23.017
Y-21.045
G3 X-12.253 Y-20.819 I-0.318 J0.
G1 X-12.281 Y-20.846
X-18.828 Y-27.328
G3 X-18.767 Y-27.827 I0.223 J-0.226
X-18.013 Y-28.048 I0.809 J1.36
G1 X-16.17
X-15.969 Y-28.038
X-15.772 Y-28.012
X-15.552 Y-27.965
X-15.28 Y-27.884
X-14.977 Y-27.765
X-14.601 Y-27.583
X-14.156 Y-27.321
X-13.577 Y-26.915
X-13.01 Y-26.444
X-12.469 Y-25.941
X-11.949 Y-25.418
X-11.911 Y-25.377
X-11.803 Y-25.227
X-11.735 Y-25.055
X-11.712 Y-24.872
G3 X-12.21 Y-24.621 I-0.317 J-0.011
G1 X-12.297 Y-24.681
X-16.339 Y-27.469
G3 X-16.17 Y-28.048 I0.18 J-0.261
G1 X-14.327
X-14.167 Y-28.04
X-13.989 Y-28.017
X-13.774 Y-27.971
X-13.512 Y-27.892
X-13.235 Y-27.784
X-12.884 Y-27.614
X-12.485 Y-27.379
X-12.024 Y-27.055
X-11.98 Y-27.019
X-11.835 Y-26.858
X-11.744 Y-26.662
X-11.712 Y-26.449
G3 X-12.184 Y-26.182 I-0.317 J-0.011
G1 X-12.303 Y-26.249
X-14.47 Y-27.453
G3 X-14.327 Y-28.048 I0.154 J-0.277
G1 X-12.651
X-12.45 Y-28.038
X-12.302 Y-28.018
X-12.29 Y-28.016
X-12.103 Y-27.946
X-11.942 Y-27.829
X-11.817 Y-27.674
X-11.739 Y-27.491
X-11.712 Y-27.293
G3 X-12.211 Y-27.044 I-0.317 J-0.011
G1 X-12.297 Y-27.104
X-12.822 Y-27.47
G3 X-12.651 Y-28.048 I0.182 J-0.26
G1 X-12.064
X-12.023 Y-28.047
X-11.981 Y-28.041
X-11.943 Y-28.031
X-11.906 Y-28.015
X-11.868 Y-27.994
X-11.831 Y-27.966
X-11.813 Y-27.951
X-11.778 Y-27.913
X-11.753 Y-27.875
X-11.735 Y-27.837
X-11.722 Y-27.799
X-11.714 Y-27.757
X-11.712 Y-27.715
Y-23.017
G3 X-12.285 Y-22.84 I-0.317 J-0.011
G1 X-12.327 Y-22.897 Z-1.492
X-12.367 Y-22.951 Z-1.469
X-12.403 Y-22.999 Z-1.431
X-12.432 Y-23.04 Z-1.38
X-12.455 Y-23.07 Z-1.32
X-12.469 Y-23.089 Z-1.253
X-12.473 Y-23.096 Z-1.183
G0 Z5.
X-67.425 Y-4.5
Z-0.865
G1 Z-1.183 F1016.
X-67.429 Y-4.507 Z-1.253
X-67.441 Y-4.527 Z-1.32
X-67.46 Y-4.559 Z-1.38
X-67.486 Y-4.603 Z-1.431
X-67.516 Y-4.654 Z-1.469
X-67.551 Y-4.712 Z-1.492
X-67.587 Y-4.773 Z-1.5
G3 X-67.808 Y-5.526 I1.36 J-0.809
G1 Y-9.713
X-67.79 Y-10.08
X-67.732 Y-10.518
X-67.612 Y-11.081
X-67.4 Y-11.788
X-67.138 Y-12.477
X-66.842 Y-13.153
X-66.521 Y-13.818
X-66.18 Y-14.472
X-65.821 Y-15.116
X-65.445 Y-15.751
X-65.053 Y-16.376
X-64.645 Y-16.991
X-64.222 Y-17.596
X-63.785 Y-18.19
X-63.333 Y-18.773
X-62.866 Y-19.345
X-62.386 Y-19.905
X-61.892 Y-20.453
X-61.385 Y-20.989
X-60.865 Y-21.512
X-60.332 Y-22.022
X-59.787 Y-22.52
X-59.229 Y-23.003
X-58.66 Y-23.473
X-58.08 Y-23.928
X-57.489 Y-24.37
X-56.887 Y-24.796
X-56.275 Y-25.208
X-55.653 Y-25.605
X-55.021 Y-25.987
X-54.381 Y-26.353
X-53.731 Y-26.703
X-53.074 Y-27.038
X-52.408 Y-27.356
X-51.735 Y-27.658
X-51.054 Y-27.943
X-50.915 Y-27.997
X-50.828 Y-28.025
X-50.738 Y-28.042
X-50.646 Y-28.048
X-46.597
G3 X-46.42 Y-27.475 I-0.011 J0.317
G1 X-46.477 Y-27.433 Z-1.492
X-46.532 Y-27.393 Z-1.469
X-46.58 Y-27.358 Z-1.431
X-46.621 Y-27.328 Z-1.38
X-46.651 Y-27.305 Z-1.32
X-46.67 Y-27.292 Z-1.253
X-46.676 Y-27.287 Z-1.183
G0 Z5.
X-67.425 Y-8.686
Z-0.865
G1 Z-1.183 F1016.
X-67.429 Y-8.693 Z-1.253
X-67.441 Y-8.713 Z-1.32
X-67.46 Y-8.746 Z-1.38
X-67.486 Y-8.789 Z-1.431
X-67.516 Y-8.841 Z-1.469
X-67.551 Y-8.899 Z-1.492
X-67.587 Y-8.959 Z-1.5
G3 X-67.808 Y-9.713 I1.36 J-0.809
G1 Y-12.727
X-67.794 Y-13.012
X-67.752 Y-13.333
X-67.663 Y-13.746
X-67.506 Y-14.271
X-67.238 Y-14.959
X-66.917 Y-15.623
X-66.563 Y-16.27
X-66.183 Y-16.903
X-65.784 Y-17.524
X-65.368 Y-18.133
X-64.936 Y-18.731
X-64.49 Y-19.319
X-64.03 Y-19.895
X-63.556 Y-20.461
X-63.068 Y-21.015
X-62.568 Y-21.557
X-62.055 Y-22.087
X-61.53 Y-22.606
X-60.993 Y-23.111
X-60.444 Y-23.604
X-59.883 Y-24.084
X-59.311 Y-24.55
X-58.729 Y-25.003
X-58.136 Y-25.442
X-57.533 Y-25.867
X-56.92 Y-26.278
X-56.298 Y-26.675
X-55.667 Y-27.057
X-55.027 Y-27.424
X-54.378 Y-27.775
X-54.004 Y-27.967
X-53.896 Y-28.011
X-53.783 Y-28.039
X-53.666 Y-28.048
X-50.646
G3 X-50.469 Y-27.475 I-0.011 J0.317
G1 X-50.526 Y-27.433 Z-1.492
X-50.58 Y-27.393 Z-1.469
X-50.629 Y-27.358 Z-1.431
X-50.669 Y-27.328 Z-1.38
X-50.7 Y-27.305 Z-1.32
X-50.719 Y-27.292 Z-1.253
X-50.725 Y-27.287 Z-1.183
G0 Z5.
X-67.425 Y-11.701
Z-0.865
G1 Z-1.183 F1016.
X-67.429 Y-11.708 Z-1.253
X-67.441 Y-11.728 Z-1.32
X-67.46 Y-11.76 Z-1.38
X-67.486 Y-11.804 Z-1.431
X-67.516 Y-11.855 Z-1.469
X-67.551 Y-11.913 Z-1.492
X-67.587 Y-11.974 Z-1.5
G3 X-67.808 Y-12.727 I1.36 J-0.809
G1 Y-15.239
X-67.793 Y-15.533
X-67.758 Y-15.8
X-67.686 Y-16.14
X-67.565 Y-16.542
X-67.36 Y-17.069
X-67.038 Y-17.733
X-66.667 Y-18.37
X-66.264 Y-18.988
X-65.838 Y-19.591
X-65.394 Y-20.18
X-64.934 Y-20.757
X-64.46 Y-21.322
X-63.973 Y-21.876
X-63.473 Y-22.419
X-62.96 Y-22.95
X-62.436 Y-23.469
X-61.9 Y-23.976
X-61.352 Y-24.47
X-60.793 Y-24.952
X-60.224 Y-25.421
X-59.644 Y-25.877
X-59.054 Y-26.32
X-58.454 Y-26.749
X-57.844 Y-27.165
X-57.226 Y-27.567
X-56.628 Y-27.937
X-56.505 Y-27.998
X-56.374 Y-28.035
X-56.238 Y-28.048
X-53.666
G3 X-53.49 Y-27.475 I-0.011 J0.317
G1 X-53.547 Y-27.433 Z-1.492
X-53.601 Y-27.393 Z-1.469
X-53.649 Y-27.358 Z-1.431
X-53.69 Y-27.328 Z-1.38
X-53.72 Y-27.305 Z-1.32
X-53.739 Y-27.292 Z-1.253
X-53.746 Y-27.287 Z-1.183
G0 Z5.
X-67.425 Y-14.213
Z-0.865
G1 Z-1.183 F1016.
X-67.429 Y-14.22 Z-1.253
X-67.441 Y-14.24 Z-1.32
X-67.46 Y-14.272 Z-1.38
X-67.486 Y-14.316 Z-1.431
X-67.516 Y-14.367 Z-1.469
X-67.551 Y-14.425 Z-1.492
X-67.587 Y-14.486 Z-1.5
G3 X-67.808 Y-15.239 I1.36 J-0.809
G1 Y-17.584
X-67.798 Y-17.785
X-67.767 Y-18.025
X-67.703 Y-18.322
X-67.602 Y-18.661
X-67.432 Y-19.097
X-67.162 Y-19.654
X-66.787 Y-20.289
X-66.371 Y-20.898
X-65.926 Y-21.487
X-65.46 Y-22.06
X-64.979 Y-22.619
X-64.483 Y-23.165
X-63.974 Y-23.699
X-63.453 Y-24.222
X-62.921 Y-24.732
X-62.377 Y-25.231
X-61.822 Y-25.717
X-61.257 Y-26.191
X-60.681 Y-26.653
X-60.096 Y-27.102
X-59.501 Y-27.539
X-58.966 Y-27.914
X-58.834 Y-27.987
X-58.69 Y-28.033
X-58.54 Y-28.048
X-56.238
G3 X-56.036 Y-27.495 I-0.011 J0.317
G1 X-56.06 Y-27.473
X-67.767 Y-16.857
X-67.792 Y-16.825
X-67.804 Y-16.786
X-67.803 Y-16.746
X-67.788 Y-16.708
X-67.761 Y-16.678
X-67.725 Y-16.659
X-67.685 Y-16.653
X-67.645 Y-16.661
X-67.61 Y-16.682
X-67.585 Y-16.713
X-67.572 Y-16.752
Y-16.792
X-67.587 Y-16.83
G3 X-67.808 Y-17.584 I1.36 J-0.809
G1 Y-19.593
X-67.794 Y-19.882
X-67.764 Y-20.107
X-67.708 Y-20.368
X-67.617 Y-20.673
X-67.47 Y-21.049
X-67.245 Y-21.513
X-66.896 Y-22.106
X-66.472 Y-22.71
X-66.014 Y-23.288
X-65.532 Y-23.847
X-65.033 Y-24.39
X-64.519 Y-24.919
X-63.992 Y-25.436
X-63.453 Y-25.94
X-62.904 Y-26.433
X-62.344 Y-26.913
X-61.774 Y-27.381
X-61.194 Y-27.838
X-61.113 Y-27.899
X-60.976 Y-27.98
X-60.825 Y-28.031
X-60.667 Y-28.048
X-58.54
G3 X-58.338 Y-27.496 I-0.011 J0.317
G1 X-58.363 Y-27.473
X-67.23 Y-19.412
X-67.277 Y-19.369
G3 X-67.808 Y-19.593 I-0.214 J-0.235
G1 Y-21.603
X-67.796 Y-21.843
X-67.768 Y-22.061
X-67.718 Y-22.292
X-67.633 Y-22.575
X-67.503 Y-22.911
X-67.305 Y-23.318
X-67.009 Y-23.82
X-66.585 Y-24.424
X-66.118 Y-24.996
X-65.625 Y-25.544
X-65.111 Y-26.074
X-64.583 Y-26.588
X-64.041 Y-27.09
X-63.488 Y-27.578
X-63.14 Y-27.873
X-62.996 Y-27.968
X-62.834 Y-28.028
X-62.662 Y-28.048
X-60.667
G3 X-60.441 Y-27.507 I0. J0.318
G1 X-60.469 Y-27.479
X-67.088 Y-20.788
G3 X-67.587 Y-20.849 I-0.226 J-0.223
X-67.808 Y-21.603 I1.36 J-0.809
G1 Y-23.445
X-67.794 Y-23.721
X-67.769 Y-23.915
X-67.722 Y-24.135
X-67.641 Y-24.406
X-67.524 Y-24.706
X-67.343 Y-25.079
X-67.084 Y-25.518
X-66.684 Y-26.088
X-66.213 Y-26.655
X-65.71 Y-27.195
X-65.185 Y-27.714
X-65.038 Y-27.85
X-64.888 Y-27.958
X-64.717 Y-28.025
X-64.534 Y-28.048
G3 X-64.284 Y-27.551 I-0.011 J0.317
G1 X-64.344 Y-27.463
X-67.229 Y-23.276
G3 X-67.808 Y-23.445 I-0.261 J-0.18
G1 Y-25.287
X-67.797 Y-25.513
X-67.773 Y-25.691
X-67.727 Y-25.906
X-67.65 Y-26.166
X-67.543 Y-26.441
X-67.373 Y-26.79
X-67.141 Y-27.184
X-66.795 Y-27.677
X-66.709 Y-27.78
X-66.548 Y-27.925
X-66.353 Y-28.016
X-66.139 Y-28.048
G3 X-65.872 Y-27.577 I-0.011 J0.317
G1 X-65.939 Y-27.457
X-67.213 Y-25.145
G3 X-67.808 Y-25.287 I-0.278 J-0.153
G1 Y-27.129
X-67.801 Y-27.279
X-67.777 Y-27.427
X-67.763 Y-27.485
X-67.691 Y-27.667
X-67.573 Y-27.825
X-67.419 Y-27.946
X-67.238 Y-28.022
X-67.043 Y-28.048
G3 X-66.799 Y-27.542 I-0.011 J0.317
G1 X-66.856 Y-27.465
X-67.235 Y-26.952
G3 X-67.808 Y-27.129 I-0.255 J-0.189
G1 Y-27.715
X-67.806 Y-27.757
X-67.798 Y-27.799
X-67.79 Y-27.825
X-67.779 Y-27.852
X-67.764 Y-27.881
X-67.745 Y-27.909
X-67.721 Y-27.938
X-67.69 Y-27.966
X-67.65 Y-27.994
X-67.611 Y-28.016
X-67.57 Y-28.033
X-67.528 Y-28.043
X-67.444 Y-28.048
X-62.662
G3 X-62.485 Y-27.475 I-0.011 J0.317
G1 X-62.542 Y-27.433 Z-1.492
X-62.596 Y-27.393 Z-1.469
X-62.645 Y-27.358 Z-1.431
X-62.685 Y-27.328 Z-1.38
X-62.716 Y-27.305 Z-1.32
X-62.735 Y-27.292 Z-1.253
X-62.741 Y-27.287 Z-1.183
G0 Z5.
X-43.461 Y27.664
Z-0.865
G1 Z-1.183 F1016.
X-43.468 Y27.668 Z-1.253
X-43.488 Y27.68 Z-1.32
X-43.521 Y27.7 Z-1.38
X-43.564 Y27.726 Z-1.431
X-43.616 Y27.756 Z-1.469
X-43.674 Y27.791 Z-1.492
X-43.734 Y27.827 Z-1.5
G3 X-44.488 Y28.048 I-0.809 J-1.36
G1 X-49.012
X-49.509 Y28.023
X-49.978 Y27.962
X-50.59 Y27.831
X-51.297 Y27.619
X-51.988 Y27.361
X-52.667 Y27.072
X-53.335 Y26.758
X-53.992 Y26.424
X-54.641 Y26.071
X-55.279 Y25.702
X-55.908 Y25.316
X-56.528 Y24.915
X-57.136 Y24.498
X-57.735 Y24.067
X-58.322 Y23.62
X-58.899 Y23.16
X-59.464 Y22.685
X-60.017 Y22.197
X-60.558 Y21.695
X-61.086 Y21.18
X-61.602 Y20.653
X-62.105 Y20.112
X-62.594 Y19.56
X-63.069 Y18.996
X-63.53 Y18.42
X-63.978 Y17.833
X-64.41 Y17.236
X-64.828 Y16.627
X-65.23 Y16.009
X-65.617 Y15.381
X-65.988 Y14.743
X-66.343 Y14.096
X-66.682 Y13.441
X-67.005 Y12.777
X-67.311 Y12.106
X-67.601 Y11.428
X-67.756 Y11.039
X-67.785 Y10.951
X-67.802 Y10.859
X-67.808 Y10.765
Y6.682
G3 X-67.235 Y6.505 I0.317 J0.011
G1 X-67.193 Y6.562 Z-1.492
X-67.153 Y6.617 Z-1.469
X-67.118 Y6.665 Z-1.431
X-67.088 Y6.706 Z-1.38
X-67.066 Y6.736 Z-1.32
X-67.052 Y6.755 Z-1.253
X-67.047 Y6.761 Z-1.183
G0 Z5.
X-47.986 Y27.664
Z-0.865
G1 Z-1.183 F1016.
X-47.992 Y27.668 Z-1.253
X-48.013 Y27.68 Z-1.32
X-48.045 Y27.7 Z-1.38
X-48.088 Y27.726 Z-1.431
X-48.14 Y27.756 Z-1.469
X-48.198 Y27.791 Z-1.492
X-48.258 Y27.827 Z-1.5
G3 X-49.012 Y28.048 I-0.809 J-1.36
G1 X-52.196
X-52.527 Y28.031
X-52.86 Y27.988
X-53.288 Y27.896
X-53.842 Y27.73
X-54.53 Y27.462
X-55.196 Y27.144
X-55.845 Y26.793
X-56.48 Y26.419
X-57.104 Y26.024
X-57.716 Y25.613
X-58.318 Y25.186
X-58.909 Y24.744
X-59.489 Y24.288
X-60.058 Y23.819
X-60.616 Y23.336
X-61.162 Y22.84
X-61.696 Y22.331
X-62.219 Y21.81
X-62.729 Y21.277
X-63.226 Y20.731
X-63.71 Y20.175
X-64.181 Y19.607
X-64.638 Y19.028
X-65.082 Y18.438
X-65.512 Y17.839
X-65.927 Y17.229
X-66.327 Y16.609
X-66.713 Y15.98
X-67.084 Y15.342
X-67.439 Y14.696
X-67.725 Y14.145
X-67.771 Y14.037
X-67.799 Y13.922
X-67.808 Y13.804
Y10.765
G3 X-67.235 Y10.589 I0.317 J0.011
G1 X-67.193 Y10.646 Z-1.492
X-67.153 Y10.7 Z-1.469
X-67.118 Y10.748 Z-1.431
X-67.088 Y10.789 Z-1.38
X-67.066 Y10.819 Z-1.32
X-67.052 Y10.838 Z-1.253
X-67.047 Y10.845 Z-1.183
G0 Z5.
X-51.169 Y27.664
Z-0.865
G1 Z-1.183 F1016.
X-51.176 Y27.668 Z-1.253
X-51.196 Y27.68 Z-1.32
X-51.229 Y27.7 Z-1.38
X-51.272 Y27.726 Z-1.431
X-51.324 Y27.756 Z-1.469
X-51.381 Y27.791 Z-1.492
X-51.442 Y27.827 Z-1.5
G3 X-52.196 Y28.048 I-0.809 J-1.36
G1 X-54.877
X-55.086 Y28.038
X-55.358 Y28.002
X-55.707 Y27.927
X-56.12 Y27.803
X-56.665 Y27.591
X-57.329 Y27.269
X-57.968 Y26.9
X-58.588 Y26.5
X-59.193 Y26.078
X-59.785 Y25.637
X-60.365 Y25.182
X-60.934 Y24.712
X-61.491 Y24.228
X-62.037 Y23.732
X-62.572 Y23.223
X-63.094 Y22.703
X-63.605 Y22.17
X-64.103 Y21.626
X-64.589 Y21.071
X-65.062 Y20.504
X-65.522 Y19.928
X-65.969 Y19.34
X-66.402 Y18.743
X-66.822 Y18.137
X-67.228 Y17.52
X-67.619 Y16.895
X-67.704 Y16.753
X-67.761 Y16.633
X-67.796 Y16.506
X-67.808 Y16.374
Y13.804
G3 X-67.235 Y13.627 I0.317 J0.011
G1 X-67.193 Y13.684 Z-1.492
X-67.153 Y13.739 Z-1.469
X-67.118 Y13.787 Z-1.431
X-67.088 Y13.828 Z-1.38
X-67.066 Y13.858 Z-1.32
X-67.052 Y13.877 Z-1.253
X-67.047 Y13.883 Z-1.183
G0 Z5.
X-53.85 Y27.664
Z-0.865
G1 Z-1.183 F1016.
X-53.857 Y27.668 Z-1.253
X-53.877 Y27.68 Z-1.32
X-53.91 Y27.7 Z-1.38
X-53.953 Y27.726 Z-1.431
X-54.005 Y27.756 Z-1.469
X-54.062 Y27.791 Z-1.492
X-54.123 Y27.827 Z-1.5
G3 X-54.877 Y28.048 I-0.809 J-1.36
G1 X-57.055
X-57.384 Y28.032
X-57.627 Y28.
X-57.927 Y27.935
X-58.274 Y27.832
X-58.718 Y27.659
X-59.289 Y27.381
X-59.925 Y27.007
X-60.535 Y26.592
X-61.126 Y26.15
X-61.701 Y25.687
X-62.262 Y25.209
X-62.811 Y24.716
X-63.348 Y24.21
X-63.874 Y23.692
X-64.387 Y23.162
X-64.889 Y22.621
X-65.378 Y22.069
X-65.856 Y21.507
X-66.321 Y20.934
X-66.773 Y20.351
X-67.212 Y19.758
X-67.639 Y19.156
X-67.681 Y19.093
X-67.751 Y18.964
X-67.794 Y18.824
X-67.808 Y18.678
Y16.374
G3 X-67.258 Y16.17 I0.317 J0.011
G1 X-67.233 Y16.196
X-56.328 Y28.007
X-56.296 Y28.032
X-56.257 Y28.044
X-56.216 Y28.042
X-56.179 Y28.027
X-56.149 Y28.
X-56.13 Y27.964
X-56.124 Y27.924
X-56.132 Y27.885
X-56.153 Y27.85
X-56.185 Y27.825
X-56.223 Y27.812
X-56.264
X-56.301 Y27.827
G3 X-57.055 Y28.048 I-0.809 J-1.36
G1 X-59.233
X-59.487 Y28.035
X-59.714 Y28.006
X-59.981 Y27.948
X-60.29 Y27.856
X-60.675 Y27.706
X-61.15 Y27.475
X-61.761 Y27.116
X-62.365 Y26.691
X-62.944 Y26.234
X-63.505 Y25.755
X-64.05 Y25.257
X-64.581 Y24.746
X-65.101 Y24.222
X-65.608 Y23.686
X-66.103 Y23.138
X-66.586 Y22.581
X-67.057 Y22.013
X-67.516 Y21.435
X-67.657 Y21.25
X-67.74 Y21.113
X-67.791 Y20.961
X-67.808 Y20.801
Y18.678
G3 X-67.256 Y18.475 I0.317 J0.011
G1 X-67.233 Y18.5
X-59.052 Y27.47
X-59.01 Y27.517
G3 X-59.233 Y28.048 I-0.235 J0.214
G1 X-61.244
X-61.468 Y28.037
X-61.686 Y28.008
X-61.922 Y27.958
X-62.207 Y27.872
X-62.549 Y27.739
X-62.963 Y27.538
X-63.477 Y27.236
X-64.08 Y26.812
X-64.653 Y26.346
X-65.203 Y25.854
X-65.735 Y25.343
X-66.252 Y24.817
X-66.756 Y24.278
X-67.247 Y23.727
X-67.631 Y23.278
X-67.727 Y23.133
X-67.788 Y22.97
X-67.808 Y22.797
Y20.801
G3 X-67.268 Y20.576 I0.317 J0.
G1 X-67.24 Y20.603
X-60.43 Y27.328
G3 X-60.49 Y27.827 I-0.223 J0.226
X-61.244 Y28.048 I-0.809 J-1.36
G1 X-63.087
X-63.358 Y28.034
X-63.556 Y28.009
X-63.777 Y27.961
X-64.049 Y27.88
X-64.354 Y27.761
X-64.732 Y27.577
X-65.18 Y27.314
X-65.762 Y26.905
X-66.33 Y26.434
X-66.87 Y25.931
X-67.391 Y25.408
X-67.609 Y25.175
X-67.717 Y25.025
X-67.785 Y24.853
X-67.808 Y24.669
G3 X-67.31 Y24.419 I0.317 J0.011
G1 X-67.223 Y24.479
X-62.917 Y27.47
G3 X-63.087 Y28.048 I-0.181 J0.261
G1 X-64.93
X-65.165 Y28.036
X-65.343 Y28.013
X-65.558 Y27.967
X-65.82 Y27.888
X-66.098 Y27.78
X-66.45 Y27.609
X-66.85 Y27.374
X-67.364 Y27.013
X-67.54 Y26.867
X-67.685 Y26.706
X-67.777 Y26.51
X-67.808 Y26.296
G3 X-67.336 Y26.03 I0.317 J0.011
G1 X-67.217 Y26.097
X-64.787 Y27.453
G3 X-64.93 Y28.048 I-0.155 J0.277
G1 X-66.774
X-66.923 Y28.04
X-67.091 Y28.016
X-67.248 Y27.979
X-67.292 Y27.965
X-67.5 Y27.861
X-67.665 Y27.697
X-67.772 Y27.489
X-67.808 Y27.259
G3 X-67.317 Y27.004 I0.317 J0.011
G1 X-67.222 Y27.067
X-66.611 Y27.465
G3 X-66.774 Y28.048 I-0.173 J0.266
G1 X-67.444
X-67.528 Y28.043
X-67.57 Y28.033
X-67.611 Y28.016
X-67.65 Y27.994
X-67.69 Y27.966
X-67.721 Y27.938
X-67.745 Y27.909
X-67.764 Y27.881
X-67.779 Y27.852
X-67.79 Y27.825
X-67.798 Y27.799
X-67.806 Y27.757
X-67.808 Y27.715
Y22.797
G3 X-67.511 Y22.491 I0.317 J0.011
G1 X-67.491 Y22.49 Z-1.499
X-67.437 Y22.504 Z-1.491
X-67.386 Y22.517 Z-1.473
X-67.339 Y22.529 Z-1.446
X-67.304 Y22.56 Z-1.406
X-67.274 Y22.586 Z-1.358
X-67.253 Y22.604 Z-1.303
X-67.239 Y22.616 Z-1.244
X-67.235 Y22.62 Z-1.183
G0 Z5.
X41.043 Y-0.793
Z2.5
G3 X38.477 Y0.793 Z2.335 I-1.283 J0.793 F1016.
X41.043 Y-0.793 Z2.169 I1.283 J-0.793
X38.477 Y0.793 Z2.004 I-1.283 J0.793
X41.043 Y-0.793 Z1.838 I1.283 J-0.793
X38.477 Y0.793 Z1.673 I-1.283 J0.793
X41.043 Y-0.793 Z1.507 I1.283 J-0.793
X38.477 Y0.793 Z1.342 I-1.283 J0.793
X41.043 Y-0.793 Z1.176 I1.283 J-0.793
X38.477 Y0.793 Z1.011 I-1.283 J0.793
X41.043 Y-0.793 Z0.845 I1.283 J-0.793
X38.477 Y0.793 Z0.68 I-1.283 J0.793
X41.043 Y-0.793 Z0.515 I1.283 J-0.793
X38.477 Y0.793 Z0.349 I-1.283 J0.793
X41.043 Y-0.793 Z0.184 I1.283 J-0.793
X38.477 Y0.793 Z0.018 I-1.283 J0.793
X41.043 Y-0.793 Z-0.147 I1.283 J-0.793
X38.477 Y0.793 Z-0.313 I-1.283 J0.793
X41.043 Y-0.793 Z-0.478 I1.283 J-0.793
X38.477 Y0.793 Z-0.644 I-1.283 J0.793
X41.043 Y-0.793 Z-0.809 I1.283 J-0.793
X38.477 Y0.793 Z-0.974 I-1.283 J0.793
X41.043 Y-0.793 Z-1.14 I1.283 J-0.793
X38.477 Y0.793 Z-1.305 I-1.283 J0.793
X41.043 Y-0.793 Z-1.471 I1.283 J-0.793
X41.268 Y0. Z-1.5 I-1.283 J0.793
X38.252 I-1.508 J0.
X41.268 I1.508 J0.
G1 X41.287 Y0.738
X41.309 Y0.827
X41.325 Y0.976
X41.312 Y1.126
X41.276 Y1.272
X41.222 Y1.411
X41.15 Y1.543
X41.064 Y1.666
X40.966 Y1.78
X40.857 Y1.883
X40.74 Y1.976
X40.614 Y2.058
X40.482 Y2.129
X40.343 Y2.189
X40.197 Y2.24
X40.043 Y2.279
X39.883 Y2.306
X39.718 Y2.321
X39.549 Y2.323
X39.378 Y2.311
X39.206 Y2.284
X39.035 Y2.244
X38.865 Y2.189
X38.699 Y2.121
X38.537 Y2.038
X38.382 Y1.942
X38.233 Y1.833
X38.093 Y1.711
X37.962 Y1.578
X37.842 Y1.434
X37.733 Y1.281
X37.637 Y1.118
X37.553 Y0.948
X37.484 Y0.771
X37.428 Y0.589
X37.388 Y0.402
X37.362 Y0.212
X37.352 Y0.021
X37.357 Y-0.171
X37.377 Y-0.362
X37.413 Y-0.551
X37.464 Y-0.737
X37.53 Y-0.918
X37.61 Y-1.094
X37.704 Y-1.262
X37.812 Y-1.423
X37.932 Y-1.575
X38.063 Y-1.716
X38.206 Y-1.847
X38.359 Y-1.965
X38.521 Y-2.072
X38.691 Y-2.164
X38.868 Y-2.243
X39.05 Y-2.308
X39.238 Y-2.357
X39.428 Y-2.392
X39.621 Y-2.411
X39.815 Y-2.414
X40.009 Y-2.402
X40.2 Y-2.374
X40.39 Y-2.331
X40.575 Y-2.273
X40.754 Y-2.201
X40.928 Y-2.114
X41.094 Y-2.013
X41.251 Y-1.9
X41.398 Y-1.774
X41.535 Y-1.637
X41.661 Y-1.489
X41.774 Y-1.332
X41.879 Y-1.159
X41.99 Y-0.937
X42.137 Y-0.572
X42.244 Y-0.229
X42.308 Y0.054
X42.345 Y0.309
X42.36 Y0.546
X42.355 Y0.77
X42.334 Y0.983
X42.297 Y1.19
X42.243 Y1.392
X42.173 Y1.589
X42.088 Y1.779
X41.988 Y1.962
X41.873 Y2.137
X41.744 Y2.304
X41.6 Y2.461
X41.442 Y2.608
X41.27 Y2.744
X41.086 Y2.867
X40.889 Y2.976
X40.681 Y3.071
X40.463 Y3.15
X40.237 Y3.212
X40.003 Y3.256
X39.763 Y3.281
X39.519 Y3.288
X39.273 Y3.274
X39.026 Y3.241
X38.78 Y3.187
X38.537 Y3.113
X38.3 Y3.019
X38.068 Y2.906
X37.846 Y2.773
X37.633 Y2.622
X37.432 Y2.454
X37.244 Y2.269
X37.071 Y2.069
X36.914 Y1.854
X36.774 Y1.627
X36.652 Y1.388
X36.549 Y1.14
X36.467 Y0.883
X36.405 Y0.62
X36.365 Y0.353
X36.346 Y0.082
X36.348 Y-0.19
X36.373 Y-0.461
X36.419 Y-0.73
X36.487 Y-0.994
X36.576 Y-1.253
X36.686 Y-1.503
X36.815 Y-1.744
X36.963 Y-1.975
X37.13 Y-2.192
X37.314 Y-2.396
X37.513 Y-2.585
X37.727 Y-2.757
X37.954 Y-2.911
X38.193 Y-3.046
X38.442 Y-3.162
X38.7 Y-3.258
X38.964 Y-3.333
X39.234 Y-3.386
X39.507 Y-3.417
X39.782 Y-3.427
X40.057 Y-3.414
X40.33 Y-3.379
X40.599 Y-3.323
X40.863 Y-3.245
X41.12 Y-3.146
X41.368 Y-3.026
X41.605 Y-2.888
X41.831 Y-2.73
X42.045 Y-2.554
X42.251 Y-2.355
X42.465 Y-2.111
X42.667 Y-1.84
X42.854 Y-1.543
X43.018 Y-1.227
X43.156 Y-0.902
X43.264 Y-0.575
X43.342 Y-0.252
X43.394 Y0.068
X43.418 Y0.385
Y0.697
X43.392 Y1.005
X43.343 Y1.306
X43.27 Y1.6
X43.174 Y1.886
X43.056 Y2.162
X42.917 Y2.427
X42.756 Y2.681
X42.575 Y2.922
X42.375 Y3.148
X42.155 Y3.359
X41.918 Y3.553
X41.664 Y3.728
X41.394 Y3.884
X41.111 Y4.019
X40.814 Y4.132
X40.508 Y4.221
X40.192 Y4.286
X39.869 Y4.326
X39.542 Y4.34
X39.212 Y4.327
X38.882 Y4.288
X38.555 Y4.222
X38.231 Y4.129
X37.914 Y4.01
X37.605 Y3.865
X37.308 Y3.695
X37.024 Y3.5
X36.755 Y3.282
X36.503 Y3.042
X36.271 Y2.782
X36.059 Y2.503
X35.869 Y2.206
X35.704 Y1.895
X35.563 Y1.57
X35.449 Y1.234
X35.362 Y0.889
X35.303 Y0.538
X35.272 Y0.182
X35.27 Y-0.176
X35.297 Y-0.533
X35.352 Y-0.887
X35.435 Y-1.236
X35.547 Y-1.578
X35.685 Y-1.91
X35.85 Y-2.23
X36.04 Y-2.536
X36.255 Y-2.826
X36.492 Y-3.098
X36.75 Y-3.35
X37.027 Y-3.58
X37.323 Y-3.788
X37.634 Y-3.972
X37.959 Y-4.129
X38.296 Y-4.261
X38.642 Y-4.365
X38.995 Y-4.441
X39.354 Y-4.488
X39.715 Y-4.506
X40.077 Y-4.495
X40.436 Y-4.455
X40.792 Y-4.387
X41.14 Y-4.29
X41.48 Y-4.166
X41.809 Y-4.014
X42.127 Y-3.835
X42.439 Y-3.625
X42.743 Y-3.383
X43.035 Y-3.11
X43.312 Y-2.805
X43.567 Y-2.474
X43.797 Y-2.12
X43.998 Y-1.749
X44.168 Y-1.365
X44.306 Y-0.971
X44.41 Y-0.572
X44.481 Y-0.169
X44.52 Y0.235
X44.526 Y0.637
X44.499 Y1.036
X44.441 Y1.428
X44.353 Y1.812
X44.234 Y2.187
X44.086 Y2.55
X43.909 Y2.9
X43.705 Y3.235
X43.474 Y3.552
X43.218 Y3.851
X42.938 Y4.129
X42.635 Y4.385
X42.311 Y4.617
X41.967 Y4.824
X41.605 Y5.003
X41.229 Y5.154
X40.838 Y5.274
X40.438 Y5.364
X40.028 Y5.421
X39.613 Y5.445
X39.195 Y5.436
X38.777 Y5.393
X38.361 Y5.317
X37.95 Y5.206
X37.548 Y5.063
X37.157 Y4.886
X36.779 Y4.678
X36.418 Y4.44
X36.076 Y4.171
X35.755 Y3.876
X35.457 Y3.554
X35.186 Y3.208
X34.943 Y2.841
X34.729 Y2.454
X34.547 Y2.05
X34.397 Y1.632
X34.281 Y1.203
X34.2 Y0.765
X34.154 Y0.32
X34.144 Y-0.127
X34.169 Y-0.574
X34.231 Y-1.018
X34.328 Y-1.456
X34.461 Y-1.886
X34.627 Y-2.304
X34.827 Y-2.707
X35.058 Y-3.094
X35.32 Y-3.46
X35.611 Y-3.805
X35.928 Y-4.125
X36.27 Y-4.42
X36.635 Y-4.685
X37.021 Y-4.921
X37.424 Y-5.125
X37.842 Y-5.296
X38.273 Y-5.433
X38.713 Y-5.535
X39.16 Y-5.601
X39.611 Y-5.632
X40.063 Y-5.626
X40.514 Y-5.583
X40.959 Y-5.505
X41.398 Y-5.391
X41.828 Y-5.241
X42.248 Y-5.056
X42.658 Y-4.835
X43.053 Y-4.578
X43.434 Y-4.285
X43.797 Y-3.955
X44.138 Y-3.593
X44.452 Y-3.2
X44.734 Y-2.781
X44.983 Y-2.339
X45.195 Y-1.88
X45.369 Y-1.406
X45.504 Y-0.922
X45.599 Y-0.432
X45.654 Y0.062
X45.67 Y0.556
X45.645 Y1.047
X45.582 Y1.533
X45.48 Y2.01
X45.341 Y2.476
X45.165 Y2.928
X44.954 Y3.364
X44.708 Y3.783
X44.429 Y4.18
X44.118 Y4.554
X43.778 Y4.904
X43.41 Y5.225
X43.015 Y5.518
X42.597 Y5.778
X42.157 Y6.006
X41.698 Y6.198
X41.223 Y6.353
X40.734 Y6.471
X40.236 Y6.549
X39.73 Y6.587
X39.22 Y6.584
X38.71 Y6.541
X38.203 Y6.456
X37.702 Y6.33
X37.211 Y6.163
X36.733 Y5.957
X36.271 Y5.713
X35.828 Y5.431
X35.409 Y5.113
X35.014 Y4.761
X34.649 Y4.378
X34.314 Y3.966
X34.012 Y3.527
X33.747 Y3.064
X33.518 Y2.58
X33.329 Y2.078
X33.181 Y1.562
X33.074 Y1.035
X33.01 Y0.5
X32.989 Y-0.039
X33.011 Y-0.579
X33.077 Y-1.116
X33.185 Y-1.646
X33.336 Y-2.166
X33.528 Y-2.673
X33.761 Y-3.164
X34.032 Y-3.634
X34.341 Y-4.081
X34.684 Y-4.503
X35.06 Y-4.895
X35.467 Y-5.256
X35.902 Y-5.584
X36.361 Y-5.875
X36.843 Y-6.129
X37.344 Y-6.344
X37.86 Y-6.517
X38.388 Y-6.649
X38.926 Y-6.738
X39.469 Y-6.783
X40.014 Y-6.785
X40.558 Y-6.743
X41.097 Y-6.657
X41.63 Y-6.528
X42.154 Y-6.355
X42.666 Y-6.14
X43.164 Y-5.881
X43.645 Y-5.579
X44.107 Y-5.236
X44.545 Y-4.852
X44.954 Y-4.431
X45.33 Y-3.975
X45.67 Y-3.487
X45.971 Y-2.973
X46.23 Y-2.437
X46.444 Y-1.882
X46.613 Y-1.312
X46.735 Y-0.733
X46.811 Y-0.148
X46.838 Y0.44
X46.819 Y1.025
X46.753 Y1.606
X46.641 Y2.177
X46.484 Y2.737
X46.282 Y3.281
X46.038 Y3.807
X45.752 Y4.312
X45.427 Y4.793
X45.063 Y5.246
X44.664 Y5.67
X44.23 Y6.061
X43.766 Y6.417
X43.273 Y6.736
X42.754 Y7.015
X42.212 Y7.252
X41.651 Y7.446
X41.074 Y7.595
X40.484 Y7.697
X39.886 Y7.752
X39.283 Y7.759
X38.679 Y7.717
X38.077 Y7.627
X37.483 Y7.488
X36.9 Y7.301
X36.332 Y7.067
X35.783 Y6.787
X35.256 Y6.464
X34.755 Y6.097
X34.284 Y5.691
X33.846 Y5.247
X33.444 Y4.768
X33.081 Y4.258
X32.76 Y3.718
X32.482 Y3.154
X32.25 Y2.568
X32.065 Y1.964
X31.93 Y1.347
X31.844 Y0.719
X31.809 Y0.086
X31.825 Y-0.548
X31.891 Y-1.18
X32.008 Y-1.805
X32.176 Y-2.419
X32.392 Y-3.018
X32.655 Y-3.598
X32.965 Y-4.156
X33.318 Y-4.687
X33.713 Y-5.188
X34.148 Y-5.656
X34.618 Y-6.088
X35.122 Y-6.481
X35.656 Y-6.832
X36.217 Y-7.14
X36.8 Y-7.401
X37.403 Y-7.615
X38.021 Y-7.78
X38.651 Y-7.894
X39.287 Y-7.958
X39.928 Y-7.971
X40.568 Y-7.932
X41.204 Y-7.841
X41.834 Y-7.699
X42.453 Y-7.507
X43.06 Y-7.263
X43.649 Y-6.969
X44.218 Y-6.626
X44.761 Y-6.235
X45.276 Y-5.798
X45.757 Y-5.319
X46.201 Y-4.799
X46.603 Y-4.243
X46.96 Y-3.655
X47.27 Y-3.039
X47.529 Y-2.4
X47.735 Y-1.743
X47.888 Y-1.074
X47.987 Y-0.395
X48.03 Y0.287
X48.019 Y0.969
X47.953 Y1.646
X47.833 Y2.315
X47.661 Y2.97
X47.436 Y3.609
X47.161 Y4.228
X46.838 Y4.822
X46.467 Y5.389
X46.052 Y5.924
X45.595 Y6.426
X45.098 Y6.89
X44.564 Y7.313
X43.996 Y7.693
X43.398 Y8.027
X42.773 Y8.314
X42.126 Y8.549
X41.459 Y8.733
X40.777 Y8.863
X40.085 Y8.938
X39.387 Y8.957
X38.687 Y8.921
X37.99 Y8.827
X37.3 Y8.678
X36.623 Y8.473
X35.962 Y8.214
X35.322 Y7.901
X34.708 Y7.537
X34.123 Y7.124
X33.572 Y6.665
X33.058 Y6.161
X32.586 Y5.616
X32.158 Y5.034
X31.777 Y4.419
X31.446 Y3.774
X31.168 Y3.103
X30.944 Y2.411
X30.776 Y1.702
X30.665 Y0.982
X30.613 Y0.253
X30.619 Y-0.477
X30.683 Y-1.206
X30.807 Y-1.928
X30.987 Y-2.637
X31.225 Y-3.331
X31.517 Y-4.004
X31.863 Y-4.651
X32.259 Y-5.269
X32.705 Y-5.853
X33.196 Y-6.4
X33.729 Y-6.906
X34.301 Y-7.368
X34.909 Y-7.782
X35.548 Y-8.147
X36.215 Y-8.458
X36.904 Y-8.716
X37.612 Y-8.917
X38.334 Y-9.061
X39.066 Y-9.146
X39.802 Y-9.173
X40.539 Y-9.14
X41.271 Y-9.048
X41.994 Y-8.898
X42.702 Y-8.691
X43.391 Y-8.428
X44.058 Y-8.112
X44.698 Y-7.745
X45.307 Y-7.328
X45.882 Y-6.866
X46.42 Y-6.362
X46.918 Y-5.817
X47.374 Y-5.237
X47.784 Y-4.624
X48.147 Y-3.981
X48.461 Y-3.313
X48.723 Y-2.624
X48.933 Y-1.917
X49.09 Y-1.196
X49.191 Y-0.465
X49.236 Y0.272
X49.225 Y1.009
X49.157 Y1.744
X49.032 Y2.471
X48.853 Y3.187
X48.619 Y3.887
X48.332 Y4.567
X47.994 Y5.222
X47.607 Y5.851
X47.174 Y6.448
X46.696 Y7.01
X46.176 Y7.534
X45.619 Y8.017
X45.026 Y8.456
X44.401 Y8.849
X43.749 Y9.194
X43.073 Y9.489
X42.376 Y9.732
X41.664 Y9.923
X40.938 Y10.059
X40.205 Y10.139
X39.468 Y10.164
X38.73 Y10.134
X37.998 Y10.048
X37.273 Y9.909
X36.56 Y9.718
X35.864 Y9.474
X35.187 Y9.181
X34.533 Y8.839
X33.906 Y8.451
X33.308 Y8.019
X32.743 Y7.544
X32.216 Y7.028
X31.728 Y6.474
X31.282 Y5.887
X30.879 Y5.269
X30.521 Y4.623
X30.21 Y3.954
X29.948 Y3.264
X29.735 Y2.558
X29.573 Y1.838
X29.463 Y1.109
X29.408 Y0.373
X29.407 Y-0.365
X29.458 Y-1.101
X29.561 Y-1.831
X29.716 Y-2.553
X29.921 Y-3.262
X30.175 Y-3.954
X30.478 Y-4.627
X30.828 Y-5.277
X31.225 Y-5.898
X31.667 Y-6.49
X32.149 Y-7.048
X32.669 Y-7.571
X33.225 Y-8.056
X33.814 Y-8.501
X34.432 Y-8.904
X35.077 Y-9.262
X35.746 Y-9.573
X36.436 Y-9.833
X37.144 Y-10.043
X37.864 Y-10.203
X38.594 Y-10.311
X39.329 Y-10.368
X40.067 Y-10.374
X40.804 Y-10.328
X41.535 Y-10.23
X42.257 Y-10.079
X42.966 Y-9.876
X43.66 Y-9.624
X44.334 Y-9.324
X44.986 Y-8.978
X45.612 Y-8.589
X46.211 Y-8.158
X46.78 Y-7.687
X47.315 Y-7.18
X47.813 Y-6.635
X48.273 Y-6.058
X48.692 Y-5.451
X49.07 Y-4.817
X49.405 Y-4.16
X49.696 Y-3.482
X49.942 Y-2.786
X50.141 Y-2.076
X50.292 Y-1.354
X50.393 Y-0.623
X50.442 Y0.113
Y0.851
X50.391 Y1.587
X50.29 Y2.318
X50.141 Y3.041
X49.943 Y3.752
X49.699 Y4.448
X49.408 Y5.126
X49.07 Y5.781
X48.687 Y6.412
X48.262 Y7.015
X47.798 Y7.589
X47.296 Y8.129
X46.759 Y8.635
X46.189 Y9.105
X45.59 Y9.535
X44.963 Y9.924
X44.311 Y10.269
X43.636 Y10.568
X42.943 Y10.821
X42.235 Y11.028
X41.515 Y11.187
X40.785 Y11.297
X40.05 Y11.359
X39.312 Y11.373
X38.575 Y11.337
X37.842 Y11.252
X37.117 Y11.117
X36.402 Y10.934
X35.701 Y10.706
X35.015 Y10.432
X34.349 Y10.115
X33.704 Y9.756
X33.084 Y9.357
X32.49 Y8.919
X31.928 Y8.442
X31.399 Y7.928
X30.905 Y7.379
X30.448 Y6.8
X30.029 Y6.193
X29.649 Y5.56
X29.31 Y4.905
X29.013 Y4.229
X28.759 Y3.537
X28.55 Y2.829
X28.388 Y2.109
X28.274 Y1.38
X28.209 Y0.645
X28.19 Y-0.092
X28.219 Y-0.829
X28.294 Y-1.563
X28.415 Y-2.291
X28.581 Y-3.01
X28.792 Y-3.717
X29.048 Y-4.409
X29.349 Y-5.083
X29.693 Y-5.735
X30.079 Y-6.364
X30.504 Y-6.967
X30.967 Y-7.542
X31.465 Y-8.086
X31.996 Y-8.599
X32.557 Y-9.077
X33.148 Y-9.519
X33.766 Y-9.922
X34.409 Y-10.284
X35.075 Y-10.603
X35.759 Y-10.878
X36.46 Y-11.11
X37.173 Y-11.297
X37.897 Y-11.438
X38.629 Y-11.535
X39.365 Y-11.585
X40.103 Y-11.589
X40.839 Y-11.545
X41.571 Y-11.453
X42.296 Y-11.314
X43.01 Y-11.13
X43.712 Y-10.9
X44.397 Y-10.628
X45.065 Y-10.314
X45.712 Y-9.96
X46.337 Y-9.568
X46.936 Y-9.136
X47.506 Y-8.669
X48.046 Y-8.166
X48.554 Y-7.631
X49.029 Y-7.066
X49.468 Y-6.473
X49.871 Y-5.855
X50.237 Y-5.214
X50.564 Y-4.553
X50.851 Y-3.873
X51.096 Y-3.177
X51.298 Y-2.468
X51.456 Y-1.747
X51.569 Y-1.018
X51.638 Y-0.283
X51.661 Y0.454
X51.64 Y1.192
X51.574 Y1.927
X51.465 Y2.656
X51.312 Y3.378
X51.114 Y4.089
X50.873 Y4.786
X50.588 Y5.467
X50.262 Y6.129
X49.896 Y6.769
X49.492 Y7.387
X49.051 Y7.978
X48.576 Y8.542
X48.067 Y9.077
X47.528 Y9.581
X46.959 Y10.05
X46.361 Y10.483
X45.738 Y10.878
X45.092 Y11.235
X44.426 Y11.552
X43.742 Y11.828
X43.042 Y12.063
X42.33 Y12.255
X41.608 Y12.406
X40.878 Y12.513
X40.143 Y12.575
X39.405 Y12.592
X38.668 Y12.564
X37.934 Y12.491
X37.205 Y12.374
X36.485 Y12.215
X35.775 Y12.014
X35.078 Y11.771
X34.396 Y11.489
X33.732 Y11.169
X33.087 Y10.809
X32.466 Y10.412
X31.869 Y9.978
X31.299 Y9.509
X30.758 Y9.007
X30.248 Y8.474
X29.77 Y7.912
X29.325 Y7.324
X28.915 Y6.71
X28.54 Y6.075
X28.203 Y5.419
X27.905 Y4.744
X27.646 Y4.053
X27.429 Y3.348
X27.253 Y2.631
X27.12 Y1.905
X27.03 Y1.173
X26.982 Y0.437
X26.976 Y-0.301
X27.013 Y-1.038
X27.091 Y-1.772
X27.212 Y-2.499
X27.375 Y-3.219
X27.579 Y-3.928
X27.824 Y-4.624
X28.11 Y-5.304
X28.434 Y-5.967
X28.797 Y-6.609
X29.196 Y-7.23
X29.629 Y-7.827
X30.096 Y-8.399
X30.594 Y-8.943
X31.124 Y-9.456
X31.682 Y-9.938
X32.268 Y-10.388
X32.878 Y-10.802
X33.511 Y-11.181
X34.166 Y-11.522
X34.839 Y-11.824
X35.528 Y-12.088
X36.231 Y-12.312
X36.945 Y-12.496
X37.669 Y-12.638
X38.4 Y-12.738
X39.136 Y-12.796
X39.873 Y-12.811
X40.611 Y-12.783
X41.345 Y-12.713
X42.074 Y-12.6
X42.796 Y-12.447
X43.508 Y-12.252
X44.207 Y-12.018
X44.893 Y-11.745
X45.561 Y-11.432
X46.211 Y-11.083
X46.84 Y-10.697
X47.446 Y-10.277
X48.028 Y-9.823
X48.583 Y-9.337
X49.111 Y-8.821
X49.609 Y-8.277
X50.077 Y-7.706
X50.512 Y-7.111
X50.915 Y-6.493
X51.282 Y-5.853
X51.614 Y-5.194
X51.909 Y-4.517
X52.166 Y-3.826
X52.385 Y-3.121
X52.565 Y-2.406
X52.704 Y-1.681
X52.804 Y-0.95
X52.864 Y-0.215
X52.883 Y0.523
X52.861 Y1.26
X52.797 Y1.995
X52.693 Y2.726
X52.548 Y3.449
X52.364 Y4.164
X52.14 Y4.867
X51.877 Y5.556
X51.576 Y6.23
X51.238 Y6.886
X50.865 Y7.522
X50.458 Y8.137
X50.017 Y8.729
X49.543 Y9.294
X49.039 Y9.833
X48.506 Y10.343
X47.945 Y10.823
X47.359 Y11.271
X46.749 Y11.686
X46.117 Y12.067
X45.465 Y12.412
X44.795 Y12.722
X44.11 Y12.995
X43.41 Y13.229
X42.699 Y13.424
X41.978 Y13.58
X41.249 Y13.696
X40.515 Y13.772
X39.778 Y13.808
X39.04 Y13.803
X38.304 Y13.757
X37.571 Y13.672
X36.844 Y13.548
X36.124 Y13.385
X35.414 Y13.183
X34.717 Y12.943
X34.033 Y12.666
X33.365 Y12.353
X32.714 Y12.005
X32.084 Y11.622
X31.474 Y11.206
X30.889 Y10.757
X30.328 Y10.278
X29.793 Y9.769
X29.286 Y9.233
X28.809 Y8.67
X28.363 Y8.083
X27.949 Y7.472
X27.568 Y6.84
X27.22 Y6.189
X26.908 Y5.521
X26.631 Y4.837
X26.391 Y4.14
X26.188 Y3.43
X26.023 Y2.711
X25.896 Y1.984
X25.808 Y1.252
X25.759 Y0.515
X25.751 Y-0.222
X25.78 Y-0.96
X25.849 Y-1.694
X25.956 Y-2.424
X26.101 Y-3.148
X26.284 Y-3.862
X26.505 Y-4.566
X26.762 Y-5.258
X27.055 Y-5.935
X27.383 Y-6.596
X27.746 Y-7.238
X28.143 Y-7.86
X28.572 Y-8.46
X29.033 Y-9.037
X29.523 Y-9.589
X30.041 Y-10.114
X30.586 Y-10.611
X31.156 Y-11.08
X31.75 Y-11.517
X32.366 Y-11.923
X33.002 Y-12.297
X33.657 Y-12.636
X34.33 Y-12.939
X35.018 Y-13.206
X35.719 Y-13.437
X36.43 Y-13.631
X37.152 Y-13.787
X37.88 Y-13.905
X38.613 Y-13.984
X39.35 Y-14.026
X40.088 Y-14.029
X40.825 Y-13.993
X41.559 Y-13.919
X42.288 Y-13.807
X43.01 Y-13.655
X43.723 Y-13.465
X44.426 Y-13.239
X45.115 Y-12.977
X45.79 Y-12.68
X46.449 Y-12.348
X47.09 Y-11.982
X47.712 Y-11.585
X48.312 Y-11.156
X48.89 Y-10.697
X49.444 Y-10.21
X49.972 Y-9.694
X50.472 Y-9.152
X50.944 Y-8.585
X51.388 Y-7.995
X51.8 Y-7.384
X52.182 Y-6.752
X52.531 Y-6.102
X52.848 Y-5.436
X53.13 Y-4.754
X53.379 Y-4.06
X53.592 Y-3.353
X53.769 Y-2.637
X53.909 Y-1.913
X54.012 Y-1.182
X54.077 Y-0.447
X54.105 Y0.29
X54.096 Y1.028
X54.049 Y1.764
X53.965 Y2.497
X53.845 Y3.225
X53.687 Y3.946
X53.494 Y4.658
X53.264 Y5.359
X53. Y6.048
X52.7 Y6.722
X52.365 Y7.38
X51.997 Y8.019
X51.598 Y8.64
X51.168 Y9.239
X50.708 Y9.816
X50.219 Y10.369
X49.703 Y10.896
X49.162 Y11.397
X48.595 Y11.87
X48.006 Y12.314
X47.395 Y12.728
X46.764 Y13.11
X46.114 Y13.459
X45.447 Y13.774
X44.765 Y14.056
X44.07 Y14.303
X43.363 Y14.515
X42.647 Y14.692
X41.922 Y14.832
X41.192 Y14.936
X40.457 Y15.004
X39.72 Y15.034
X38.982 Y15.028
X38.246 Y14.984
X37.513 Y14.903
X36.784 Y14.785
X36.062 Y14.631
X35.349 Y14.442
X34.646 Y14.219
X33.955 Y13.96
X33.277 Y13.669
X32.614 Y13.345
X31.968 Y12.989
X31.34 Y12.601
X30.732 Y12.183
X30.146 Y11.735
X29.583 Y11.258
X29.045 Y10.754
X28.531 Y10.224
X28.045 Y9.669
X27.586 Y9.092
X27.156 Y8.492
X26.755 Y7.873
X26.385 Y7.234
X26.046 Y6.579
X25.739 Y5.908
X25.465 Y5.223
X25.225 Y4.525
X25.02 Y3.817
X24.85 Y3.099
X24.716 Y2.373
X24.617 Y1.642
X24.553 Y0.907
X24.526 Y0.17
X24.534 Y-0.568
X24.578 Y-1.305
X24.657 Y-2.038
X24.772 Y-2.767
X24.921 Y-3.49
X25.105 Y-4.204
X25.324 Y-4.909
X25.577 Y-5.602
X25.864 Y-6.281
X26.184 Y-6.946
X26.535 Y-7.595
X26.918 Y-8.226
X27.331 Y-8.837
X27.773 Y-9.428
X28.242 Y-9.998
X28.738 Y-10.544
X29.26 Y-11.065
X29.806 Y-11.561
X30.376 Y-12.03
X30.969 Y-12.469
X31.582 Y-12.88
X32.214 Y-13.26
X32.864 Y-13.61
X33.53 Y-13.927
X34.211 Y-14.212
X34.904 Y-14.463
X35.609 Y-14.681
X36.324 Y-14.865
X37.046 Y-15.014
X37.775 Y-15.129
X38.509 Y-15.209
X39.245 Y-15.252
X39.983 Y-15.259
X40.72 Y-15.23
X41.455 Y-15.166
X42.186 Y-15.067
X42.912 Y-14.932
X43.63 Y-14.762
X44.339 Y-14.559
X45.038 Y-14.322
X45.724 Y-14.052
X46.398 Y-13.75
X47.056 Y-13.417
X47.697 Y-13.052
X48.32 Y-12.657
X48.924 Y-12.232
X49.507 Y-11.78
X50.068 Y-11.301
X50.606 Y-10.796
X51.119 Y-10.266
X51.607 Y-9.712
X52.069 Y-9.137
X52.504 Y-8.541
X52.91 Y-7.925
X53.288 Y-7.292
X53.637 Y-6.641
X53.954 Y-5.975
X54.239 Y-5.295
X54.493 Y-4.602
X54.714 Y-3.898
X54.902 Y-3.185
X55.056 Y-2.463
X55.177 Y-1.735
X55.263 Y-1.002
X55.315 Y-0.267
X55.333 Y0.471
X55.317 Y1.209
X55.267 Y1.945
X55.182 Y2.678
X55.062 Y3.406
X54.908 Y4.127
X54.72 Y4.841
X54.499 Y5.545
X54.246 Y6.238
X53.959 Y6.918
X53.642 Y7.584
X53.293 Y8.234
X52.915 Y8.867
X52.507 Y9.482
X52.072 Y10.078
X51.609 Y10.653
X51.12 Y11.205
X50.606 Y11.734
X50.067 Y12.238
X49.505 Y12.716
X48.921 Y13.167
X48.317 Y13.591
X47.694 Y13.986
X47.053 Y14.351
X46.396 Y14.687
X45.724 Y14.992
X45.038 Y15.265
X44.341 Y15.507
X43.634 Y15.716
X42.917 Y15.892
X42.193 Y16.034
X41.463 Y16.142
X40.729 Y16.216
X39.993 Y16.256
X39.255 Y16.262
X38.518 Y16.233
X37.782 Y16.171
X37.051 Y16.075
X36.324 Y15.946
X35.605 Y15.784
X34.893 Y15.589
X34.191 Y15.362
X33.5 Y15.104
X32.821 Y14.814
X32.157 Y14.493
X31.508 Y14.142
X30.875 Y13.762
X30.261 Y13.354
X29.666 Y12.918
X29.091 Y12.455
X28.538 Y11.967
X28.008 Y11.454
X27.501 Y10.917
X27.02 Y10.358
X26.563 Y9.778
X26.134 Y9.179
X25.732 Y8.56
X25.359 Y7.923
X25.015 Y7.27
X24.701 Y6.603
X24.417 Y5.922
X24.164 Y5.229
X23.942 Y4.525
X23.753 Y3.812
X23.596 Y3.091
X23.471 Y2.364
X23.38 Y1.632
X23.321 Y0.896
X23.295 Y0.159
