(1001)
(T1  D=3.175 CR=0. - ZMIN=21.501 - FLAT END MILL)
G0 G90 G94 G17
G21
G53 G0 Z0.

(ADAPTIVE1)
M5
M9
T1
S16500 M3
G4 P4.
G55
G0 X363.482 Y1859.438
Z56.
Z46.
Z43.5
G3 X360.916 Y1861.024 Z43.335 I-1.283 J0.793 F1016.
X363.482 Y1859.438 Z43.169 I1.283 J-0.793
X360.916 Y1861.024 Z43.004 I-1.283 J0.793
X363.482 Y1859.438 Z42.838 I1.283 J-0.793
X360.916 Y1861.024 Z42.673 I-1.283 J0.793
X363.482 Y1859.438 Z42.507 I1.283 J-0.793
X360.916 Y1861.024 Z42.342 I-1.283 J0.793
X363.482 Y1859.438 Z42.176 I1.283 J-0.793
X360.916 Y1861.024 Z42.011 I-1.283 J0.793
X363.482 Y1859.438 Z41.845 I1.283 J-0.793
X360.916 Y1861.024 Z41.68 I-1.283 J0.793
X363.482 Y1859.438 Z41.515 I1.283 J-0.793
X360.916 Y1861.024 Z41.349 I-1.283 J0.793
X363.482 Y1859.438 Z41.184 I1.283 J-0.793
X360.916 Y1861.024 Z41.018 I-1.283 J0.793
X363.482 Y1859.438 Z40.853 I1.283 J-0.793
X360.916 Y1861.024 Z40.687 I-1.283 J0.793
X363.482 Y1859.438 Z40.522 I1.283 J-0.793
X360.916 Y1861.024 Z40.356 I-1.283 J0.793
X363.482 Y1859.438 Z40.191 I1.283 J-0.793
X360.916 Y1861.024 Z40.026 I-1.283 J0.793
X363.482 Y1859.438 Z39.86 I1.283 J-0.793
X360.916 Y1861.024 Z39.695 I-1.283 J0.793
X363.482 Y1859.438 Z39.529 I1.283 J-0.793
X363.707 Y1860.231 Z39.5 I-1.283 J0.793
X360.691 I-1.508 J0.
X363.707 I1.508 J0.
G1 X363.727 Y1860.969
X363.748 Y1861.058
X363.764 Y1861.208
X363.751 Y1861.357
X363.716 Y1861.503
X363.661 Y1861.642
X363.589 Y1861.774
X363.503 Y1861.897
X363.405 Y1862.011
X363.297 Y1862.114
X363.179 Y1862.207
X363.053 Y1862.289
X362.921 Y1862.36
X362.783 Y1862.421
X362.636 Y1862.471
X362.482 Y1862.51
X362.322 Y1862.538
X362.157 Y1862.553
X361.988 Y1862.554
X361.817 Y1862.542
X361.645 Y1862.516
X361.474 Y1862.475
X361.305 Y1862.421
X361.138 Y1862.352
X360.977 Y1862.269
X360.821 Y1862.173
X360.672 Y1862.064
X360.532 Y1861.943
X360.401 Y1861.809
X360.281 Y1861.666
X360.172 Y1861.512
X360.076 Y1861.35
X359.992 Y1861.179
X359.923 Y1861.002
X359.867 Y1860.82
X359.827 Y1860.633
X359.801 Y1860.444
X359.791 Y1860.252
X359.796 Y1860.06
X359.817 Y1859.869
X359.852 Y1859.68
X359.903 Y1859.494
X359.969 Y1859.313
X360.049 Y1859.138
X360.143 Y1858.969
X360.251 Y1858.808
X360.371 Y1858.657
X360.503 Y1858.515
X360.645 Y1858.385
X360.798 Y1858.266
X360.96 Y1858.16
X361.13 Y1858.067
X361.307 Y1857.988
X361.49 Y1857.924
X361.677 Y1857.874
X361.868 Y1857.84
X362.061 Y1857.821
X362.254 Y1857.817
X362.448 Y1857.83
X362.64 Y1857.857
X362.829 Y1857.9
X363.014 Y1857.958
X363.194 Y1858.031
X363.367 Y1858.118
X363.533 Y1858.218
X363.69 Y1858.332
X363.838 Y1858.457
X363.975 Y1858.595
X364.1 Y1858.742
X364.214 Y1858.9
X364.318 Y1859.072
X364.429 Y1859.295
X364.576 Y1859.659
X364.684 Y1860.002
X364.747 Y1860.285
X364.784 Y1860.541
X364.799 Y1860.778
X364.795 Y1861.001
X364.773 Y1861.214
X364.736 Y1861.421
X364.682 Y1861.623
X364.613 Y1861.82
X364.528 Y1862.011
X364.427 Y1862.194
X364.313 Y1862.369
X364.183 Y1862.535
X364.039 Y1862.693
X363.881 Y1862.839
X363.709 Y1862.975
X363.525 Y1863.098
X363.328 Y1863.207
X363.121 Y1863.302
X362.903 Y1863.381
X362.676 Y1863.443
X362.442 Y1863.487
X362.202 Y1863.513
X361.958 Y1863.519
X361.712 Y1863.505
X361.465 Y1863.472
X361.219 Y1863.418
X360.976 Y1863.344
X360.739 Y1863.25
X360.508 Y1863.137
X360.285 Y1863.005
X360.072 Y1862.854
X359.871 Y1862.685
X359.683 Y1862.5
X359.51 Y1862.3
X359.353 Y1862.086
X359.213 Y1861.858
X359.091 Y1861.62
X358.989 Y1861.371
X358.906 Y1861.115
X358.844 Y1860.852
X358.804 Y1860.584
X358.785 Y1860.313
X358.788 Y1860.041
X358.812 Y1859.77
X358.859 Y1859.502
X358.926 Y1859.237
X359.015 Y1858.979
X359.125 Y1858.728
X359.254 Y1858.487
X359.403 Y1858.257
X359.569 Y1858.039
X359.753 Y1857.835
X359.952 Y1857.647
X360.166 Y1857.475
X360.393 Y1857.321
X360.632 Y1857.185
X360.881 Y1857.069
X361.139 Y1856.973
X361.404 Y1856.899
X361.673 Y1856.845
X361.947 Y1856.814
X362.221 Y1856.805
X362.496 Y1856.818
X362.769 Y1856.852
X363.038 Y1856.909
X363.302 Y1856.987
X363.559 Y1857.086
X363.807 Y1857.205
X364.045 Y1857.344
X364.27 Y1857.501
X364.484 Y1857.677
X364.69 Y1857.877
X364.905 Y1858.12
X365.106 Y1858.391
X365.293 Y1858.688
X365.457 Y1859.004
X365.595 Y1859.33
X365.703 Y1859.656
X365.782 Y1859.98
X365.833 Y1860.3
X365.858 Y1860.616
X365.857 Y1860.929
X365.832 Y1861.236
X365.782 Y1861.537
X365.709 Y1861.831
X365.614 Y1862.117
X365.496 Y1862.393
X365.356 Y1862.658
X365.195 Y1862.912
X365.014 Y1863.153
X364.814 Y1863.379
X364.594 Y1863.59
X364.357 Y1863.784
X364.103 Y1863.96
X363.833 Y1864.115
X363.55 Y1864.25
X363.254 Y1864.363
X362.947 Y1864.453
X362.631 Y1864.517
X362.308 Y1864.557
X361.981 Y1864.571
X361.652 Y1864.558
X361.322 Y1864.519
X360.994 Y1864.453
X360.67 Y1864.36
X360.353 Y1864.241
X360.045 Y1864.096
X359.747 Y1863.926
X359.463 Y1863.731
X359.194 Y1863.513
X358.942 Y1863.274
X358.71 Y1863.013
X358.498 Y1862.734
X358.309 Y1862.438
X358.143 Y1862.126
X358.003 Y1861.801
X357.889 Y1861.465
X357.801 Y1861.12
X357.742 Y1860.769
X357.711 Y1860.413
X357.709 Y1860.056
X357.736 Y1859.699
X357.791 Y1859.344
X357.874 Y1858.995
X357.986 Y1858.653
X358.124 Y1858.321
X358.289 Y1858.001
X358.48 Y1857.695
X358.694 Y1857.406
X358.931 Y1857.134
X359.189 Y1856.882
X359.467 Y1856.651
X359.762 Y1856.443
X360.073 Y1856.26
X360.398 Y1856.102
X360.735 Y1855.97
X361.081 Y1855.867
X361.435 Y1855.791
X361.793 Y1855.744
X362.154 Y1855.725
X362.516 Y1855.736
X362.875 Y1855.776
X363.231 Y1855.844
X363.579 Y1855.941
X363.919 Y1856.066
X364.248 Y1856.217
X364.566 Y1856.396
X364.879 Y1856.606
X365.182 Y1856.848
X365.474 Y1857.122
X365.751 Y1857.426
X366.006 Y1857.757
X366.237 Y1858.111
X366.438 Y1858.482
X366.607 Y1858.866
X366.745 Y1859.26
X366.849 Y1859.66
X366.921 Y1860.063
X366.959 Y1860.466
X366.965 Y1860.869
X366.938 Y1861.267
X366.881 Y1861.659
X366.792 Y1862.044
X366.673 Y1862.418
X366.525 Y1862.782
X366.349 Y1863.131
X366.144 Y1863.466
X365.914 Y1863.783
X365.658 Y1864.082
X365.377 Y1864.361
X365.074 Y1864.617
X364.75 Y1864.849
X364.406 Y1865.055
X364.045 Y1865.234
X363.668 Y1865.385
X363.278 Y1865.505
X362.877 Y1865.595
X362.467 Y1865.652
X362.052 Y1865.677
X361.634 Y1865.668
X361.216 Y1865.625
X360.8 Y1865.548
X360.39 Y1865.438
X359.987 Y1865.294
X359.596 Y1865.118
X359.218 Y1864.91
X358.857 Y1864.671
X358.515 Y1864.403
X358.194 Y1864.107
X357.897 Y1863.785
X357.625 Y1863.44
X357.382 Y1863.072
X357.168 Y1862.685
X356.986 Y1862.282
X356.836 Y1861.864
X356.72 Y1861.434
X356.639 Y1860.996
X356.593 Y1860.552
X356.583 Y1860.104
X356.609 Y1859.657
X356.67 Y1859.213
X356.768 Y1858.775
X356.9 Y1858.345
X357.066 Y1857.928
X357.266 Y1857.524
X357.497 Y1857.138
X357.759 Y1856.771
X358.05 Y1856.426
X358.367 Y1856.106
X358.71 Y1855.812
X359.075 Y1855.546
X359.46 Y1855.31
X359.863 Y1855.106
X360.281 Y1854.935
X360.712 Y1854.798
X361.152 Y1854.696
X361.599 Y1854.63
X362.051 Y1854.6
X362.503 Y1854.606
X362.953 Y1854.648
X363.399 Y1854.726
X363.837 Y1854.84
X364.267 Y1854.99
X364.688 Y1855.175
X365.097 Y1855.396
X365.493 Y1855.653
X365.874 Y1855.947
X366.237 Y1856.276
X366.577 Y1856.639
X366.891 Y1857.031
X367.173 Y1857.451
X367.422 Y1857.892
X367.634 Y1858.351
X367.808 Y1858.825
X367.943 Y1859.309
X368.038 Y1859.8
X368.094 Y1860.293
X368.109 Y1860.787
X368.084 Y1861.279
X368.021 Y1861.764
X367.919 Y1862.241
X367.78 Y1862.707
X367.604 Y1863.159
X367.393 Y1863.596
X367.147 Y1864.014
X366.868 Y1864.411
X366.558 Y1864.786
X366.217 Y1865.135
X365.849 Y1865.457
X365.454 Y1865.749
X365.036 Y1866.01
X364.596 Y1866.237
X364.137 Y1866.429
X363.662 Y1866.585
X363.174 Y1866.702
X362.675 Y1866.78
X362.169 Y1866.818
X361.66 Y1866.816
X361.15 Y1866.772
X360.642 Y1866.687
X360.141 Y1866.561
X359.65 Y1866.395
X359.172 Y1866.189
X358.71 Y1865.944
X358.268 Y1865.662
X357.848 Y1865.344
X357.454 Y1864.993
X357.088 Y1864.609
X356.753 Y1864.197
X356.452 Y1863.758
X356.186 Y1863.295
X355.958 Y1862.811
X355.768 Y1862.31
X355.62 Y1861.793
X355.513 Y1861.266
X355.449 Y1860.731
X355.428 Y1860.192
X355.45 Y1859.652
X355.516 Y1859.116
X355.624 Y1858.585
X355.775 Y1858.065
X355.968 Y1857.558
X356.2 Y1857.068
X356.471 Y1856.597
X356.78 Y1856.15
X357.123 Y1855.729
X357.5 Y1855.336
X357.906 Y1854.975
X358.341 Y1854.648
X358.801 Y1854.356
X359.282 Y1854.102
X359.783 Y1853.888
X360.299 Y1853.714
X360.828 Y1853.582
X361.365 Y1853.493
X361.908 Y1853.448
X362.453 Y1853.446
X362.997 Y1853.488
X363.536 Y1853.574
X364.069 Y1853.703
X364.593 Y1853.876
X365.105 Y1854.092
X365.603 Y1854.35
X366.085 Y1854.652
X366.546 Y1854.995
X366.984 Y1855.379
X367.393 Y1855.801
X367.769 Y1856.257
X368.11 Y1856.744
X368.41 Y1857.258
X368.669 Y1857.795
X368.884 Y1858.35
X369.052 Y1858.919
X369.175 Y1859.498
X369.25 Y1860.084
X369.278 Y1860.671
X369.258 Y1861.257
X369.192 Y1861.837
X369.08 Y1862.409
X368.923 Y1862.968
X368.721 Y1863.513
X368.477 Y1864.039
X368.191 Y1864.543
X367.866 Y1865.024
X367.502 Y1865.477
X367.103 Y1865.901
X366.67 Y1866.292
X366.205 Y1866.648
X365.712 Y1866.967
X365.193 Y1867.246
X364.651 Y1867.483
X364.09 Y1867.677
X363.513 Y1867.826
X362.923 Y1867.928
X362.325 Y1867.983
X361.722 Y1867.99
X361.118 Y1867.948
X360.517 Y1867.858
X359.923 Y1867.719
X359.339 Y1867.532
X358.771 Y1867.298
X358.222 Y1867.019
X357.695 Y1866.695
X357.194 Y1866.329
X356.723 Y1865.922
X356.285 Y1865.479
X355.883 Y1865.
X355.52 Y1864.489
X355.199 Y1863.95
X354.921 Y1863.385
X354.689 Y1862.799
X354.505 Y1862.196
X354.369 Y1861.578
X354.283 Y1860.951
X354.248 Y1860.318
X354.264 Y1859.683
X354.33 Y1859.052
X354.448 Y1858.427
X354.615 Y1857.813
X354.831 Y1857.214
X355.095 Y1856.633
X355.404 Y1856.076
X355.758 Y1855.545
X356.153 Y1855.043
X356.587 Y1854.575
X357.057 Y1854.143
X357.561 Y1853.75
X358.095 Y1853.399
X358.656 Y1853.092
X359.24 Y1852.83
X359.842 Y1852.616
X360.46 Y1852.452
X361.09 Y1852.337
X361.727 Y1852.273
X362.367 Y1852.261
X363.007 Y1852.3
X363.643 Y1852.39
X364.273 Y1852.532
X364.892 Y1852.725
X365.499 Y1852.968
X366.088 Y1853.262
X366.657 Y1853.605
X367.201 Y1853.996
X367.715 Y1854.433
X368.196 Y1854.913
X368.64 Y1855.432
X369.042 Y1855.989
X369.4 Y1856.577
X369.709 Y1857.193
X369.968 Y1857.831
X370.174 Y1858.488
X370.327 Y1859.158
X370.426 Y1859.836
X370.469 Y1860.519
X370.458 Y1861.201
X370.392 Y1861.878
X370.273 Y1862.546
X370.1 Y1863.202
X369.875 Y1863.841
X369.601 Y1864.459
X369.277 Y1865.053
X368.907 Y1865.62
X368.491 Y1866.156
X368.034 Y1866.657
X367.537 Y1867.121
X367.003 Y1867.544
X366.435 Y1867.924
X365.837 Y1868.259
X365.213 Y1868.545
X364.565 Y1868.781
X363.898 Y1868.964
X363.217 Y1869.094
X362.524 Y1869.169
X361.826 Y1869.189
X361.126 Y1869.152
X360.429 Y1869.059
X359.74 Y1868.909
X359.062 Y1868.704
X358.401 Y1868.445
X357.762 Y1868.133
X357.147 Y1867.769
X356.562 Y1867.356
X356.011 Y1866.896
X355.498 Y1866.392
X355.025 Y1865.848
X354.597 Y1865.266
X354.216 Y1864.65
X353.885 Y1864.005
X353.607 Y1863.334
X353.383 Y1862.642
X353.215 Y1861.934
X353.104 Y1861.213
X353.052 Y1860.485
X353.058 Y1859.754
X353.123 Y1859.025
X353.246 Y1858.304
X353.427 Y1857.594
X353.664 Y1856.9
X353.956 Y1856.228
X354.302 Y1855.58
X354.699 Y1854.962
X355.144 Y1854.378
X355.635 Y1853.831
X356.168 Y1853.325
X356.74 Y1852.863
X357.348 Y1852.449
X357.987 Y1852.085
X358.654 Y1851.773
X359.343 Y1851.516
X360.051 Y1851.314
X360.773 Y1851.17
X361.505 Y1851.085
X362.241 Y1851.058
X362.979 Y1851.091
X363.711 Y1851.183
X364.433 Y1851.333
X365.141 Y1851.54
X365.831 Y1851.803
X366.497 Y1852.119
X367.137 Y1852.487
X367.746 Y1852.903
X368.321 Y1853.365
X368.86 Y1853.87
X369.358 Y1854.414
X369.813 Y1854.995
X370.223 Y1855.608
X370.586 Y1856.25
X370.9 Y1856.918
X371.163 Y1857.607
X371.373 Y1858.315
X371.529 Y1859.036
X371.63 Y1859.767
X371.675 Y1860.503
X371.664 Y1861.241
X371.596 Y1861.975
X371.472 Y1862.703
X371.292 Y1863.418
X371.058 Y1864.118
X370.771 Y1864.798
X370.434 Y1865.454
X370.047 Y1866.082
X369.613 Y1866.679
X369.135 Y1867.241
X368.616 Y1867.765
X368.058 Y1868.248
X367.465 Y1868.687
X366.841 Y1869.08
X366.188 Y1869.425
X365.512 Y1869.72
X364.816 Y1869.963
X364.103 Y1870.154
X363.378 Y1870.29
X362.644 Y1870.371
X361.907 Y1870.396
X361.17 Y1870.365
X360.437 Y1870.28
X359.712 Y1870.141
X359. Y1869.949
X358.303 Y1869.706
X357.626 Y1869.412
X356.972 Y1869.07
X356.345 Y1868.682
X355.747 Y1868.25
X355.182 Y1867.775
X354.655 Y1867.259
X354.167 Y1866.705
X353.721 Y1866.118
X353.318 Y1865.5
X352.96 Y1864.854
X352.649 Y1864.185
X352.387 Y1863.496
X352.174 Y1862.789
X352.012 Y1862.07
X351.902 Y1861.34
X351.847 Y1860.604
X351.846 Y1859.866
X351.897 Y1859.13
X352. Y1858.4
X352.155 Y1857.678
X352.36 Y1856.97
X352.615 Y1856.277
X352.917 Y1855.604
X353.267 Y1854.955
X353.665 Y1854.333
X354.106 Y1853.742
X354.588 Y1853.183
X355.108 Y1852.66
X355.664 Y1852.175
X356.253 Y1851.73
X356.871 Y1851.327
X357.516 Y1850.969
X358.185 Y1850.658
X358.876 Y1850.398
X359.583 Y1850.188
X360.303 Y1850.028
X361.033 Y1849.92
X361.769 Y1849.863
X362.506 Y1849.858
X363.243 Y1849.904
X363.974 Y1850.001
X364.696 Y1850.152
X365.406 Y1850.355
X366.099 Y1850.608
X366.773 Y1850.908
X367.425 Y1851.253
X368.052 Y1851.643
X368.65 Y1852.074
X369.219 Y1852.544
X369.754 Y1853.052
X370.252 Y1853.596
X370.712 Y1854.173
X371.131 Y1854.78
X371.509 Y1855.414
X371.845 Y1856.071
X372.136 Y1856.749
X372.381 Y1857.445
X372.58 Y1858.155
X372.732 Y1858.877
X372.832 Y1859.608
X372.882 Y1860.345
X372.881 Y1861.082
X372.83 Y1861.818
X372.729 Y1862.549
X372.58 Y1863.272
X372.383 Y1863.983
X372.138 Y1864.679
X371.847 Y1865.357
X371.509 Y1866.013
X371.126 Y1866.644
X370.701 Y1867.247
X370.237 Y1867.82
X369.735 Y1868.361
X369.198 Y1868.867
X368.628 Y1869.336
X368.029 Y1869.766
X367.402 Y1870.155
X366.75 Y1870.5
X366.076 Y1870.799
X365.383 Y1871.052
X364.674 Y1871.259
X363.954 Y1871.418
X363.224 Y1871.529
X362.489 Y1871.591
X361.751 Y1871.604
X361.014 Y1871.569
X360.282 Y1871.483
X359.556 Y1871.348
X358.841 Y1871.166
X358.14 Y1870.937
X357.455 Y1870.664
X356.788 Y1870.347
X356.144 Y1869.988
X355.523 Y1869.589
X354.93 Y1869.15
X354.367 Y1868.673
X353.838 Y1868.159
X353.344 Y1867.611
X352.887 Y1867.031
X352.468 Y1866.424
X352.088 Y1865.792
X351.749 Y1865.136
X351.452 Y1864.461
X351.198 Y1863.768
X350.989 Y1863.061
X350.827 Y1862.341
X350.714 Y1861.612
X350.648 Y1860.877
X350.63 Y1860.139
X350.658 Y1859.402
X350.733 Y1858.668
X350.854 Y1857.94
X351.021 Y1857.221
X351.231 Y1856.514
X351.487 Y1855.822
X351.788 Y1855.148
X352.132 Y1854.496
X352.518 Y1853.867
X352.944 Y1853.264
X353.406 Y1852.689
X353.904 Y1852.145
X354.435 Y1851.632
X354.997 Y1851.154
X355.587 Y1850.712
X356.205 Y1850.309
X356.848 Y1849.948
X357.514 Y1849.628
X358.198 Y1849.353
X358.899 Y1849.121
X359.613 Y1848.935
X360.337 Y1848.793
X361.068 Y1848.697
X361.804 Y1848.646
X362.542 Y1848.642
X363.279 Y1848.686
X364.011 Y1848.778
X364.735 Y1848.917
X365.45 Y1849.102
X366.151 Y1849.331
X366.837 Y1849.603
X367.504 Y1849.917
X368.152 Y1850.271
X368.776 Y1850.664
X369.375 Y1851.095
X369.945 Y1851.563
X370.486 Y1852.065
X370.994 Y1852.6
X371.468 Y1853.166
X371.907 Y1853.758
X372.31 Y1854.376
X372.676 Y1855.017
X373.003 Y1855.679
X373.29 Y1856.358
X373.536 Y1857.054
X373.738 Y1857.764
X373.895 Y1858.484
X374.009 Y1859.213
X374.077 Y1859.948
X374.1 Y1860.686
X374.079 Y1861.423
X374.014 Y1862.158
X373.904 Y1862.888
X373.751 Y1863.609
X373.553 Y1864.32
X373.312 Y1865.017
X373.027 Y1865.698
X372.701 Y1866.36
X372.335 Y1867.001
X371.931 Y1867.618
X371.49 Y1868.209
X371.015 Y1868.774
X370.507 Y1869.308
X369.967 Y1869.812
X369.398 Y1870.281
X368.8 Y1870.714
X368.178 Y1871.11
X367.532 Y1871.466
X366.865 Y1871.783
X366.181 Y1872.059
X365.482 Y1872.294
X364.769 Y1872.487
X364.047 Y1872.637
X363.317 Y1872.744
X362.582 Y1872.806
X361.844 Y1872.823
X361.107 Y1872.795
X360.373 Y1872.722
X359.644 Y1872.606
X358.924 Y1872.446
X358.214 Y1872.245
X357.517 Y1872.003
X356.835 Y1871.721
X356.171 Y1871.4
X355.526 Y1871.041
X354.905 Y1870.643
X354.308 Y1870.209
X353.738 Y1869.741
X353.198 Y1869.239
X352.688 Y1868.705
X352.209 Y1868.144
X351.765 Y1867.555
X351.354 Y1866.942
X350.98 Y1866.306
X350.642 Y1865.65
X350.344 Y1864.975
X350.085 Y1864.284
X349.868 Y1863.579
X349.693 Y1862.862
X349.56 Y1862.137
X349.469 Y1861.404
X349.421 Y1860.668
X349.416 Y1859.93
X349.452 Y1859.193
X349.53 Y1858.46
X349.651 Y1857.732
X349.814 Y1857.012
X350.018 Y1856.303
X350.264 Y1855.607
X350.549 Y1854.927
X350.874 Y1854.265
X351.236 Y1853.622
X351.635 Y1853.001
X352.068 Y1852.404
X352.535 Y1851.833
X353.034 Y1851.289
X353.563 Y1850.775
X354.122 Y1850.293
X354.707 Y1849.844
X355.317 Y1849.429
X355.951 Y1849.051
X356.605 Y1848.71
X357.278 Y1848.407
X357.967 Y1848.143
X358.67 Y1847.919
X359.384 Y1847.735
X360.108 Y1847.593
X360.839 Y1847.493
X361.575 Y1847.436
X362.313 Y1847.421
X363.05 Y1847.448
X363.784 Y1847.519
X364.514 Y1847.631
X365.235 Y1847.785
X365.947 Y1847.979
X366.647 Y1848.213
X367.332 Y1848.486
X368. Y1848.799
X368.65 Y1849.149
X369.279 Y1849.534
X369.885 Y1849.955
X370.467 Y1850.409
X371.022 Y1850.894
X371.55 Y1851.41
X372.048 Y1851.954
X372.516 Y1852.525
X372.952 Y1853.12
X373.354 Y1853.739
X373.721 Y1854.379
X374.053 Y1855.038
X374.348 Y1855.714
X374.605 Y1856.405
X374.824 Y1857.11
X375.004 Y1857.826
X375.144 Y1858.55
X375.243 Y1859.281
X375.303 Y1860.017
X375.322 Y1860.754
X375.3 Y1861.492
X375.236 Y1862.227
X375.132 Y1862.957
X374.988 Y1863.681
X374.803 Y1864.395
X374.579 Y1865.098
X374.316 Y1865.787
X374.015 Y1866.461
X373.677 Y1867.117
X373.304 Y1867.754
X372.897 Y1868.369
X372.456 Y1868.96
X371.982 Y1869.526
X371.478 Y1870.064
X370.945 Y1870.575
X370.384 Y1871.054
X369.798 Y1871.502
X369.188 Y1871.917
X368.556 Y1872.298
X367.904 Y1872.644
X367.234 Y1872.953
X366.549 Y1873.226
X365.849 Y1873.461
X365.138 Y1873.656
X364.417 Y1873.812
X363.688 Y1873.928
X362.954 Y1874.003
X362.217 Y1874.039
X361.479 Y1874.034
X360.743 Y1873.989
X360.01 Y1873.904
X359.283 Y1873.779
X358.563 Y1873.616
X357.853 Y1873.415
X357.156 Y1873.175
X356.472 Y1872.898
X355.804 Y1872.584
X355.154 Y1872.236
X354.523 Y1871.853
X353.914 Y1871.437
X353.328 Y1870.989
X352.767 Y1870.509
X352.232 Y1870.001
X351.726 Y1869.464
X351.248 Y1868.902
X350.802 Y1868.314
X350.388 Y1867.703
X350.007 Y1867.072
X349.66 Y1866.421
X349.347 Y1865.752
X349.07 Y1865.068
X348.83 Y1864.371
X348.627 Y1863.661
X348.462 Y1862.942
X348.335 Y1862.215
X348.247 Y1861.483
X348.199 Y1860.747
X348.19 Y1860.009
X348.22 Y1859.272
X348.288 Y1858.537
X348.395 Y1857.807
X348.541 Y1857.084
X348.724 Y1856.369
X348.944 Y1855.665
X349.201 Y1854.973
X349.494 Y1854.296
X349.822 Y1853.635
X350.185 Y1852.993
X350.582 Y1852.371
X351.012 Y1851.771
X351.472 Y1851.194
X351.962 Y1850.643
X352.48 Y1850.117
X353.025 Y1849.62
X353.595 Y1849.152
X354.189 Y1848.714
X354.805 Y1848.308
X355.441 Y1847.935
X356.097 Y1847.596
X356.769 Y1847.292
X357.457 Y1847.025
X358.158 Y1846.794
X358.87 Y1846.601
X359.591 Y1846.445
X360.319 Y1846.327
X361.053 Y1846.247
X361.789 Y1846.205
X362.527 Y1846.203
X363.264 Y1846.238
X363.998 Y1846.312
X364.727 Y1846.425
X365.449 Y1846.577
X366.162 Y1846.766
X366.865 Y1846.992
X367.554 Y1847.254
X368.23 Y1847.552
X368.888 Y1847.884
X369.53 Y1848.249
X370.151 Y1848.646
X370.752 Y1849.075
X371.329 Y1849.534
X371.883 Y1850.021
X372.411 Y1850.537
X372.911 Y1851.079
X373.384 Y1851.646
X373.827 Y1852.236
X374.24 Y1852.848
X374.621 Y1853.479
X374.97 Y1854.129
X375.287 Y1854.795
X375.57 Y1855.477
X375.818 Y1856.172
X376.031 Y1856.878
X376.208 Y1857.594
X376.349 Y1858.319
X376.451 Y1859.049
X376.516 Y1859.784
X376.545 Y1860.521
X376.535 Y1861.259
X376.489 Y1861.996
X376.405 Y1862.729
X376.284 Y1863.456
X376.126 Y1864.177
X375.933 Y1864.889
X375.704 Y1865.591
X375.439 Y1866.279
X375.139 Y1866.953
X374.804 Y1867.611
X374.437 Y1868.251
X374.037 Y1868.871
X373.607 Y1869.47
X373.147 Y1870.047
X372.658 Y1870.6
X372.142 Y1871.127
X371.601 Y1871.628
X371.035 Y1872.102
X370.445 Y1872.546
X369.835 Y1872.96
X369.203 Y1873.341
X368.553 Y1873.69
X367.886 Y1874.006
X367.204 Y1874.288
X366.509 Y1874.535
X365.802 Y1874.747
X365.086 Y1874.923
X364.362 Y1875.063
X363.631 Y1875.167
X362.896 Y1875.235
X362.159 Y1875.266
X361.422 Y1875.259
X360.685 Y1875.215
X359.952 Y1875.134
X359.223 Y1875.016
X358.502 Y1874.863
X357.788 Y1874.674
X357.085 Y1874.45
X356.394 Y1874.192
X355.716 Y1873.9
X355.054 Y1873.576
X354.408 Y1873.22
X353.78 Y1872.833
X353.171 Y1872.415
X352.585 Y1871.967
X352.022 Y1871.49
X351.484 Y1870.985
X350.971 Y1870.455
X350.484 Y1869.901
X350.025 Y1869.323
X349.595 Y1868.723
X349.194 Y1868.104
X348.824 Y1867.466
X348.485 Y1866.81
X348.178 Y1866.139
X347.904 Y1865.454
X347.664 Y1864.757
X347.459 Y1864.048
X347.289 Y1863.33
X347.155 Y1862.604
X347.056 Y1861.873
X346.993 Y1861.138
X346.965 Y1860.401
X346.974 Y1859.663
X347.017 Y1858.927
X347.097 Y1858.193
X347.211 Y1857.464
X347.36 Y1856.742
X347.544 Y1856.027
X347.763 Y1855.323
X348.017 Y1854.63
X348.304 Y1853.95
X348.623 Y1853.285
X348.975 Y1852.636
X349.357 Y1852.005
X349.77 Y1851.394
X350.212 Y1850.803
X350.681 Y1850.234
X351.178 Y1849.688
X351.699 Y1849.166
X352.246 Y1848.67
X352.816 Y1848.202
X353.408 Y1847.762
X354.021 Y1847.351
X354.653 Y1846.971
X355.303 Y1846.622
X355.969 Y1846.304
X356.65 Y1846.02
X357.344 Y1845.768
X358.048 Y1845.55
X358.763 Y1845.366
X359.486 Y1845.217
X360.214 Y1845.102
X360.948 Y1845.023
X361.684 Y1844.98
X362.422 Y1844.973
X363.16 Y1845.001
X363.895 Y1845.065
X364.626 Y1845.165
X365.351 Y1845.3
X366.069 Y1845.469
X366.778 Y1845.672
X367.477 Y1845.91
X368.164 Y1846.179
X368.837 Y1846.481
X369.495 Y1846.815
X370.136 Y1847.179
X370.759 Y1847.575
X371.363 Y1847.999
X371.946 Y1848.451
X372.507 Y1848.93
X373.045 Y1849.436
X373.558 Y1849.966
X374.046 Y1850.519
X374.508 Y1851.094
X374.943 Y1851.69
X375.35 Y1852.306
X375.728 Y1852.94
X376.076 Y1853.59
X376.393 Y1854.256
X376.679 Y1854.936
X376.932 Y1855.629
X377.153 Y1856.333
X377.341 Y1857.047
X377.496 Y1857.768
X377.616 Y1858.496
X377.702 Y1859.229
X377.755 Y1859.965
X377.773 Y1860.702
X377.756 Y1861.44
X377.706 Y1862.176
X377.621 Y1862.909
X377.501 Y1863.637
X377.347 Y1864.359
X377.159 Y1865.072
X376.939 Y1865.776
X376.685 Y1866.469
X376.399 Y1867.149
X376.081 Y1867.815
X375.732 Y1868.465
X375.354 Y1869.099
X374.947 Y1869.714
X374.511 Y1870.309
X374.048 Y1870.884
X373.56 Y1871.437
X373.045 Y1871.965
X372.506 Y1872.469
X371.944 Y1872.947
X371.36 Y1873.399
X370.756 Y1873.822
X370.133 Y1874.217
X369.492 Y1874.583
X368.835 Y1874.918
X368.163 Y1875.223
X367.478 Y1875.496
X366.781 Y1875.738
X366.073 Y1875.947
X365.357 Y1876.123
X364.632 Y1876.265
X363.903 Y1876.373
X363.169 Y1876.447
X362.432 Y1876.487
X361.694 Y1876.493
X360.957 Y1876.465
X360.222 Y1876.402
X359.49 Y1876.306
X358.764 Y1876.177
X358.044 Y1876.015
X357.332 Y1875.82
X356.63 Y1875.594
X355.939 Y1875.335
X355.26 Y1875.045
X354.596 Y1874.724
X353.947 Y1874.374
X353.314 Y1873.994
X352.7 Y1873.585
X352.105 Y1873.149
X351.53 Y1872.687
X350.977 Y1872.198
X350.447 Y1871.685
X349.941 Y1871.148
X349.459 Y1870.59
X349.003 Y1870.01
X348.573 Y1869.41
X348.171 Y1868.791
X347.799 Y1868.154
X347.455 Y1867.502
X347.14 Y1866.834
X346.856 Y1866.153
X346.603 Y1865.46
X346.382 Y1864.756
X346.192 Y1864.043
X346.035 Y1863.322
X345.911 Y1862.595
X345.819 Y1861.863
X345.76 Y1861.127
X345.734 Y1860.39
X345.742 Y1859.652
X345.783 Y1858.916
X345.858 Y1858.182
X345.965 Y1857.452
X346.104 Y1856.727
X346.276 Y1856.01
X346.48 Y1855.3
X346.715 Y1854.601
X346.982 Y1853.913
X347.279 Y1853.238
X347.606 Y1852.577
X347.962 Y1851.931
X348.347 Y1851.301
X348.76 Y1850.689
X349.2 Y1850.097
X349.667 Y1849.526
X350.158 Y1848.976
X350.674 Y1848.448
X351.212 Y1847.943
X351.773 Y1847.464
X352.354 Y1847.01
X352.956 Y1846.582
X353.575 Y1846.182
X354.212 Y1845.809
X354.865 Y1845.466
X355.533 Y1845.152
X356.214 Y1844.868
X356.907 Y1844.616
X357.611 Y1844.395
X358.325 Y1844.206
X359.045 Y1844.048
X359.773 Y1843.923
X360.505 Y1843.831
X361.24 Y1843.771
X361.977 Y1843.745
X362.715 Y1843.751
X363.452 Y1843.79
X364.186 Y1843.862
X364.917 Y1843.966
X365.642 Y1844.103
X366.36 Y1844.272
X367.07 Y1844.473
X367.77 Y1844.706
X368.459 Y1844.97
X369.136 Y1845.263
X369.799 Y1845.586
X370.448 Y1845.938
X371.08 Y1846.318
X371.695 Y1846.725
X372.292 Y1847.159
X372.869 Y1847.619
X373.426 Y1848.103
X373.961 Y1848.611
X374.474 Y1849.141
X374.963 Y1849.694
X375.427 Y1850.267
X375.866 Y1850.861
X376.278 Y1851.472
X376.665 Y1852.101
X377.024 Y1852.745
X377.354 Y1853.405
X377.656 Y1854.078
X377.929 Y1854.764
X378.172 Y1855.46
X378.385 Y1856.167
X378.567 Y1856.882
X378.718 Y1857.604
X378.838 Y1858.332
X378.925 Y1859.065
X378.98 Y1859.801
X379.003 Y1860.538
X378.995 Y1861.276
X378.954 Y1862.012
X378.882 Y1862.747
X378.778 Y1863.477
X378.642 Y1864.202
X378.474 Y1864.921
X378.276 Y1865.632
X378.047 Y1866.333
X377.788 Y1867.024
X377.5 Y1867.703
X377.182 Y1868.369
X376.835 Y1869.02
X376.459 Y1869.655
X376.057 Y1870.273
X375.628 Y1870.874
X375.173 Y1871.455
X374.694 Y1872.016
X374.191 Y1872.556
X373.665 Y1873.073
X373.118 Y1873.568
X372.549 Y1874.038
X371.961 Y1874.483
X371.354 Y1874.903
X370.73 Y1875.296
X370.089 Y1875.662
X369.432 Y1875.999
X368.762 Y1876.307
X368.079 Y1876.586
X367.385 Y1876.835
X366.68 Y1877.055
X365.967 Y1877.244
X365.246 Y1877.402
X364.52 Y1877.529
X363.788 Y1877.624
X363.053 Y1877.688
X362.316 Y1877.721
X361.578 Y1877.723
X360.841 Y1877.692
X360.106 Y1877.63
X359.374 Y1877.536
X358.647 Y1877.411
X357.926 Y1877.254
X357.212 Y1877.068
X356.507 Y1876.852
X355.811 Y1876.606
X355.126 Y1876.33
X354.454 Y1876.026
X353.795 Y1875.694
X353.151 Y1875.335
X352.522 Y1874.949
X351.91 Y1874.536
X351.317 Y1874.098
X350.742 Y1873.635
X350.188 Y1873.148
X349.655 Y1872.637
X349.145 Y1872.105
X348.657 Y1871.551
X348.193 Y1870.978
X347.753 Y1870.385
X347.338 Y1869.775
X346.95 Y1869.148
X346.588 Y1868.505
X346.253 Y1867.848
X345.946 Y1867.177
X345.667 Y1866.494
X345.416 Y1865.8
X345.196 Y1865.096
X345.005 Y1864.383
X344.845 Y1863.663
X344.716 Y1862.936
X344.617 Y1862.205
X344.548 Y1861.47
X344.51 Y1860.734
X344.503 Y1859.996
X344.527 Y1859.258
X344.582 Y1858.523
X344.667 Y1857.79
X344.783 Y1857.061
X344.928 Y1856.338
X345.103 Y1855.621
X345.308 Y1854.912
X345.543 Y1854.213
X345.808 Y1853.524
X346.101 Y1852.847
X346.422 Y1852.183
X346.771 Y1851.533
X347.146 Y1850.897
X347.548 Y1850.278
X347.975 Y1849.677
X348.426 Y1849.093
X348.902 Y1848.529
X349.4 Y1847.985
X349.921 Y1847.462
X350.462 Y1846.961
X351.024 Y1846.483
X351.606 Y1846.029
X352.206 Y1845.6
X352.824 Y1845.196
X353.458 Y1844.819
X354.107 Y1844.469
X354.77 Y1844.145
X355.446 Y1843.85
X356.134 Y1843.583
X356.833 Y1843.345
X357.54 Y1843.136
X358.256 Y1842.957
X358.978 Y1842.807
X359.706 Y1842.688
X360.439 Y1842.598
X361.174 Y1842.539
X361.912 Y1842.511
X362.649 Y1842.515
X363.386 Y1842.549
X364.121 Y1842.614
X364.853 Y1842.709
X365.58 Y1842.834
X366.301 Y1842.989
X367.016 Y1843.174
X367.722 Y1843.389
X368.418 Y1843.632
X369.104 Y1843.904
X369.779 Y1844.203
X370.44 Y1844.529
X371.088 Y1844.883
X371.721 Y1845.262
X372.337 Y1845.668
X372.936 Y1846.099
X373.517 Y1846.554
X374.079 Y1847.032
X374.621 Y1847.532
X375.143 Y1848.054
X375.642 Y1848.597
X376.12 Y1849.159
X376.574 Y1849.741
X377.005 Y1850.34
X377.411 Y1850.955
X377.793 Y1851.587
X378.149 Y1852.233
X378.478 Y1852.893
X378.781 Y1853.566
X379.056 Y1854.251
X379.302 Y1854.946
X379.521 Y1855.651
X379.711 Y1856.364
X379.872 Y1857.084
X380.004 Y1857.81
X380.107 Y1858.541
X380.18 Y1859.275
X380.223 Y1860.011
X380.236 Y1860.749
X380.22 Y1861.487
X380.175 Y1862.223
X380.099 Y1862.957
X379.994 Y1863.687
X379.859 Y1864.413
X379.695 Y1865.132
X379.501 Y1865.844
X379.278 Y1866.547
X379.028 Y1867.241
X378.749 Y1867.924
X378.443 Y1868.596
X378.11 Y1869.254
X377.751 Y1869.898
X377.365 Y1870.528
X376.955 Y1871.141
X376.521 Y1871.737
X376.063 Y1872.316
X375.582 Y1872.875
X375.079 Y1873.415
X374.554 Y1873.933
X374.008 Y1874.43
X373.443 Y1874.904
X372.859 Y1875.355
X372.257 Y1875.782
X371.639 Y1876.185
X371.005 Y1876.562
X370.356 Y1876.914
X369.694 Y1877.239
X369.019 Y1877.537
X368.332 Y1877.808
X367.636 Y1878.051
X366.93 Y1878.266
X366.217 Y1878.454
X365.496 Y1878.612
X364.769 Y1878.74
X364.038 Y1878.839
X363.304 Y1878.908
X362.567 Y1878.948
X361.829 Y1878.959
X361.092 Y1878.94
X360.355 Y1878.892
X359.622 Y1878.814
X358.892 Y1878.707
X358.167 Y1878.571
X357.447 Y1878.407
X356.735 Y1878.214
X356.031 Y1877.994
X355.336 Y1877.746
X354.651 Y1877.471
X353.978 Y1877.169
X353.318 Y1876.839
X352.671 Y1876.484
X352.039 Y1876.104
X351.422 Y1875.699
X350.822 Y1875.27
X350.239 Y1874.818
X349.674 Y1874.343
X349.129 Y1873.846
X348.604 Y1873.327
X348.1 Y1872.789
X347.617 Y1872.231
X347.156 Y1871.655
X346.718 Y1871.061
X346.303 Y1870.451
X345.914 Y1869.824
X345.549 Y1869.183
X345.21 Y1868.528
X344.897 Y1867.859
X344.61 Y1867.18
X344.35 Y1866.49
X344.117 Y1865.789
X343.911 Y1865.081
X343.734 Y1864.365
X343.585 Y1863.642
X343.465 Y1862.914
X343.373 Y1862.182
X343.309 Y1861.447
X343.274 Y1860.71
X343.268 Y1859.972
X343.291 Y1859.235
X343.343 Y1858.499
X343.424 Y1857.765
X343.533 Y1857.036
X343.671 Y1856.311
X343.836 Y1855.592
X344.03 Y1854.88
X344.251 Y1854.176
X344.5 Y1853.481
X344.775 Y1852.797
X345.077 Y1852.124
X345.405 Y1851.463
X345.759 Y1850.815
X346.137 Y1850.182
X346.539 Y1849.563
X346.966 Y1848.961
X347.416 Y1848.377
X347.889 Y1847.81
X348.383 Y1847.262
X348.898 Y1846.734
X349.433 Y1846.226
X349.988 Y1845.74
X350.561 Y1845.275
X351.152 Y1844.833
X351.759 Y1844.414
X352.383 Y1844.02
X353.021 Y1843.65
X353.673 Y1843.305
X354.338 Y1842.985
X355.015 Y1842.691
X355.703 Y1842.424
X356.401 Y1842.185
X357.108 Y1841.974
X357.822 Y1841.789
X358.543 Y1841.633
X359.27 Y1841.505
X360.001 Y1841.405
X360.735 Y1841.333
X361.472 Y1841.29
X362.209 Y1841.276
X362.947 Y1841.291
X363.684 Y1841.334
X364.418 Y1841.405
X365.149 Y1841.505
X365.876 Y1841.633
X366.597 Y1841.789
X367.311 Y1841.973
X368.018 Y1842.185
X368.716 Y1842.424
X369.404 Y1842.69
X370.082 Y1842.983
X370.747 Y1843.3
X371.401 Y1843.643
X372.04 Y1844.011
X372.665 Y1844.403
X373.275 Y1844.819
X373.868 Y1845.257
X374.444 Y1845.718
X375.003 Y1846.201
X375.542 Y1846.704
X376.062 Y1847.227
X376.562 Y1847.77
X377.041 Y1848.331
X377.498 Y1848.911
X377.932 Y1849.507
X378.344 Y1850.119
X378.732 Y1850.746
X379.097 Y1851.388
X379.438 Y1852.042
X379.753 Y1852.709
X380.043 Y1853.388
X380.307 Y1854.077
X380.545 Y1854.775
X380.757 Y1855.482
X380.942 Y1856.196
X381.1 Y1856.917
X381.23 Y1857.643
X381.333 Y1858.374
X381.408 Y1859.108
X381.454 Y1859.844
X381.472 Y1860.582
X381.463 Y1861.319
X381.426 Y1862.056
X381.361 Y1862.791
X381.269 Y1863.523
X381.148 Y1864.251
X381. Y1864.974
X380.825 Y1865.691
X380.623 Y1866.4
X380.394 Y1867.102
X380.138 Y1867.794
X379.857 Y1868.476
X379.55 Y1869.147
X379.218 Y1869.806
X378.86 Y1870.451
X378.478 Y1871.082
X378.073 Y1871.698
X377.644 Y1872.299
X377.193 Y1872.883
X376.721 Y1873.45
X376.227 Y1873.998
X375.713 Y1874.528
X375.18 Y1875.037
X374.627 Y1875.526
X374.056 Y1875.994
X373.469 Y1876.44
X372.865 Y1876.863
X372.245 Y1877.264
X371.611 Y1877.641
X370.962 Y1877.993
X370.301 Y1878.32
X369.628 Y1878.622
X368.944 Y1878.898
X368.25 Y1879.149
X367.547 Y1879.374
X366.836 Y1879.572
X366.119 Y1879.743
X365.395 Y1879.887
X364.666 Y1880.003
X363.934 Y1880.092
X363.199 Y1880.154
X362.462 Y1880.188
X361.724 Y1880.194
X360.986 Y1880.173
X360.25 Y1880.125
X359.516 Y1880.048
X358.786 Y1879.944
X358.06 Y1879.812
X357.339 Y1879.654
X356.625 Y1879.469
X355.918 Y1879.257
X355.219 Y1879.02
X354.53 Y1878.758
X353.851 Y1878.469
X353.183 Y1878.156
X352.527 Y1877.818
X351.884 Y1877.456
X351.255 Y1877.071
X350.64 Y1876.662
X350.041 Y1876.232
X349.459 Y1875.779
X348.894 Y1875.305
X348.347 Y1874.809
X347.819 Y1874.294
X347.31 Y1873.759
X346.822 Y1873.207
X346.353 Y1872.636
X345.907 Y1872.049
X345.482 Y1871.446
X345.079 Y1870.828
X344.7 Y1870.195
X344.344 Y1869.548
X344.012 Y1868.89
X343.704 Y1868.219
X343.421 Y1867.537
X343.164 Y1866.846
X342.931 Y1866.146
X342.725 Y1865.437
X342.546 Y1864.722
X342.394 Y1864.
X342.268 Y1863.273
X342.168 Y1862.542
X342.096 Y1861.807
X342.05 Y1861.071
X342.031 Y1860.333
X342.04 Y1859.596
X342.075 Y1858.859
X342.138 Y1858.124
X342.227 Y1857.391
X342.343 Y1856.663
X342.486 Y1855.939
X342.654 Y1855.22
X342.849 Y1854.509
X343.069 Y1853.805
X343.316 Y1853.109
X343.589 Y1852.424
X343.887 Y1851.749
X344.209 Y1851.085
X344.555 Y1850.433
X344.924 Y1849.794
X345.317 Y1849.17
X345.732 Y1848.56
X346.169 Y1847.965
X346.628 Y1847.388
X347.107 Y1846.827
X347.607 Y1846.284
X348.126 Y1845.76
X348.663 Y1845.254
X349.219 Y1844.769
X349.792 Y1844.304
X350.382 Y1843.861
X350.988 Y1843.44
X351.609 Y1843.042
X352.245 Y1842.667
X352.893 Y1842.315
X353.554 Y1841.986
X354.226 Y1841.682
X354.909 Y1841.403
X355.602 Y1841.15
X356.303 Y1840.921
X357.013 Y1840.719
X357.729 Y1840.542
X358.452 Y1840.392
X359.179 Y1840.267
X359.91 Y1840.169
X360.645 Y1840.098
X361.381 Y1840.054
X362.119 Y1840.038
X362.856 Y1840.049
X363.593 Y1840.086
X364.328 Y1840.151
X365.06 Y1840.242
X365.789 Y1840.359
X366.513 Y1840.503
X367.23 Y1840.673
X367.942 Y1840.869
X368.645 Y1841.091
X369.341 Y1841.338
X370.027 Y1841.61
X370.702 Y1841.906
X371.367 Y1842.226
X372.02 Y1842.57
X372.659 Y1842.938
X373.285 Y1843.328
X373.897 Y1843.742
X374.493 Y1844.177
X375.073 Y1844.632
X375.636 Y1845.109
X376.182 Y1845.605
X376.71 Y1846.12
X377.22 Y1846.654
X377.71 Y1847.205
X378.18 Y1847.774
X378.629 Y1848.359
X379.058 Y1848.96
X379.465 Y1849.575
X379.85 Y1850.204
X380.213 Y1850.847
X380.553 Y1851.502
X380.869 Y1852.168
X381.16 Y1852.846
X381.428 Y1853.534
X381.67 Y1854.231
X381.888 Y1854.936
X382.081 Y1855.648
X382.249 Y1856.366
X382.391 Y1857.09
X382.507 Y1857.819
X382.597 Y1858.551
X382.661 Y1859.286
X382.698 Y1860.023
X382.71 Y1860.761
X382.695 Y1861.498
X382.654 Y1862.235
X382.588 Y1862.97
X382.495 Y1863.702
X382.376 Y1864.43
X382.23 Y1865.153
X382.058 Y1865.871
X381.861 Y1866.582
X381.639 Y1867.285
X381.392 Y1867.981
X381.12 Y1868.667
X380.825 Y1869.343
X380.505 Y1870.008
X380.161 Y1870.661
X379.795 Y1871.301
X379.406 Y1871.928
X378.995 Y1872.54
X378.562 Y1873.138
X378.109 Y1873.72
X377.635 Y1874.286
X377.142 Y1874.835
X376.629 Y1875.365
X376.097 Y1875.876
X375.547 Y1876.368
X374.98 Y1876.841
X374.397 Y1877.292
X373.798 Y1877.724
X373.185 Y1878.133
X372.557 Y1878.521
X371.916 Y1878.886
X371.262 Y1879.228
X370.596 Y1879.546
X369.92 Y1879.841
X369.234 Y1880.112
X368.538 Y1880.358
X367.834 Y1880.58
X367.123 Y1880.777
X366.406 Y1880.949
X365.682 Y1881.094
X364.954 Y1881.214
X364.223 Y1881.307
X363.488 Y1881.375
X362.751 Y1881.417
X362.014 Y1881.432
X361.276 Y1881.423
X360.539 Y1881.387
X359.804 Y1881.325
X359.071 Y1881.237
X358.342 Y1881.123
X357.617 Y1880.984
X356.898 Y1880.82
X356.185 Y1880.631
X355.479 Y1880.418
X354.78 Y1880.18
X354.091 Y1879.917
X353.411 Y1879.63
X352.742 Y1879.32
X352.084 Y1878.986
X351.438 Y1878.629
X350.805 Y1878.25
X350.185 Y1877.85
X349.58 Y1877.428
X348.99 Y1876.985
X348.415 Y1876.522
X347.858 Y1876.039
X347.317 Y1875.537
X346.794 Y1875.016
X346.29 Y1874.478
X345.805 Y1873.922
X345.338 Y1873.35
X344.892 Y1872.762
X344.467 Y1872.159
X344.063 Y1871.542
X343.682 Y1870.91
X343.322 Y1870.266
X342.985 Y1869.61
X342.671 Y1868.942
X342.379 Y1868.265
X342.112 Y1867.577
X341.868 Y1866.881
X341.648 Y1866.176
X341.454 Y1865.465
X341.284 Y1864.747
X341.139 Y1864.023
X341.019 Y1863.295
X340.924 Y1862.563
X340.855 Y1861.829
X340.81 Y1861.092
X340.792 Y1860.355
X340.799 Y1859.617
X340.832 Y1858.88
X340.89 Y1858.144
X340.974 Y1857.411
X341.083 Y1856.682
X341.217 Y1855.956
X341.375 Y1855.235
X341.559 Y1854.521
X341.767 Y1853.813
X341.999 Y1853.113
X342.255 Y1852.421
X342.536 Y1851.738
X342.839 Y1851.066
X343.166 Y1850.404
X343.515 Y1849.754
X343.886 Y1849.116
X344.278 Y1848.492
X344.693 Y1847.881
X345.128 Y1847.286
X345.584 Y1846.706
X346.06 Y1846.142
X346.555 Y1845.594
X347.068 Y1845.064
X347.598 Y1844.552
X348.147 Y1844.058
X348.711 Y1843.583
X349.292 Y1843.128
X349.889 Y1842.694
X350.5 Y1842.28
X351.125 Y1841.888
X351.762 Y1841.517
X352.413 Y1841.168
X353.074 Y1840.842
X353.747 Y1840.539
X354.43 Y1840.259
X355.122 Y1840.004
X355.823 Y1839.772
X356.531 Y1839.565
X357.246 Y1839.383
X357.966 Y1839.224
X358.692 Y1839.091
X359.422 Y1838.982
X360.155 Y1838.899
X360.89 Y1838.841
X361.627 Y1838.808
X362.365 Y1838.801
X363.103 Y1838.819
X363.839 Y1838.863
X364.574 Y1838.931
X365.306 Y1839.025
X366.034 Y1839.143
X366.758 Y1839.286
X367.476 Y1839.455
X368.188 Y1839.649
X368.893 Y1839.867
X369.59 Y1840.108
X370.278 Y1840.374
X370.958 Y1840.662
X371.627 Y1840.973
X372.285 Y1841.307
X372.931 Y1841.662
X373.565 Y1842.04
X374.186 Y1842.439
X374.792 Y1842.859
X375.384 Y1843.299
X375.961 Y1843.759
X376.523 Y1844.238
X377.068 Y1844.735
X377.596 Y1845.251
X378.106 Y1845.784
X378.597 Y1846.334
X379.07 Y1846.901
X379.523 Y1847.483
X379.956 Y1848.08
X380.37 Y1848.691
X380.762 Y1849.316
X381.134 Y1849.953
X381.485 Y1850.602
X381.813 Y1851.263
X382.119 Y1851.934
X382.402 Y1852.615
X382.663 Y1853.306
X382.9 Y1854.005
X383.113 Y1854.711
X383.303 Y1855.424
X383.469 Y1856.143
X383.612 Y1856.867
X383.729 Y1857.595
X383.821 Y1858.327
X383.888 Y1859.062
X383.931 Y1859.798
X383.949 Y1860.536
X383.942 Y1861.274
X383.911 Y1862.011
X383.855 Y1862.747
X383.775 Y1863.48
X383.669 Y1864.21
X383.539 Y1864.937
X383.385 Y1865.658
X383.206 Y1866.374
X383.004 Y1867.083
X382.778 Y1867.786
X382.529 Y1868.48
X382.256 Y1869.166
X381.961 Y1869.842
X381.642 Y1870.508
X381.301 Y1871.162
X380.938 Y1871.804
X380.553 Y1872.434
X380.148 Y1873.05
X379.723 Y1873.653
X379.277 Y1874.241
X378.813 Y1874.814
X378.329 Y1875.372
X377.827 Y1875.912
X377.306 Y1876.435
X376.769 Y1876.941
X376.215 Y1877.428
X375.645 Y1877.896
X375.059 Y1878.345
X374.459 Y1878.774
X373.845 Y1879.184
X373.218 Y1879.572
X372.577 Y1879.938
X371.925 Y1880.283
X371.261 Y1880.605
X370.587 Y1880.905
X369.904 Y1881.183
X369.211 Y1881.438
X368.511 Y1881.669
X367.803 Y1881.878
X367.089 Y1882.062
X366.368 Y1882.222
X365.643 Y1882.358
X364.914 Y1882.47
X364.181 Y1882.557
X363.446 Y1882.62
X362.709 Y1882.659
X361.972 Y1882.673
X361.234 Y1882.663
X360.497 Y1882.628
X359.762 Y1882.568
X359.029 Y1882.483
X358.299 Y1882.374
X357.573 Y1882.241
X356.852 Y1882.084
X356.137 Y1881.904
X355.428 Y1881.7
X354.726 Y1881.473
X354.031 Y1881.223
X353.346 Y1880.951
X352.67 Y1880.655
X352.004 Y1880.337
X351.349 Y1879.998
X350.705 Y1879.637
X350.074 Y1879.256
X349.455 Y1878.854
X348.85 Y1878.432
X348.259 Y1877.99
X347.683 Y1877.528
X347.124 Y1877.047
X346.58 Y1876.548
X346.053 Y1876.032
X345.544 Y1875.499
X345.051 Y1874.949
X344.578 Y1874.383
X344.122 Y1873.803
X343.686 Y1873.208
X343.27 Y1872.598
X342.874 Y1871.975
X342.499 Y1871.34
X342.145 Y1870.693
X341.812 Y1870.034
X341.501 Y1869.366
X341.211 Y1868.687
X340.944 Y1867.999
X340.7 Y1867.303
X340.479 Y1866.599
X340.281 Y1865.888
X340.107 Y1865.171
X339.957 Y1864.449
X339.83 Y1863.722
X339.727 Y1862.992
X339.647 Y1862.258
X339.591 Y1861.522
X339.56 Y1860.785
X339.552 Y1860.047
X339.569 Y1859.31
X339.61 Y1858.573
X339.675 Y1857.838
X339.764 Y1857.106
X339.877 Y1856.376
X340.012 Y1855.651
X340.172 Y1854.931
X340.355 Y1854.216
X340.561 Y1853.508
X340.791 Y1852.807
X341.044 Y1852.114
X341.319 Y1851.429
X341.617 Y1850.754
X341.936 Y1850.089
X342.276 Y1849.434
X342.637 Y1848.791
X343.02 Y1848.16
X343.422 Y1847.541
X343.845 Y1846.937
X344.287 Y1846.346
X344.748 Y1845.77
X345.228 Y1845.21
X345.726 Y1844.665
X346.241 Y1844.136
X346.772 Y1843.625
X347.32 Y1843.13
X347.884 Y1842.655
X348.464 Y1842.198
X349.058 Y1841.761
X349.666 Y1841.343
X350.288 Y1840.946
X350.921 Y1840.568
X351.567 Y1840.211
X352.224 Y1839.876
X352.892 Y1839.561
X353.569 Y1839.269
X354.256 Y1838.999
X354.951 Y1838.752
X355.654 Y1838.528
X356.364 Y1838.326
X357.08 Y1838.147
X357.801 Y1837.992
X358.527 Y1837.86
X359.257 Y1837.751
X359.99 Y1837.667
X360.725 Y1837.607
X361.462 Y1837.571
X362.2 Y1837.559
X362.937 Y1837.572
X363.674 Y1837.608
X364.41 Y1837.667
X365.143 Y1837.751
X365.873 Y1837.858
X366.599 Y1837.989
X367.32 Y1838.143
X368.037 Y1838.32
X368.746 Y1838.521
X369.45 Y1838.745
X370.145 Y1838.991
X370.832 Y1839.259
X371.511 Y1839.549
X372.18 Y1839.861
X372.838 Y1840.194
X373.485 Y1840.548
X374.12 Y1840.924
X374.743 Y1841.319
X375.353 Y1841.735
X375.949 Y1842.17
X376.531 Y1842.623
X377.098 Y1843.095
X377.651 Y1843.584
X378.187 Y1844.091
X378.707 Y1844.614
X379.21 Y1845.154
X379.695 Y1845.71
X380.162 Y1846.281
X380.611 Y1846.867
X381.041 Y1847.466
X381.452 Y1848.079
X381.844 Y1848.704
X382.216 Y1849.341
X382.567 Y1849.99
X382.897 Y1850.65
X383.206 Y1851.32
X383.493 Y1852.
X383.759 Y1852.688
X384.003 Y1853.384
X384.224 Y1854.088
X384.424 Y1854.798
X384.6 Y1855.515
X384.755 Y1856.236
X384.886 Y1856.962
X384.993 Y1857.692
X385.078 Y1858.425
X385.138 Y1859.161
X385.176 Y1859.897
X385.19 Y1860.635
X385.181 Y1861.373
X385.149 Y1862.11
X385.094 Y1862.846
X385.014 Y1863.579
X384.911 Y1864.31
X384.785 Y1865.037
X384.635 Y1865.759
X384.463 Y1866.476
X384.267 Y1867.188
X384.05 Y1867.893
X383.81 Y1868.591
X383.548 Y1869.281
X383.265 Y1869.962
X382.959 Y1870.633
X382.633 Y1871.295
X382.285 Y1871.946
X381.917 Y1872.585
X381.529 Y1873.213
X381.121 Y1873.827
X380.694 Y1874.429
X380.248 Y1875.017
X379.784 Y1875.59
X379.301 Y1876.148
X378.801 Y1876.691
X378.283 Y1877.217
X377.749 Y1877.726
X377.199 Y1878.218
X376.634 Y1878.692
X376.055 Y1879.149
X375.461 Y1879.587
X374.854 Y1880.006
X374.233 Y1880.405
X373.601 Y1880.785
X372.956 Y1881.144
X372.3 Y1881.482
X371.634 Y1881.799
X370.959 Y1882.096
X370.274 Y1882.371
X369.581 Y1882.624
X368.88 Y1882.856
X368.173 Y1883.065
X367.459 Y1883.251
X366.739 Y1883.414
X366.015 Y1883.554
X365.286 Y1883.671
X364.555 Y1883.765
X363.82 Y1883.837
X363.084 Y1883.885
X362.347 Y1883.91
X361.609 Y1883.912
X360.871 Y1883.89
X360.135 Y1883.845
X359.4 Y1883.777
X358.668 Y1883.686
X357.939 Y1883.572
X357.214 Y1883.435
X356.494 Y1883.276
X355.779 Y1883.094
X355.069 Y1882.89
X354.367 Y1882.664
X353.672 Y1882.416
X352.986 Y1882.146
X352.308 Y1881.855
X351.64 Y1881.542
X350.981 Y1881.209
X350.334 Y1880.855
X349.697 Y1880.482
X349.073 Y1880.089
X348.461 Y1879.677
X347.862 Y1879.246
X347.277 Y1878.796
X346.707 Y1878.328
X346.151 Y1877.842
X345.611 Y1877.339
X345.087 Y1876.82
X344.579 Y1876.285
X344.088 Y1875.734
X343.614 Y1875.169
X343.158 Y1874.589
X342.721 Y1873.995
X342.302 Y1873.387
X341.903 Y1872.767
X341.523 Y1872.134
X341.163 Y1871.49
X340.823 Y1870.835
X340.503 Y1870.171
X340.204 Y1869.496
X339.926 Y1868.813
X339.669 Y1868.121
X339.434 Y1867.422
X339.221 Y1866.715
X339.03 Y1866.003
X338.861 Y1865.285
X338.714 Y1864.561
X338.59 Y1863.834
X338.488 Y1863.103
X338.409 Y1862.37
X338.353 Y1861.634
X338.319 Y1860.897
X338.309 Y1860.159
X338.322 Y1859.422
X338.358 Y1858.685
X338.416 Y1857.949
X338.497 Y1857.216
X338.601 Y1856.485
X338.727 Y1855.758
X338.875 Y1855.036
X339.045 Y1854.318
X339.237 Y1853.605
X339.452 Y1852.9
X339.689 Y1852.201
X339.947 Y1851.509
X340.226 Y1850.827
X340.526 Y1850.152
X340.847 Y1849.488
X341.188 Y1848.834
X341.548 Y1848.19
X341.929 Y1847.558
X342.33 Y1846.938
X342.75 Y1846.332
X343.188 Y1845.738
X343.644 Y1845.158
X344.118 Y1844.593
X344.609 Y1844.042
X345.117 Y1843.507
X345.64 Y1842.987
X346.18 Y1842.484
X346.735 Y1841.997
X347.305 Y1841.529
X347.889 Y1841.078
X348.486 Y1840.645
X349.097 Y1840.231
X349.72 Y1839.836
X350.355 Y1839.461
X351.001 Y1839.104
X351.658 Y1838.768
X352.325 Y1838.453
X353.002 Y1838.159
X353.687 Y1837.886
X354.381 Y1837.634
X355.082 Y1837.404
X355.79 Y1837.195
X356.503 Y1837.009
X357.223 Y1836.844
X357.946 Y1836.701
X358.674 Y1836.58
X359.406 Y1836.483
X360.14 Y1836.407
X360.876 Y1836.355
X361.613 Y1836.325
X362.351 Y1836.318
X363.088 Y1836.334
X363.825 Y1836.373
X364.56 Y1836.433
X365.293 Y1836.517
X366.024 Y1836.623
X366.75 Y1836.751
X367.472 Y1836.903
X368.189 Y1837.076
X368.901 Y1837.272
X369.606 Y1837.489
X370.304 Y1837.727
X370.995 Y1837.987
X371.677 Y1838.267
X372.351 Y1838.568
X373.015 Y1838.889
X373.669 Y1839.231
X374.312 Y1839.593
X374.944 Y1839.974
X375.564 Y1840.374
X376.171 Y1840.792
X376.766 Y1841.229
X377.347 Y1841.684
X377.914 Y1842.156
X378.467 Y1842.645
X379.004 Y1843.15
X379.526 Y1843.672
X380.031 Y1844.21
X380.52 Y1844.762
X380.992 Y1845.33
X381.447 Y1845.911
X381.884 Y1846.505
X382.303 Y1847.112
X382.704 Y1847.732
X383.086 Y1848.363
X383.449 Y1849.005
X383.792 Y1849.658
X384.116 Y1850.321
X384.419 Y1850.994
X384.701 Y1851.675
X384.964 Y1852.365
X385.205 Y1853.062
X385.426 Y1853.766
X385.625 Y1854.477
X385.803 Y1855.193
X385.959 Y1855.914
X386.092 Y1856.64
X386.204 Y1857.369
X386.293 Y1858.101
X386.361 Y1858.836
X386.406 Y1859.572
X386.429 Y1860.31
X386.43 Y1861.048
X386.409 Y1861.785
X386.366 Y1862.522
X386.301 Y1863.257
X386.213 Y1863.989
X386.103 Y1864.719
X385.97 Y1865.445
X385.816 Y1866.166
X385.641 Y1866.883
X385.444 Y1867.594
X385.225 Y1868.299
X384.986 Y1868.997
X384.725 Y1869.687
X384.444 Y1870.369
X384.141 Y1871.042
X383.819 Y1871.705
X383.476 Y1872.359
X383.114 Y1873.001
X382.732 Y1873.633
X382.332 Y1874.253
X381.914 Y1874.861
X381.477 Y1875.455
X381.023 Y1876.037
X380.551 Y1876.604
X380.063 Y1877.157
X379.558 Y1877.695
X379.036 Y1878.217
X378.5 Y1878.723
X377.948 Y1879.213
X377.382 Y1879.687
X376.802 Y1880.143
X376.209 Y1880.581
X375.602 Y1881.001
X374.983 Y1881.403
X374.352 Y1881.785
X373.71 Y1882.149
X373.057 Y1882.492
X372.394 Y1882.816
X371.722 Y1883.12
X371.041 Y1883.404
X370.352 Y1883.668
X369.655 Y1883.91
X368.951 Y1884.132
X368.241 Y1884.332
X367.526 Y1884.511
X366.805 Y1884.668
X366.079 Y1884.804
X365.35 Y1884.917
X364.618 Y1885.009
X363.884 Y1885.079
X363.148 Y1885.127
X362.41 Y1885.153
X361.672 Y1885.157
X360.935 Y1885.138
X360.198 Y1885.097
X359.463 Y1885.034
X358.73 Y1884.948
X358. Y1884.842
X357.273 Y1884.713
X356.551 Y1884.563
X355.833 Y1884.392
X355.121 Y1884.2
X354.415 Y1883.987
X353.715 Y1883.753
X353.023 Y1883.498
X352.338 Y1883.222
X351.662 Y1882.926
X350.996 Y1882.61
X350.338 Y1882.275
X349.691 Y1881.921
X349.055 Y1881.547
X348.43 Y1881.155
X347.817 Y1880.745
X347.217 Y1880.316
X346.63 Y1879.869
X346.056 Y1879.405
X345.496 Y1878.924
X344.951 Y1878.426
X344.421 Y1877.913
X343.906 Y1877.385
X343.407 Y1876.842
X342.924 Y1876.284
X342.458 Y1875.712
X342.009 Y1875.127
X341.577 Y1874.528
X341.164 Y1873.917
X340.768 Y1873.294
X340.392 Y1872.66
X340.033 Y1872.015
X339.694 Y1871.359
X339.375 Y1870.695
X339.074 Y1870.021
X338.795 Y1869.338
X338.536 Y1868.647
X338.297 Y1867.949
X338.079 Y1867.244
X337.882 Y1866.533
X337.707 Y1865.816
X337.552 Y1865.095
X337.418 Y1864.369
X337.306 Y1863.64
X337.215 Y1862.908
X337.145 Y1862.173
X337.098 Y1861.437
X337.072 Y1860.7
X337.068 Y1859.962
X337.086 Y1859.224
X337.125 Y1858.488
X337.186 Y1857.752
X337.268 Y1857.019
X337.372 Y1856.288
X337.497 Y1855.561
X337.644 Y1854.838
X337.812 Y1854.12
X338.001 Y1853.407
X338.211 Y1852.699
X338.442 Y1851.999
X338.694 Y1851.305
X338.965 Y1850.619
X339.257 Y1849.941
X339.568 Y1849.272
X339.899 Y1848.613
X340.248 Y1847.963
X340.617 Y1847.324
X341.005 Y1846.696
X341.41 Y1846.08
X341.834 Y1845.476
X342.276 Y1844.885
X342.734 Y1844.307
X343.209 Y1843.742
X343.701 Y1843.192
X344.208 Y1842.656
X344.73 Y1842.135
X345.268 Y1841.63
X345.821 Y1841.142
X346.388 Y1840.67
X346.969 Y1840.214
X347.563 Y1839.776
X348.169 Y1839.356
X348.787 Y1838.953
X349.417 Y1838.569
X350.057 Y1838.203
X350.709 Y1837.856
X351.37 Y1837.528
X352.04 Y1837.22
X352.719 Y1836.932
X353.407 Y1836.664
X354.102 Y1836.416
X354.804 Y1836.189
X355.512 Y1835.982
X356.226 Y1835.796
X356.945 Y1835.63
X357.668 Y1835.486
X358.396 Y1835.364
X359.127 Y1835.263
X359.86 Y1835.184
X360.596 Y1835.126
X361.333 Y1835.09
X362.071 Y1835.076
X362.808 Y1835.083
X363.546 Y1835.111
X364.282 Y1835.161
X365.016 Y1835.232
X365.748 Y1835.325
X366.477 Y1835.439
X367.202 Y1835.574
X367.923 Y1835.731
X368.639 Y1835.909
X369.35 Y1836.108
X370.054 Y1836.327
X370.752 Y1836.566
X371.443 Y1836.825
X372.126 Y1837.105
X372.8 Y1837.404
X373.466 Y1837.723
X374.121 Y1838.062
X374.767 Y1838.419
X375.402 Y1838.795
X376.025 Y1839.189
X376.638 Y1839.601
X377.238 Y1840.03
X377.825 Y1840.476
X378.4 Y1840.939
X378.96 Y1841.419
X379.507 Y1841.914
X380.039 Y1842.425
X380.557 Y1842.951
X381.058 Y1843.492
X381.544 Y1844.047
X382.014 Y1844.616
X382.468 Y1845.198
X382.905 Y1845.793
X383.324 Y1846.4
X383.726 Y1847.018
X384.11 Y1847.648
X384.476 Y1848.289
X384.823 Y1848.94
X385.151 Y1849.601
X385.46 Y1850.271
X385.749 Y1850.95
X386.02 Y1851.636
X386.27 Y1852.33
X386.501 Y1853.031
X386.712 Y1853.738
X386.902 Y1854.451
X387.072 Y1855.169
X387.221 Y1855.892
X387.349 Y1856.618
X387.456 Y1857.348
X387.542 Y1858.081
X387.607 Y1858.816
X387.651 Y1859.552
X387.674 Y1860.29
X387.676 Y1861.028
X387.656 Y1861.765
X387.616 Y1862.502
X387.553 Y1863.237
X387.47 Y1863.97
X387.365 Y1864.701
X387.24 Y1865.428
X387.094 Y1866.151
X386.927 Y1866.87
X386.739 Y1867.583
X386.532 Y1868.291
X386.304 Y1868.993
X386.056 Y1869.688
X385.788 Y1870.375
X385.5 Y1871.055
X385.193 Y1871.725
X384.867 Y1872.387
X384.521 Y1873.039
X384.158 Y1873.681
X383.776 Y1874.312
X383.376 Y1874.932
X382.958 Y1875.541
X382.523 Y1876.137
X382.071 Y1876.72
X381.602 Y1877.29
X381.117 Y1877.846
X380.617 Y1878.387
X380.101 Y1878.915
X379.57 Y1879.427
X379.024 Y1879.924
X378.465 Y1880.405
X377.892 Y1880.87
X377.306 Y1881.319
X376.708 Y1881.75
X376.097 Y1882.165
X375.475 Y1882.561
X374.842 Y1882.939
X374.197 Y1883.299
X373.543 Y1883.641
X372.88 Y1883.963
X372.207 Y1884.267
X371.527 Y1884.551
X370.838 Y1884.816
X370.142 Y1885.061
X369.439 Y1885.285
X368.73 Y1885.49
X368.016 Y1885.673
X367.296 Y1885.837
X366.572 Y1885.979
X365.845 Y1886.101
X365.114 Y1886.203
X364.38 Y1886.283
X363.645 Y1886.343
X362.908 Y1886.382
X362.171 Y1886.4
X361.433 Y1886.396
X360.695 Y1886.372
X359.959 Y1886.326
X359.224 Y1886.259
X358.491 Y1886.172
X357.762 Y1886.064
X357.035 Y1885.936
X356.312 Y1885.786
X355.594 Y1885.617
X354.881 Y1885.427
X354.174 Y1885.217
X353.473 Y1884.986
X352.779 Y1884.736
X352.092 Y1884.467
X351.413 Y1884.178
X350.743 Y1883.87
X350.081 Y1883.543
X349.429 Y1883.198
X348.787 Y1882.835
X348.155 Y1882.454
X347.535 Y1882.055
X346.926 Y1881.638
X346.329 Y1881.205
X345.744 Y1880.754
X345.173 Y1880.288
X344.615 Y1879.805
X344.07 Y1879.307
X343.54 Y1878.794
X343.025 Y1878.266
X342.525 Y1877.724
X342.04 Y1877.167
X341.571 Y1876.597
X341.119 Y1876.015
X340.683 Y1875.419
X340.264 Y1874.812
X339.862 Y1874.193
X339.478 Y1873.563
X339.112 Y1872.923
X338.763 Y1872.272
X338.433 Y1871.613
X338.122 Y1870.944
X337.829 Y1870.266
X337.556 Y1869.581
X337.302 Y1868.888
X337.067 Y1868.189
X336.853 Y1867.483
X336.658 Y1866.771
X336.484 Y1866.054
X336.329 Y1865.333
X336.195 Y1864.607
X336.081 Y1863.878
X335.988 Y1863.146
X335.916 Y1862.412
X335.864 Y1861.676
X335.833 Y1860.939
X335.823 Y1860.201
X335.833 Y1859.464
X335.864 Y1858.726
X335.916 Y1857.99
X335.988 Y1857.256
X336.08 Y1856.524
X336.192 Y1855.795
X336.326 Y1855.069
X336.479 Y1854.347
X336.653 Y1853.63
X336.847 Y1852.918
X337.06 Y1852.212
X337.294 Y1851.512
X337.546 Y1850.819
X337.818 Y1850.133
X338.109 Y1849.455
X338.419 Y1848.786
X338.748 Y1848.125
X339.095 Y1847.474
X339.461 Y1846.833
X339.844 Y1846.203
X340.245 Y1845.583
X340.663 Y1844.975
X341.098 Y1844.379
X341.549 Y1843.795
X342.016 Y1843.224
X342.499 Y1842.667
X342.997 Y1842.122
X343.51 Y1841.592
X344.038 Y1841.077
X344.58 Y1840.576
X345.136 Y1840.091
X345.706 Y1839.622
X346.288 Y1839.169
X346.883 Y1838.732
X347.489 Y1838.312
X348.107 Y1837.909
X348.736 Y1837.524
X349.376 Y1837.156
X350.026 Y1836.807
X350.685 Y1836.476
X351.354 Y1836.163
X352.03 Y1835.87
X352.715 Y1835.595
X353.408 Y1835.34
X354.107 Y1835.104
X354.812 Y1834.888
X355.523 Y1834.691
X356.239 Y1834.514
X356.96 Y1834.357
X357.685 Y1834.22
X358.414 Y1834.104
X359.146 Y1834.008
X359.879 Y1833.933
X360.615 Y1833.878
X361.352 Y1833.844
X362.09 Y1833.83
X362.828 Y1833.837
X363.565 Y1833.864
X364.301 Y1833.912
X365.036 Y1833.981
X365.768 Y1834.07
X366.498 Y1834.18
X367.224 Y1834.31
X367.947 Y1834.46
X368.664 Y1834.631
X369.377 Y1834.821
X370.085 Y1835.031
X370.786 Y1835.26
X371.481 Y1835.508
X372.168 Y1835.776
X372.848 Y1836.062
X373.52 Y1836.367
X374.183 Y1836.691
X374.837 Y1837.034
X375.48 Y1837.394
X376.114 Y1837.771
X376.737 Y1838.166
X377.35 Y1838.578
X377.95 Y1839.007
X378.538 Y1839.452
X379.114 Y1839.913
X379.677 Y1840.391
X380.227 Y1840.883
X380.762 Y1841.39
X381.284 Y1841.912
X381.791 Y1842.448
X382.283 Y1842.998
X382.76 Y1843.561
X383.221 Y1844.136
X383.667 Y1844.724
X384.097 Y1845.324
X384.51 Y1845.936
X384.906 Y1846.558
X385.284 Y1847.191
X385.646 Y1847.835
X385.989 Y1848.488
X386.315 Y1849.15
X386.622 Y1849.821
X386.911 Y1850.499
X387.182 Y1851.186
X387.433 Y1851.879
X387.666 Y1852.58
X387.879 Y1853.286
X388.072 Y1853.998
X388.246 Y1854.715
X388.4 Y1855.437
X388.535 Y1856.162
X388.649 Y1856.891
X388.744 Y1857.623
X388.818 Y1858.357
X388.873 Y1859.093
X388.907 Y1859.83
X388.921 Y1860.567
X388.915 Y1861.305
X388.889 Y1862.042
X388.843 Y1862.779
X388.776 Y1863.514
X388.689 Y1864.246
X388.582 Y1864.976
X388.456 Y1865.703
X388.309 Y1866.426
X388.143 Y1867.145
X387.957 Y1867.859
X387.751 Y1868.568
X387.526 Y1869.27
X387.281 Y1869.966
X387.018 Y1870.655
X386.735 Y1871.337
X386.434 Y1872.011
X386.115 Y1872.676
X385.777 Y1873.332
X385.422 Y1873.979
X385.05 Y1874.615
X384.66 Y1875.242
X384.253 Y1875.857
X383.829 Y1876.461
X383.389 Y1877.054
X382.933 Y1877.634
X382.461 Y1878.201
X381.974 Y1878.755
X381.472 Y1879.295
X380.955 Y1879.822
X380.424 Y1880.334
X379.879 Y1880.832
X379.321 Y1881.314
X378.75 Y1881.781
X378.166 Y1882.232
X377.57 Y1882.667
X376.962 Y1883.085
X376.343 Y1883.487
X375.713 Y1883.871
X375.073 Y1884.238
X374.423 Y1884.588
X373.764 Y1884.92
X373.097 Y1885.233
X372.421 Y1885.529
X371.737 Y1885.806
X371.046 Y1886.064
X370.348 Y1886.303
X369.643 Y1886.523
X368.933 Y1886.724
X368.218 Y1886.905
X367.498 Y1887.067
X366.774 Y1887.209
X366.047 Y1887.331
X365.316 Y1887.434
X364.583 Y1887.516
X363.848 Y1887.578
X363.111 Y1887.62
X362.373 Y1887.642
X361.636 Y1887.644
X360.898 Y1887.626
X360.161 Y1887.588
X359.426 Y1887.53
X358.692 Y1887.452
X357.961 Y1887.354
X357.232 Y1887.237
X356.507 Y1887.1
X355.786 Y1886.943
X355.07 Y1886.767
X354.358 Y1886.572
X353.652 Y1886.357
X352.953 Y1886.124
X352.259 Y1885.871
X351.573 Y1885.6
X350.894 Y1885.311
X350.224 Y1885.003
X349.561 Y1884.678
X348.909 Y1884.334
X348.265 Y1883.973
X347.632 Y1883.595
X347.009 Y1883.2
X346.396 Y1882.788
X345.796 Y1882.359
X345.207 Y1881.915
X344.63 Y1881.455
X344.066 Y1880.979
X343.515 Y1880.489
X342.977 Y1879.984
X342.453 Y1879.465
X341.943 Y1878.932
X341.447 Y1878.385
X340.967 Y1877.825
X340.501 Y1877.252
X340.052 Y1876.667
X339.618 Y1876.071
X339.2 Y1875.462
X338.799 Y1874.843
X338.414 Y1874.214
X338.047 Y1873.574
X337.697 Y1872.924
X337.364 Y1872.266
X337.05 Y1871.598
X336.753 Y1870.923
X336.475 Y1870.239
X336.215 Y1869.549
X335.974 Y1868.851
X335.751 Y1868.148
X335.548 Y1867.439
X335.363 Y1866.724
X335.198 Y1866.005
X335.051 Y1865.282
X334.925 Y1864.555
X334.817 Y1863.825
X334.73 Y1863.093
X334.662 Y1862.358
X334.614 Y1861.622
X334.586 Y1860.885
X334.577 Y1860.147
X334.588 Y1859.409
X334.618 Y1858.672
X334.669 Y1857.936
X334.739 Y1857.201
X334.829 Y1856.469
X334.938 Y1855.739
X335.067 Y1855.013
X335.216 Y1854.29
X335.383 Y1853.572
X335.57 Y1852.858
X335.776 Y1852.149
X336.001 Y1851.447
X336.244 Y1850.75
X336.506 Y1850.06
X336.785 Y1849.378
X337.084 Y1848.703
X337.4 Y1848.036
X337.734 Y1847.378
X338.085 Y1846.729
X338.454 Y1846.09
X338.839 Y1845.461
X339.241 Y1844.843
X339.66 Y1844.235
X340.094 Y1843.639
X340.545 Y1843.054
X341.011 Y1842.482
X341.492 Y1841.923
X341.988 Y1841.376
X342.498 Y1840.844
X343.022 Y1840.324
X343.56 Y1839.82
X344.112 Y1839.329
X344.676 Y1838.854
X345.253 Y1838.394
X345.841 Y1837.949
X346.442 Y1837.52
X347.053 Y1837.107
X347.676 Y1836.711
X348.308 Y1836.331
X348.951 Y1835.969
X349.603 Y1835.624
X350.264 Y1835.296
X350.934 Y1834.986
X351.611 Y1834.695
X352.297 Y1834.421
X352.989 Y1834.166
X353.688 Y1833.929
X354.393 Y1833.711
X355.103 Y1833.512
X355.819 Y1833.332
X356.539 Y1833.171
X357.263 Y1833.03
X357.99 Y1832.908
X358.721 Y1832.805
X359.454 Y1832.722
X360.189 Y1832.659
X360.926 Y1832.615
X361.663 Y1832.59
X362.401 Y1832.586
X363.139 Y1832.6
X363.876 Y1832.635
X364.612 Y1832.689
X365.346 Y1832.763
X366.078 Y1832.856
X366.807 Y1832.969
X367.533 Y1833.101
X368.255 Y1833.252
X368.973 Y1833.423
X369.686 Y1833.612
X370.393 Y1833.821
X371.095 Y1834.048
X371.791 Y1834.293
X372.48 Y1834.558
X373.162 Y1834.84
X373.836 Y1835.14
X374.501 Y1835.458
X375.159 Y1835.794
X375.807 Y1836.146
X376.445 Y1836.516
X377.074 Y1836.902
X377.692 Y1837.305
X378.299 Y1837.724
X378.896 Y1838.158
X379.48 Y1838.609
X380.053 Y1839.074
X380.613 Y1839.554
X381.16 Y1840.049
X381.694 Y1840.558
X382.214 Y1841.081
X382.721 Y1841.618
X383.213 Y1842.167
X383.691 Y1842.729
X384.154 Y1843.304
X384.602 Y1843.891
X385.034 Y1844.489
X385.45 Y1845.098
X385.85 Y1845.718
X386.234 Y1846.348
X386.601 Y1846.988
X386.952 Y1847.637
X387.285 Y1848.295
X387.601 Y1848.962
X387.9 Y1849.636
X388.181 Y1850.318
X388.444 Y1851.008
X388.689 Y1851.704
X388.916 Y1852.406
X389.124 Y1853.114
X389.314 Y1853.827
X389.485 Y1854.544
X389.637 Y1855.266
X389.77 Y1855.992
X389.884 Y1856.721
X389.98 Y1857.453
X390.055 Y1858.187
X390.112 Y1858.922
X390.149 Y1859.659
X390.167 Y1860.397
X390.165 Y1861.135
X390.144 Y1861.872
X390.104 Y1862.609
X390.045 Y1863.344
X389.966 Y1864.078
X389.868 Y1864.809
X389.751 Y1865.537
X389.615 Y1866.263
X389.46 Y1866.984
X389.287 Y1867.701
X389.094 Y1868.413
X388.883 Y1869.12
X388.654 Y1869.822
X388.406 Y1870.517
X388.14 Y1871.205
X387.856 Y1871.886
X387.554 Y1872.559
X387.235 Y1873.224
X386.898 Y1873.881
X386.544 Y1874.528
X386.174 Y1875.166
X385.786 Y1875.794
X385.383 Y1876.412
X384.963 Y1877.019
X384.528 Y1877.614
X384.077 Y1878.198
X383.611 Y1878.77
X383.13 Y1879.33
X382.635 Y1879.877
X382.125 Y1880.411
X381.602 Y1880.931
X381.066 Y1881.438
X380.516 Y1881.93
X379.954 Y1882.408
X379.38 Y1882.87
X378.793 Y1883.318
X378.195 Y1883.75
X377.586 Y1884.167
X376.966 Y1884.567
X376.336 Y1884.951
X375.697 Y1885.319
X375.047 Y1885.669
X374.389 Y1886.003
X373.723 Y1886.319
X373.048 Y1886.617
X372.366 Y1886.898
X371.676 Y1887.161
X370.98 Y1887.406
X370.278 Y1887.633
X369.57 Y1887.841
X368.857 Y1888.031
X368.14 Y1888.202
X367.418 Y1888.354
X366.692 Y1888.488
X365.963 Y1888.603
X365.232 Y1888.698
X364.498 Y1888.775
X363.762 Y1888.833
X363.025 Y1888.871
X362.288 Y1888.89
X361.55
X360.812 Y1888.871
X360.076 Y1888.832
X359.34 Y1888.775
X358.606 Y1888.698
X357.875 Y1888.602
X357.146 Y1888.488
X356.42 Y1888.354
X355.698 Y1888.202
X354.981 Y1888.031
X354.267 Y1887.842
X353.56 Y1887.634
X352.857 Y1887.408
X352.161 Y1887.164
X351.471 Y1886.902
X350.788 Y1886.622
X350.113 Y1886.325
X349.445 Y1886.011
X348.786 Y1885.68
X348.136 Y1885.331
X347.495 Y1884.966
X346.863 Y1884.585
X346.242 Y1884.187
X345.63 Y1883.774
X345.03 Y1883.344
X344.441 Y1882.9
X343.864 Y1882.44
X343.299 Y1881.966
X342.747 Y1881.477
X342.207 Y1880.974
X341.68 Y1880.457
X341.167 Y1879.927
X340.668 Y1879.384
X340.182 Y1878.828
X339.712 Y1878.26
X339.256 Y1877.68
X338.815 Y1877.089
X338.389 Y1876.486
X337.979 Y1875.873
X337.584 Y1875.249
X337.206 Y1874.616
X336.844 Y1873.973
X336.499 Y1873.32
X336.171 Y1872.66
X335.86 Y1871.991
X335.566 Y1871.314
X335.289 Y1870.63
X335.03 Y1869.939
X334.789 Y1869.242
X334.566 Y1868.539
X334.361 Y1867.83
X334.175 Y1867.116
X334.006 Y1866.398
X333.857 Y1865.675
X333.726 Y1864.949
X333.613 Y1864.22
X333.52 Y1863.488
X333.445 Y1862.754
X333.389 Y1862.018
X333.352 Y1861.281
X333.333 Y1860.544
Y1859.806
X333.353 Y1859.068
X333.391 Y1858.332
X333.448 Y1857.596
X333.523 Y1856.862
X333.618 Y1856.13
X333.731 Y1855.401
X333.863 Y1854.675
X334.013 Y1853.953
X334.182 Y1853.235
X334.369 Y1852.521
X334.574 Y1851.812
X334.798 Y1851.109
X335.039 Y1850.412
X335.298 Y1849.721
X335.575 Y1849.037
X335.87 Y1848.361
X336.181 Y1847.692
X336.509 Y1847.031
X336.855 Y1846.379
X337.217 Y1845.736
X337.595 Y1845.103
X337.989 Y1844.479
X338.399 Y1843.865
X338.824 Y1843.262
X339.265 Y1842.671
X339.72 Y1842.09
X340.191 Y1841.522
X340.675 Y1840.966
X341.174 Y1840.422
X341.687 Y1839.891
X342.212 Y1839.374
X342.751 Y1838.87
X343.303 Y1838.38
X343.867 Y1837.904
X344.443 Y1837.443
X345.03 Y1836.997
X345.629 Y1836.566
X346.239 Y1836.15
X346.859 Y1835.75
X347.489 Y1835.367
X348.129 Y1834.999
X348.778 Y1834.648
X349.436 Y1834.313
X350.102 Y1833.996
X350.775 Y1833.695
X351.457 Y1833.412
X352.145 Y1833.146
X352.84 Y1832.898
X353.541 Y1832.668
X354.247 Y1832.456
X354.959 Y1832.261
X355.676 Y1832.085
X356.397 Y1831.928
X357.121 Y1831.789
X357.849 Y1831.668
X358.58 Y1831.566
X359.313 Y1831.482
X360.048 Y1831.418
X360.784 Y1831.372
X361.521 Y1831.345
X362.259 Y1831.338
X362.997 Y1831.348
X363.734 Y1831.378
X364.47 Y1831.426
X365.205 Y1831.494
X365.938 Y1831.579
X366.668 Y1831.684
X367.396 Y1831.807
X368.12 Y1831.948
X368.84 Y1832.108
X369.556 Y1832.286
X370.268 Y1832.482
X370.974 Y1832.697
X371.674 Y1832.929
X372.368 Y1833.178
X373.056 Y1833.446
X373.737 Y1833.73
X374.41 Y1834.032
X375.076 Y1834.35
X375.733 Y1834.686
X376.381 Y1835.038
X377.021 Y1835.406
X377.65 Y1835.79
X378.27 Y1836.191
X378.88 Y1836.606
X379.478 Y1837.037
X380.066 Y1837.483
X380.643 Y1837.944
X381.207 Y1838.419
X381.76 Y1838.908
X382.3 Y1839.411
X382.827 Y1839.927
X383.341 Y1840.456
X383.842 Y1840.998
X384.329 Y1841.552
X384.802 Y1842.118
X385.261 Y1842.696
X385.705 Y1843.286
X386.134 Y1843.886
X386.548 Y1844.496
X386.946 Y1845.117
X387.329 Y1845.748
X387.696 Y1846.388
X388.047 Y1847.037
X388.381 Y1847.695
X388.699 Y1848.361
X389. Y1849.034
X389.284 Y1849.715
X389.551 Y1850.403
X389.8 Y1851.098
X390.032 Y1851.798
X390.247 Y1852.504
X390.444 Y1853.215
X390.623 Y1853.931
X390.784 Y1854.651
X390.927 Y1855.375
X391.051 Y1856.102
X391.158 Y1856.832
X391.246 Y1857.564
X391.316 Y1858.299
X391.367 Y1859.035
X391.4 Y1859.772
X391.415 Y1860.51
X391.411 Y1861.248
X391.388 Y1861.985
X391.347 Y1862.722
X391.288 Y1863.457
X391.21 Y1864.191
X391.113 Y1864.922
X390.998 Y1865.651
X390.865 Y1866.377
X390.714 Y1867.099
X390.544 Y1867.817
X390.357 Y1868.531
X390.151 Y1869.239
X389.928 Y1869.943
X389.688 Y1870.64
X389.43 Y1871.331
X389.155 Y1872.016
X388.862 Y1872.693
X388.553 Y1873.363
X388.227 Y1874.025
X387.885 Y1874.679
X387.526 Y1875.323
X387.151 Y1875.959
X386.761 Y1876.585
X386.355 Y1877.201
X385.933 Y1877.807
X385.497 Y1878.401
X385.045 Y1878.985
X384.58 Y1879.557
X384.1 Y1880.118
X383.606 Y1880.666
X383.098 Y1881.201
X382.577 Y1881.724
X382.043 Y1882.233
X381.497 Y1882.729
X380.938 Y1883.211
X380.368 Y1883.678
X379.786 Y1884.132
X379.192 Y1884.571
X378.588 Y1884.994
X377.974 Y1885.403
X377.35 Y1885.796
X376.716 Y1886.173
X376.072 Y1886.535
X375.42 Y1886.88
X374.76 Y1887.209
X374.091 Y1887.521
X373.415 Y1887.816
X372.732 Y1888.094
X372.042 Y1888.356
X371.345 Y1888.6
X370.643 Y1888.826
X369.936 Y1889.035
X369.223 Y1889.226
X368.506 Y1889.399
X367.784 Y1889.554
X367.059 Y1889.691
X366.331 Y1889.81
X366.118 Y1889.839
X366.084 Y1889.843
X366.051 Y1889.845
X366.017 Y1889.846
X358.991
X358.254 Y1889.809
X357.518 Y1889.757
X356.786 Y1889.663
X356.059 Y1889.539
X355.336 Y1889.391
X354.618 Y1889.222
X353.905 Y1889.034
X353.197 Y1888.827
X352.494 Y1888.602
X351.797 Y1888.36
X351.106 Y1888.1
X350.423 Y1887.823
X349.746 Y1887.529
X349.077 Y1887.219
X348.415 Y1886.892
X347.762 Y1886.548
X347.117 Y1886.189
X346.482 Y1885.814
X345.856 Y1885.424
X345.24 Y1885.018
X344.634 Y1884.597
X344.039 Y1884.161
X343.454 Y1883.71
X342.881 Y1883.246
X342.32 Y1882.767
X341.771 Y1882.274
X341.234 Y1881.768
X340.709 Y1881.249
X340.198 Y1880.718
X339.7 Y1880.173
X339.215 Y1879.617
X338.744 Y1879.049
X338.287 Y1878.469
X337.845 Y1877.879
X337.418 Y1877.277
X337.006 Y1876.666
X336.608 Y1876.044
X336.227 Y1875.412
X335.86 Y1874.772
X335.51 Y1874.123
X335.176 Y1873.465
X334.858 Y1872.799
X334.556 Y1872.126
X334.271 Y1871.445
X334.003 Y1870.758
X333.752 Y1870.064
X333.518 Y1869.364
X333.301 Y1868.659
X333.102 Y1867.949
X332.92 Y1867.234
X332.755 Y1866.514
X332.609 Y1865.791
X332.596 Y1865.717
X332.59 Y1865.675
X332.586 Y1865.631
X332.585 Y1865.588
Y1856.045
X332.621 Y1855.308
X332.684 Y1854.573
X332.798 Y1853.844
X332.945 Y1853.121
X333.118 Y1852.404
X333.314 Y1851.692
X333.529 Y1850.986
X333.762 Y1850.286
X334.013 Y1849.593
X334.281 Y1848.905
X334.567 Y1848.225
X334.869 Y1847.552
X335.187 Y1846.886
X335.521 Y1846.228
X335.872 Y1845.579
X336.238 Y1844.939
X336.62 Y1844.307
X337.017 Y1843.685
X337.429 Y1843.073
X337.856 Y1842.472
X338.298 Y1841.881
X338.754 Y1841.3
X339.224 Y1840.732
X339.707 Y1840.175
X340.205 Y1839.63
X340.716 Y1839.097
X341.239 Y1838.578
X341.776 Y1838.071
X342.324 Y1837.578
X342.885 Y1837.098
X343.457 Y1836.632
X344.04 Y1836.18
X344.634 Y1835.743
X345.239 Y1835.32
X345.854 Y1834.912
X346.479 Y1834.52
X347.113 Y1834.142
X347.756 Y1833.781
X348.408 Y1833.435
X349.068 Y1833.105
X349.736 Y1832.792
X350.411 Y1832.495
X351.093 Y1832.214
X351.782 Y1831.95
X352.478 Y1831.703
X353.179 Y1831.473
X353.885 Y1831.26
X354.597 Y1831.065
X355.313 Y1830.888
X356.033 Y1830.728
X356.529 Y1830.631
X356.577 Y1830.623
X356.624 Y1830.618
X356.672 Y1830.617
X366.531
X367.268 Y1830.654
X368.003 Y1830.723
X368.731 Y1830.841
X369.453 Y1830.993
X370.17 Y1831.17
X370.88 Y1831.368
X371.585 Y1831.586
X372.284 Y1831.822
X372.977 Y1832.076
X373.663 Y1832.346
X374.343 Y1832.633
X375.015 Y1832.937
X375.68 Y1833.257
X376.337 Y1833.593
X376.986 Y1833.945
X377.625 Y1834.313
X378.256 Y1834.696
X378.877 Y1835.094
X379.488 Y1835.508
X380.088 Y1835.936
X380.679 Y1836.379
X381.258 Y1836.836
X381.826 Y1837.306
X382.383 Y1837.791
X382.928 Y1838.288
X383.461 Y1838.798
X383.981 Y1839.321
X384.489 Y1839.857
X384.984 Y1840.404
X385.465 Y1840.963
X385.933 Y1841.534
X386.387 Y1842.115
X386.827 Y1842.708
X387.253 Y1843.31
X387.664 Y1843.923
X388.06 Y1844.545
X388.441 Y1845.177
X388.807 Y1845.818
X389.158 Y1846.467
X389.493 Y1847.124
X389.811 Y1847.79
X390.114 Y1848.463
X390.4 Y1849.143
X390.669 Y1849.83
X390.922 Y1850.523
X391.158 Y1851.222
X391.378 Y1851.926
X391.58 Y1852.636
X391.766 Y1853.35
X391.794 Y1853.471
X391.805 Y1853.527
X391.811 Y1853.583
X391.814 Y1853.64
Y1866.595
X391.777 Y1867.332
X391.684 Y1868.064
X391.537 Y1868.787
X391.353 Y1869.501
X391.143 Y1870.209
X390.911 Y1870.909
X390.659 Y1871.603
X390.39 Y1872.289
X390.103 Y1872.969
X389.8 Y1873.642
X389.481 Y1874.307
X389.146 Y1874.964
X388.795 Y1875.613
X388.428 Y1876.254
X388.046 Y1876.885
X387.649 Y1877.507
X387.238 Y1878.119
X386.811 Y1878.721
X386.371 Y1879.313
X385.916 Y1879.894
X385.447 Y1880.464
X384.965 Y1881.023
X384.47 Y1881.569
X383.961 Y1882.104
X383.44 Y1882.626
X382.907 Y1883.136
X382.361 Y1883.632
X381.803 Y1884.115
X381.234 Y1884.585
X380.654 Y1885.04
X380.062 Y1885.482
X379.461 Y1885.909
X378.849 Y1886.322
X378.228 Y1886.72
X377.598 Y1887.103
X376.958 Y1887.471
X376.31 Y1887.823
X375.653 Y1888.16
X374.989 Y1888.481
X374.317 Y1888.786
X373.638 Y1889.074
X372.952 Y1889.347
X372.26 Y1889.603
X371.669 Y1889.806
X371.59 Y1889.828
X371.51 Y1889.841
X371.428 Y1889.846
X366.017
G3 X365.84 Y1889.273 I0.011 J-0.317
G1 X365.897 Y1889.231 Z39.508
X365.951 Y1889.191 Z39.531
X366. Y1889.155 Z39.569
X366.04 Y1889.126 Z39.62
X366.071 Y1889.103 Z39.68
X366.09 Y1889.089 Z39.747
X366.096 Y1889.085 Z39.818
G0 Z46.
X391.43 Y1865.568
Z40.135
G1 Z39.818 F1016.
X391.434 Y1865.575 Z39.747
X391.446 Y1865.596 Z39.68
X391.465 Y1865.628 Z39.62
X391.491 Y1865.671 Z39.569
X391.522 Y1865.723 Z39.531
X391.556 Y1865.781 Z39.508
X391.592 Y1865.841 Z39.5
G3 X391.814 Y1866.595 I-1.36 J0.809
G1 Y1870.782
X391.793 Y1871.189
X391.735 Y1871.634
X391.607 Y1872.231
X391.395 Y1872.938
X391.136 Y1873.629
X390.846 Y1874.307
X390.532 Y1874.975
X390.199 Y1875.633
X389.849 Y1876.282
X389.482 Y1876.923
X389.101 Y1877.554
X388.704 Y1878.177
X388.294 Y1878.79
X387.868 Y1879.393
X387.43 Y1879.986
X386.977 Y1880.568
X386.511 Y1881.14
X386.032 Y1881.701
X385.54 Y1882.251
X385.035 Y1882.79
X384.518 Y1883.316
X383.99 Y1883.831
X383.449 Y1884.333
X382.897 Y1884.822
X382.333 Y1885.299
X381.759 Y1885.762
X381.174 Y1886.212
X380.58 Y1886.648
X379.975 Y1887.071
X379.36 Y1887.479
X378.737 Y1887.874
X378.104 Y1888.254
X377.463 Y1888.619
X376.814 Y1888.969
X376.157 Y1889.305
X375.492 Y1889.625
X375.151 Y1889.78
X375.052 Y1889.816
X374.949 Y1889.838
X374.845 Y1889.846
X371.428
G3 X371.252 Y1889.273 I0.011 J-0.317
G1 X371.309 Y1889.231 Z39.508
X371.363 Y1889.191 Z39.531
X371.411 Y1889.155 Z39.569
X371.452 Y1889.126 Z39.62
X371.482 Y1889.103 Z39.68
X371.501 Y1889.089 Z39.747
X371.508 Y1889.085 Z39.818
G0 Z46.
X391.43 Y1869.755
Z40.135
G1 Z39.818 F1016.
X391.434 Y1869.762 Z39.747
X391.446 Y1869.782 Z39.68
X391.465 Y1869.815 Z39.62
X391.491 Y1869.858 Z39.569
X391.522 Y1869.91 Z39.531
X391.556 Y1869.967 Z39.508
X391.592 Y1870.028 Z39.5
G3 X391.814 Y1870.782 I-1.36 J0.809
G1 Y1873.796
X391.794 Y1874.192
X391.75 Y1874.526
X391.658 Y1874.953
X391.491 Y1875.514
X391.223 Y1876.201
X390.906 Y1876.868
X390.558 Y1877.518
X390.186 Y1878.155
X389.796 Y1878.781
X389.389 Y1879.397
X388.967 Y1880.003
X388.532 Y1880.598
X388.083 Y1881.184
X387.621 Y1881.759
X387.146 Y1882.323
X386.658 Y1882.877
X386.159 Y1883.42
X385.647 Y1883.952
X385.124 Y1884.472
X384.59 Y1884.981
X384.044 Y1885.477
X383.487 Y1885.961
X382.92 Y1886.433
X382.342 Y1886.892
X381.754 Y1887.338
X381.157 Y1887.771
X380.55 Y1888.19
X379.934 Y1888.597
X379.309 Y1888.989
X378.676 Y1889.367
X378.034 Y1889.732
X377.987 Y1889.757
X377.875 Y1889.806
X377.757 Y1889.836
X377.635 Y1889.846
X374.845
G3 X374.668 Y1889.273 I0.011 J-0.317
G1 X374.725 Y1889.231 Z39.508
X374.779 Y1889.191 Z39.531
X374.827 Y1889.155 Z39.569
X374.868 Y1889.126 Z39.62
X374.899 Y1889.103 Z39.68
X374.917 Y1889.089 Z39.747
X374.924 Y1889.085 Z39.818
G0 Z46.
X391.43 Y1872.769
Z40.135
G1 Z39.818 F1016.
X391.434 Y1872.776 Z39.747
X391.446 Y1872.796 Z39.68
X391.465 Y1872.829 Z39.62
X391.491 Y1872.872 Z39.569
X391.522 Y1872.924 Z39.531
X391.556 Y1872.982 Z39.508
X391.592 Y1873.042 Z39.5
G3 X391.814 Y1873.796 I-1.36 J0.809
G1 Y1876.475
X391.799 Y1876.764
X391.763 Y1877.041
X391.687 Y1877.395
X391.56 Y1877.818
X391.342 Y1878.378
X391.02 Y1879.042
X390.653 Y1879.682
X390.257 Y1880.304
X389.839 Y1880.912
X389.404 Y1881.508
X388.954 Y1882.092
X388.49 Y1882.666
X388.014 Y1883.23
X387.525 Y1883.783
X387.025 Y1884.325
X386.513 Y1884.856
X385.989 Y1885.376
X385.455 Y1885.885
X384.91 Y1886.382
X384.354 Y1886.867
X383.787 Y1887.34
X383.211 Y1887.801
X382.625 Y1888.249
X382.03 Y1888.685
X381.425 Y1889.108
X380.812 Y1889.518
X380.479 Y1889.73
X380.355 Y1889.793
X380.22 Y1889.833
X380.081 Y1889.846
X377.635
G3 X377.459 Y1889.273 I0.011 J-0.317
G1 X377.516 Y1889.231 Z39.508
X377.57 Y1889.191 Z39.531
X377.618 Y1889.155 Z39.569
X377.659 Y1889.126 Z39.62
X377.689 Y1889.103 Z39.68
X377.708 Y1889.089 Z39.747
X377.715 Y1889.085 Z39.818
G0 Z46.
X391.43 Y1875.449
Z40.135
G1 Z39.818 F1016.
X391.434 Y1875.456 Z39.747
X391.446 Y1875.476 Z39.68
X391.465 Y1875.508 Z39.62
X391.491 Y1875.552 Z39.569
X391.522 Y1875.603 Z39.531
X391.556 Y1875.661 Z39.508
X391.592 Y1875.722 Z39.5
G3 X391.814 Y1876.475 I-1.36 J0.809
G1 Y1878.82
X391.801 Y1879.074
X391.768 Y1879.321
X391.703 Y1879.628
X391.596 Y1879.983
X391.418 Y1880.442
X391.129 Y1881.037
X390.755 Y1881.673
X390.342 Y1882.285
X389.904 Y1882.878
X389.447 Y1883.458
X388.975 Y1884.024
X388.489 Y1884.579
X387.99 Y1885.123
X387.48 Y1885.656
X386.959 Y1886.178
X386.426 Y1886.689
X385.883 Y1887.189
X385.33 Y1887.677
X384.767 Y1888.154
X384.194 Y1888.619
X383.612 Y1889.071
X383.02 Y1889.512
X382.745 Y1889.708
X382.613 Y1889.784
X382.467 Y1889.83
X382.315 Y1889.846
X380.081
G3 X379.904 Y1889.273 I0.011 J-0.317
G1 X379.961 Y1889.231 Z39.508
X380.015 Y1889.191 Z39.531
X380.064 Y1889.155 Z39.569
X380.104 Y1889.126 Z39.62
X380.135 Y1889.103 Z39.68
X380.154 Y1889.089 Z39.747
X380.16 Y1889.085 Z39.818
G0 Z46.
X391.43 Y1877.793
Z40.135
G1 Z39.818 F1016.
X391.434 Y1877.8 Z39.747
X391.446 Y1877.82 Z39.68
X391.465 Y1877.853 Z39.62
X391.491 Y1877.896 Z39.569
X391.522 Y1877.948 Z39.531
X391.556 Y1878.006 Z39.508
X391.592 Y1878.066 Z39.5
G3 X391.814 Y1878.82 I-1.36 J0.809
G1 Y1880.997
X391.803 Y1881.207
X391.773 Y1881.437
X391.715 Y1881.71
X391.62 Y1882.026
X391.465 Y1882.423
X391.224 Y1882.92
X390.85 Y1883.556
X390.427 Y1884.161
X389.973 Y1884.742
X389.498 Y1885.307
X389.007 Y1885.857
X388.502 Y1886.395
X387.984 Y1886.922
X387.456 Y1887.436
X386.917 Y1887.94
X386.367 Y1888.433
X385.808 Y1888.914
X385.239 Y1889.384
X384.859 Y1889.685
X384.719 Y1889.773
X384.563 Y1889.827
X384.399 Y1889.846
X382.315
G3 X382.11 Y1889.296 I0.011 J-0.317
G1 X382.137 Y1889.271
X391.236 Y1880.816
X391.28 Y1880.775
G3 X391.814 Y1880.997 I0.216 J0.233
G1 Y1883.006
X391.803 Y1883.218
X391.774 Y1883.437
X391.722 Y1883.682
X391.635 Y1883.973
X391.497 Y1884.326
X391.289 Y1884.755
X390.97 Y1885.297
X390.546 Y1885.901
X390.083 Y1886.476
X389.596 Y1887.03
X389.091 Y1887.567
X388.571 Y1888.091
X388.039 Y1888.602
X387.496 Y1889.102
X386.943 Y1889.59
X386.848 Y1889.67
X386.703 Y1889.766
X386.541 Y1889.826
X386.369 Y1889.846
X384.399
G3 X384.171 Y1889.307 I0. J-0.318
G1 X384.2 Y1889.277
X391.092 Y1882.194
G3 X391.592 Y1882.253 I0.228 J0.221
X391.814 Y1883.006 I-1.36 J0.809
G1 Y1884.941
X391.804 Y1885.127
X391.777 Y1885.334
X391.729 Y1885.558
X391.646 Y1885.835
X391.523 Y1886.152
X391.333 Y1886.543
X391.056 Y1887.014
X390.632 Y1887.618
X390.162 Y1888.187
X389.664 Y1888.731
X389.146 Y1889.256
X388.744 Y1889.64
X388.593 Y1889.752
X388.419 Y1889.822
X388.232 Y1889.846
G3 X387.984 Y1889.345 I0.011 J-0.317
G1 X388.043 Y1889.262
X391.237 Y1884.768
G3 X391.814 Y1884.941 I0.259 J0.184
G1 Y1886.691
X391.799 Y1886.973
X391.775 Y1887.157
X391.729 Y1887.373
X391.649 Y1887.639
X391.537 Y1887.927
X391.362 Y1888.288
X391.115 Y1888.708
X390.733 Y1889.251
X390.462 Y1889.578
X390.301 Y1889.723
X390.106 Y1889.814
X389.892 Y1889.846
G3 X389.626 Y1889.373 I0.011 J-0.317
G1 X389.693 Y1889.255
X391.22 Y1886.546
G3 X391.814 Y1886.691 I0.277 J0.156
G1 Y1888.533
X391.804 Y1888.728
X391.781 Y1888.906
X391.737 Y1889.109
X391.682 Y1889.293
X391.65 Y1889.374
X391.54 Y1889.566
X391.378 Y1889.717
X391.179 Y1889.813
X390.96 Y1889.846
G3 X390.691 Y1889.379 I0.011 J-0.317
G1 X390.758 Y1889.254
X391.216 Y1888.395
G3 X391.814 Y1888.533 I0.28 J0.149
G1 X391.813 Y1889.538
X391.808 Y1889.579
X391.796 Y1889.621
X391.779 Y1889.663
X391.753 Y1889.705
X391.733 Y1889.729
X391.709 Y1889.753
X391.666 Y1889.786
X391.624 Y1889.811
X391.582 Y1889.829
X391.54 Y1889.84
X391.498 Y1889.845
X390.66 Y1889.846
X386.369
G3 X386.192 Y1889.273 I0.011 J-0.317
G1 X386.249 Y1889.231 Z39.508
X386.303 Y1889.191 Z39.531
X386.352 Y1889.155 Z39.569
X386.392 Y1889.126 Z39.62
X386.423 Y1889.103 Z39.68
X386.442 Y1889.089 Z39.747
X386.448 Y1889.085 Z39.818
G0 Z46.
X365.505 Y1831.
Z40.135
G1 Z39.818 F1016.
X365.512 Y1830.996 Z39.747
X365.532 Y1830.984 Z39.68
X365.565 Y1830.965 Z39.62
X365.608 Y1830.939 Z39.569
X365.66 Y1830.909 Z39.531
X365.717 Y1830.874 Z39.508
X365.778 Y1830.838 Z39.5
G3 X366.531 Y1830.617 I0.809 J1.36
G1 X371.223
X371.797 Y1830.646
X372.293 Y1830.711
X372.968 Y1830.855
X373.675 Y1831.067
X374.368 Y1831.318
X375.051 Y1831.598
X375.724 Y1831.9
X376.389 Y1832.22
X377.045 Y1832.558
X377.693 Y1832.911
X378.332 Y1833.281
X378.961 Y1833.665
X379.582 Y1834.064
X380.193 Y1834.477
X380.795 Y1834.904
X381.386 Y1835.346
X381.966 Y1835.801
X382.536 Y1836.27
X383.095 Y1836.752
X383.642 Y1837.246
X384.178 Y1837.754
X384.702 Y1838.273
X385.214 Y1838.804
X385.714 Y1839.347
X386.201 Y1839.901
X386.675 Y1840.467
X387.136 Y1841.043
X387.584 Y1841.629
X388.018 Y1842.226
X388.438 Y1842.833
X388.844 Y1843.448
X389.236 Y1844.074
X389.613 Y1844.708
X389.976 Y1845.35
X390.323 Y1846.001
X390.656 Y1846.66
X390.973 Y1847.326
X391.274 Y1847.999
X391.56 Y1848.68
X391.762 Y1849.193
X391.791 Y1849.281
X391.808 Y1849.372
X391.814 Y1849.465
Y1853.64
G3 X391.24 Y1853.817 I-0.317 J-0.011
G1 X391.199 Y1853.76 Z39.508
X391.159 Y1853.705 Z39.531
X391.123 Y1853.657 Z39.569
X391.093 Y1853.616 Z39.62
X391.071 Y1853.586 Z39.68
X391.057 Y1853.567 Z39.747
X391.052 Y1853.561 Z39.818
G0 Z46.
X370.197 Y1831.
Z40.135
G1 Z39.818 F1016.
X370.204 Y1830.996 Z39.747
X370.224 Y1830.984 Z39.68
X370.256 Y1830.965 Z39.62
X370.3 Y1830.939 Z39.569
X370.351 Y1830.909 Z39.531
X370.409 Y1830.874 Z39.508
X370.47 Y1830.838 Z39.5
G3 X371.223 Y1830.617 I0.809 J1.36
G1 X374.574
X374.939 Y1830.635
X375.297 Y1830.682
X375.754 Y1830.78
X376.362 Y1830.962
X377.05 Y1831.23
X377.718 Y1831.541
X378.373 Y1831.882
X379.015 Y1832.245
X379.647 Y1832.625
X380.269 Y1833.022
X380.882 Y1833.434
X381.484 Y1833.86
X382.076 Y1834.3
X382.658 Y1834.754
X383.23 Y1835.22
X383.791 Y1835.699
X384.341 Y1836.191
X384.88 Y1836.695
X385.408 Y1837.21
X385.924 Y1837.737
X386.429 Y1838.276
X386.921 Y1838.825
X387.401 Y1839.385
X387.869 Y1839.956
X388.324 Y1840.537
X388.766 Y1841.128
X389.195 Y1841.728
X389.61 Y1842.338
X390.012 Y1842.957
X390.4 Y1843.584
X390.774 Y1844.22
X391.134 Y1844.864
X391.479 Y1845.516
X391.735 Y1846.026
X391.778 Y1846.132
X391.805 Y1846.244
X391.814 Y1846.358
Y1849.465
G3 X391.24 Y1849.641 I-0.317 J-0.011
G1 X391.199 Y1849.584 Z39.508
X391.159 Y1849.53 Z39.531
X391.123 Y1849.482 Z39.569
X391.093 Y1849.441 Z39.62
X391.071 Y1849.411 Z39.68
X391.057 Y1849.392 Z39.747
X391.052 Y1849.385 Z39.818
G0 Z46.
X373.548 Y1831.
Z40.135
G1 Z39.818 F1016.
X373.555 Y1830.996 Z39.747
X373.575 Y1830.984 Z39.68
X373.608 Y1830.965 Z39.62
X373.651 Y1830.939 Z39.569
X373.703 Y1830.909 Z39.531
X373.76 Y1830.874 Z39.508
X373.821 Y1830.838 Z39.5
G3 X374.574 Y1830.617 I0.809 J1.36
G1 X377.255
X377.609 Y1830.635
X377.898 Y1830.672
X378.268 Y1830.751
X378.718 Y1830.886
X379.316 Y1831.119
X379.98 Y1831.441
X380.622 Y1831.805
X381.248 Y1832.195
X381.861 Y1832.607
X382.462 Y1833.035
X383.052 Y1833.478
X383.631 Y1833.935
X384.2 Y1834.405
X384.758 Y1834.887
X385.306 Y1835.381
X385.843 Y1835.887
X386.37 Y1836.404
X386.885 Y1836.932
X387.388 Y1837.472
X387.88 Y1838.021
X388.36 Y1838.582
X388.828 Y1839.152
X389.284 Y1839.732
X389.727 Y1840.322
X390.157 Y1840.922
X390.575 Y1841.53
X390.979 Y1842.147
X391.37 Y1842.773
X391.709 Y1843.341
X391.767 Y1843.461
X391.802 Y1843.588
X391.814 Y1843.72
Y1846.358
G3 X391.24 Y1846.535 I-0.317 J-0.011
G1 X391.199 Y1846.478 Z39.508
X391.159 Y1846.424 Z39.531
X391.123 Y1846.375 Z39.569
X391.093 Y1846.335 Z39.62
X391.071 Y1846.304 Z39.68
X391.057 Y1846.285 Z39.747
X391.052 Y1846.279 Z39.818
G0 Z46.
X376.229 Y1831.
Z40.135
G1 Z39.818 F1016.
X376.236 Y1830.996 Z39.747
X376.256 Y1830.984 Z39.68
X376.289 Y1830.965 Z39.62
X376.332 Y1830.939 Z39.569
X376.384 Y1830.909 Z39.531
X376.441 Y1830.874 Z39.508
X376.502 Y1830.838 Z39.5
G3 X377.255 Y1830.617 I0.809 J1.36
G1 X379.769
X379.97 Y1830.627
X380.223 Y1830.66
X380.542 Y1830.728
X380.912 Y1830.839
X381.393 Y1831.026
X382.023 Y1831.332
X382.659 Y1831.706
X383.273 Y1832.116
X383.87 Y1832.55
X384.453 Y1833.001
X385.024 Y1833.469
X385.584 Y1833.949
X386.133 Y1834.442
X386.671 Y1834.947
X387.199 Y1835.463
X387.715 Y1835.99
X388.22 Y1836.527
X388.714 Y1837.075
X389.197 Y1837.633
X389.668 Y1838.201
X390.128 Y1838.778
X390.575 Y1839.365
X391.01 Y1839.961
X391.432 Y1840.566
X391.689 Y1840.949
X391.757 Y1841.077
X391.799 Y1841.216
X391.814 Y1841.361
Y1843.72
G3 X391.24 Y1843.897 I-0.317 J-0.011
G1 X391.199 Y1843.84 Z39.508
X391.159 Y1843.786 Z39.531
X391.123 Y1843.738 Z39.569
X391.093 Y1843.697 Z39.62
X391.071 Y1843.667 Z39.68
X391.057 Y1843.648 Z39.747
X391.052 Y1843.641 Z39.818
G0 Z46.
X378.742 Y1831.
Z40.135
G1 Z39.818 F1016.
X378.749 Y1830.996 Z39.747
X378.769 Y1830.984 Z39.68
X378.802 Y1830.965 Z39.62
X378.845 Y1830.939 Z39.569
X378.897 Y1830.909 Z39.531
X378.955 Y1830.874 Z39.508
X379.015 Y1830.838 Z39.5
G3 X379.769 Y1830.617 I0.809 J1.36
G1 X381.947
X382.149 Y1830.627
X382.382 Y1830.657
X382.663 Y1830.718
X382.988 Y1830.815
X383.399 Y1830.975
X383.918 Y1831.227
X384.554 Y1831.601
X385.16 Y1832.022
X385.745 Y1832.471
X386.314 Y1832.942
X386.869 Y1833.428
X387.411 Y1833.928
X387.942 Y1834.44
X388.462 Y1834.963
X388.972 Y1835.497
X389.47 Y1836.042
X389.957 Y1836.596
X390.433 Y1837.16
X390.897 Y1837.733
X391.35 Y1838.315
X391.667 Y1838.739
X391.747 Y1838.875
X391.797 Y1839.025
X391.814 Y1839.182
Y1841.361
G3 X391.262 Y1841.564 I-0.317 J-0.011
G1 X391.239 Y1841.539
X381.766 Y1831.194
X381.724 Y1831.149
G3 X381.947 Y1830.617 I0.234 J-0.214
G1 X383.958
X384.191 Y1830.628
X384.413 Y1830.658
X384.664 Y1830.711
X384.961 Y1830.8
X385.324 Y1830.942
X385.77 Y1831.158
X386.336 Y1831.491
X386.939 Y1831.915
X387.516 Y1832.375
X388.073 Y1832.859
X388.614 Y1833.361
X389.141 Y1833.877
X389.657 Y1834.405
X390.161 Y1834.943
X390.654 Y1835.492
X391.136 Y1836.051
X391.607 Y1836.619
X391.652 Y1836.675
X391.74 Y1836.815
X391.795 Y1836.972
X391.814 Y1837.137
Y1839.182
G3 X391.262 Y1839.385 I-0.317 J-0.011
G1 X391.239 Y1839.36
X383.777 Y1831.195
X383.735 Y1831.148
G3 X383.958 Y1830.617 I0.234 J-0.214
G1 X385.969
X386.12 Y1830.624
X386.333 Y1830.652
X386.56 Y1830.701
X386.84 Y1830.785
X387.167 Y1830.912
X387.567 Y1831.106
X388.056 Y1831.394
X388.66 Y1831.818
X389.231 Y1832.286
X389.778 Y1832.781
X390.307 Y1833.296
X390.821 Y1833.825
X391.322 Y1834.366
X391.627 Y1834.71
X391.729 Y1834.857
X391.792 Y1835.024
X391.814 Y1835.201
G3 X391.302 Y1835.441 I-0.317 J-0.011
G1 X391.232 Y1835.387
X385.792 Y1831.19
X385.786 Y1831.186
G3 X385.969 Y1830.617 I0.194 J-0.251
G1 X387.812
X387.979 Y1830.625
X388.17 Y1830.65
X388.388 Y1830.697
X388.658 Y1830.778
X388.953 Y1830.893
X389.323 Y1831.072
X389.757 Y1831.327
X390.321 Y1831.724
X390.889 Y1832.195
X391.429 Y1832.698
X391.599 Y1832.871
X391.716 Y1833.024
X391.789 Y1833.202
X391.814 Y1833.392
G3 X391.32 Y1833.645 I-0.317 J-0.011
G1 X391.228 Y1833.584
X387.647 Y1831.198
G3 X387.812 Y1830.617 I0.176 J-0.264
G1 X389.655
X389.805 Y1830.624
X389.993 Y1830.653
X390.22 Y1830.708
X390.481 Y1830.792
X390.775 Y1830.915
X391.136 Y1831.1
X391.475 Y1831.311
X391.513 Y1831.339
X391.674 Y1831.502
X391.778 Y1831.707
X391.814 Y1831.935
G3 X391.345 Y1832.203 I-0.317 J-0.011
G1 X391.222 Y1832.136
X389.515 Y1831.213
G3 X389.655 Y1830.617 I0.151 J-0.279
G1 X391.163
X391.332 Y1830.625
X391.521 Y1830.686
X391.676 Y1830.809
X391.778 Y1830.979
X391.814 Y1831.174
G3 X391.312 Y1831.422 I-0.317 J-0.011
G1 X391.23 Y1831.363
X390.99 Y1831.193
G3 X391.163 Y1830.617 I0.184 J-0.259
G1 X391.498
X391.54 Y1830.623
X391.582 Y1830.634
X391.624 Y1830.652
X391.666 Y1830.676
X391.709 Y1830.709
X391.733 Y1830.733
X391.753 Y1830.758
X391.779 Y1830.799
X391.796 Y1830.841
X391.808 Y1830.883
X391.813 Y1830.925
X391.814 Y1831.93
Y1837.137
G3 X391.24 Y1837.313 I-0.317 J-0.011
G1 X391.199 Y1837.256 Z39.508
X391.159 Y1837.202 Z39.531
X391.123 Y1837.154 Z39.569
X391.093 Y1837.113 Z39.62
X391.071 Y1837.083 Z39.68
X391.057 Y1837.064 Z39.747
X391.052 Y1837.057 Z39.818
G0 Z46.
X360.018 Y1889.462
Z40.135
G1 Z39.818 F1016.
X360.011 Y1889.466 Z39.747
X359.991 Y1889.478 Z39.68
X359.958 Y1889.498 Z39.62
X359.915 Y1889.523 Z39.569
X359.863 Y1889.554 Z39.531
X359.805 Y1889.588 Z39.508
X359.745 Y1889.625 Z39.5
G3 X358.991 Y1889.846 I-0.809 J-1.36
G1 X353.629
X353.063 Y1889.818
X352.523 Y1889.747
X351.802 Y1889.592
X351.095 Y1889.382
X350.399 Y1889.136
X349.713 Y1888.864
X349.036 Y1888.57
X348.368 Y1888.258
X347.708 Y1887.929
X347.056 Y1887.584
X346.412 Y1887.223
X345.777 Y1886.847
X345.152 Y1886.455
X344.536 Y1886.049
X343.93 Y1885.629
X343.334 Y1885.194
X342.748 Y1884.745
X342.174 Y1884.282
X341.611 Y1883.805
X341.059 Y1883.315
X340.519 Y1882.813
X339.991 Y1882.297
X339.475 Y1881.77
X338.972 Y1881.23
X338.482 Y1880.678
X338.005 Y1880.116
X337.541 Y1879.542
X337.091 Y1878.957
X336.655 Y1878.362
X336.234 Y1877.756
X335.826 Y1877.141
X335.434 Y1876.516
X335.056 Y1875.882
X334.693 Y1875.24
X334.346 Y1874.589
X334.014 Y1873.93
X333.697 Y1873.264
X333.396 Y1872.59
X333.111 Y1871.91
X332.843 Y1871.222
X332.629 Y1870.636
X332.605 Y1870.553
X332.59 Y1870.468
X332.585 Y1870.382
Y1865.588
G3 X333.158 Y1865.411 I0.317 J0.011
G1 X333.2 Y1865.468 Z39.508
X333.239 Y1865.523 Z39.531
X333.275 Y1865.571 Z39.569
X333.305 Y1865.612 Z39.62
X333.327 Y1865.642 Z39.68
X333.341 Y1865.661 Z39.747
X333.346 Y1865.667 Z39.818
G0 Z46.
X354.656 Y1889.462
Z40.135
G1 Z39.818 F1016.
X354.649 Y1889.466 Z39.747
X354.629 Y1889.478 Z39.68
X354.596 Y1889.498 Z39.62
X354.553 Y1889.523 Z39.569
X354.501 Y1889.554 Z39.531
X354.443 Y1889.588 Z39.508
X354.383 Y1889.625 Z39.5
G3 X353.629 Y1889.846 I-0.809 J-1.36
G1 X350.11
X349.808 Y1889.831
X349.434 Y1889.782
X348.956 Y1889.68
X348.315 Y1889.487
X347.628 Y1889.22
X346.957 Y1888.911
X346.301 Y1888.575
X345.655 Y1888.218
X345.02 Y1887.842
X344.395 Y1887.451
X343.779 Y1887.044
X343.173 Y1886.623
X342.577 Y1886.188
X341.991 Y1885.74
X341.416 Y1885.277
X340.852 Y1884.802
X340.299 Y1884.314
X339.757 Y1883.813
X339.227 Y1883.3
X338.708 Y1882.775
X338.202 Y1882.239
X337.708 Y1881.691
X337.226 Y1881.132
X336.757 Y1880.562
X336.301 Y1879.982
X335.859 Y1879.391
X335.43 Y1878.791
X335.015 Y1878.181
X334.614 Y1877.562
X334.227 Y1876.934
X333.854 Y1876.297
X333.496 Y1875.652
X333.152 Y1874.999
X332.823 Y1874.339
X332.655 Y1873.98
X332.616 Y1873.879
X332.593 Y1873.773
X332.585 Y1873.665
Y1870.382
G3 X333.158 Y1870.206 I0.317 J0.011
G1 X333.2 Y1870.263 Z39.508
X333.239 Y1870.317 Z39.531
X333.275 Y1870.365 Z39.569
X333.305 Y1870.406 Z39.62
X333.327 Y1870.436 Z39.68
X333.341 Y1870.455 Z39.747
X333.346 Y1870.462 Z39.818
G0 Z46.
X351.137 Y1889.462
Z40.135
G1 Z39.818 F1016.
X351.13 Y1889.466 Z39.747
X351.11 Y1889.478 Z39.68
X351.077 Y1889.498 Z39.62
X351.034 Y1889.523 Z39.569
X350.982 Y1889.554 Z39.531
X350.925 Y1889.588 Z39.508
X350.864 Y1889.625 Z39.5
G3 X350.11 Y1889.846 I-0.809 J-1.36
G1 X347.429
X347.073 Y1889.828
X346.777 Y1889.789
X346.398 Y1889.708
X345.931 Y1889.568
X345.308 Y1889.326
X344.644 Y1889.004
X344.001 Y1888.642
X343.373 Y1888.255
X342.758 Y1887.847
X342.154 Y1887.423
X341.562 Y1886.983
X340.98 Y1886.53
X340.408 Y1886.063
X339.848 Y1885.583
X339.298 Y1885.091
X338.759 Y1884.588
X338.231 Y1884.072
X337.715 Y1883.545
X337.21 Y1883.007
X336.717 Y1882.458
X336.237 Y1881.898
X335.768 Y1881.328
X335.312 Y1880.747
X334.87 Y1880.157
X334.44 Y1879.558
X334.023 Y1878.949
X333.62 Y1878.331
X333.231 Y1877.704
X332.855 Y1877.069
X332.68 Y1876.757
X332.627 Y1876.642
X332.595 Y1876.52
X332.585 Y1876.394
Y1873.665
G3 X333.158 Y1873.489 I0.317 J0.011
G1 X333.2 Y1873.545 Z39.508
X333.239 Y1873.6 Z39.531
X333.275 Y1873.648 Z39.569
X333.305 Y1873.689 Z39.62
X333.327 Y1873.719 Z39.68
X333.341 Y1873.738 Z39.747
X333.346 Y1873.745 Z39.818
G0 Z46.
X348.456 Y1889.462
Z40.135
G1 Z39.818 F1016.
X348.449 Y1889.466 Z39.747
X348.429 Y1889.478 Z39.68
X348.396 Y1889.498 Z39.62
X348.353 Y1889.523 Z39.569
X348.301 Y1889.554 Z39.531
X348.244 Y1889.588 Z39.508
X348.183 Y1889.625 Z39.5
G3 X347.429 Y1889.846 I-0.809 J-1.36
G1 X344.916
X344.674 Y1889.834
X344.417 Y1889.8
X344.093 Y1889.731
X343.714 Y1889.617
X343.221 Y1889.425
X342.571 Y1889.11
X341.935 Y1888.735
X341.32 Y1888.327
X340.722 Y1887.896
X340.137 Y1887.446
X339.564 Y1886.981
X339.002 Y1886.503
X338.452 Y1886.012
X337.912 Y1885.508
X337.383 Y1884.994
X336.866 Y1884.468
X336.36 Y1883.931
X335.865 Y1883.383
X335.382 Y1882.826
X334.911 Y1882.258
X334.452 Y1881.68
X334.006 Y1881.093
X333.572 Y1880.496
X333.15 Y1879.89
X332.742 Y1879.276
X332.7 Y1879.21
X332.637 Y1879.086
X332.598 Y1878.952
X332.585 Y1878.813
Y1876.394
G3 X333.158 Y1876.217 I0.317 J0.011
G1 X333.2 Y1876.274 Z39.508
X333.239 Y1876.328 Z39.531
X333.275 Y1876.377 Z39.569
X333.305 Y1876.417 Z39.62
X333.327 Y1876.448 Z39.68
X333.341 Y1876.467 Z39.747
X333.346 Y1876.473 Z39.818
G0 Z46.
X345.942 Y1889.462
Z40.135
G1 Z39.818 F1016.
X345.936 Y1889.466 Z39.747
X345.915 Y1889.478 Z39.68
X345.883 Y1889.498 Z39.62
X345.84 Y1889.523 Z39.569
X345.788 Y1889.554 Z39.531
X345.73 Y1889.588 Z39.508
X345.67 Y1889.625 Z39.5
G3 X344.916 Y1889.846 I-0.809 J-1.36
G1 X342.738
X342.47 Y1889.833
X342.236 Y1889.802
X341.95 Y1889.74
X341.621 Y1889.642
X341.203 Y1889.479
X340.673 Y1889.222
X340.037 Y1888.848
X339.43 Y1888.428
X338.844 Y1887.98
X338.274 Y1887.512
X337.718 Y1887.027
X337.174 Y1886.528
X336.642 Y1886.018
X336.121 Y1885.495
X335.611 Y1884.962
X335.112 Y1884.418
X334.625 Y1883.864
X334.149 Y1883.301
X333.684 Y1882.727
X333.232 Y1882.145
X332.791 Y1881.553
X332.722 Y1881.456
X332.647 Y1881.323
X332.6 Y1881.178
X332.585 Y1881.026
Y1878.813
G3 X333.135 Y1878.609 I0.317 J0.011
G1 X333.159 Y1878.635
X343.465 Y1889.805
X343.497 Y1889.83
X343.536 Y1889.842
X343.576 Y1889.84
X343.614 Y1889.825
X343.644 Y1889.798
X343.663 Y1889.762
X343.669 Y1889.722
X343.661 Y1889.682
X343.639 Y1889.648
X343.608 Y1889.623
X343.57 Y1889.609
X343.529 Y1889.61
X343.491 Y1889.625
G3 X342.738 Y1889.846 I-0.809 J-1.36
G1 X340.559
X340.41 Y1889.838
X340.183 Y1889.807
X339.925 Y1889.75
X339.62 Y1889.656
X339.246 Y1889.508
X338.782 Y1889.279
X338.192 Y1888.926
X337.591 Y1888.498
X337.016 Y1888.035
X336.46 Y1887.55
X335.92 Y1887.048
X335.392 Y1886.532
X334.877 Y1886.004
X334.374 Y1885.465
X333.881 Y1884.915
X333.4 Y1884.356
X332.93 Y1883.787
X332.745 Y1883.553
X332.657 Y1883.413
X332.603 Y1883.257
X332.585 Y1883.093
Y1881.026
G3 X333.128 Y1880.802 I0.318 J0.
G1 X333.153 Y1880.828
X341.376 Y1889.128
G3 X341.313 Y1889.625 I-0.226 J0.223
X340.559 Y1889.846 I-0.809 J-1.36
G1 X338.716
X338.472 Y1889.834
X338.258 Y1889.806
X338.028 Y1889.756
X337.751 Y1889.673
X337.417 Y1889.543
X337.02 Y1889.35
X336.524 Y1889.059
X335.92 Y1888.635
X335.349 Y1888.167
X334.802 Y1887.673
X334.272 Y1887.159
X333.758 Y1886.63
X333.256 Y1886.089
X332.761 Y1885.532
X332.665 Y1885.387
X332.605 Y1885.224
X332.585 Y1885.052
G3 X333.096 Y1884.811 I0.317 J0.011
G1 X333.166 Y1884.865
X338.893 Y1889.272
X338.899 Y1889.277
G3 X338.716 Y1889.846 I-0.194 J0.252
G1 X336.873
X336.608 Y1889.833
X336.416 Y1889.807
X336.197 Y1889.761
X335.927 Y1889.68
X335.63 Y1889.564
X335.259 Y1889.384
X334.823 Y1889.127
X334.256 Y1888.729
X333.688 Y1888.258
X333.148 Y1887.754
X332.799 Y1887.402
X332.683 Y1887.249
X332.61 Y1887.071
X332.585 Y1886.88
G3 X333.078 Y1886.627 I0.317 J0.011
G1 X333.17 Y1886.689
X337.038 Y1889.264
G3 X336.873 Y1889.846 I-0.176 J0.264
G1 X335.03
X334.823 Y1889.835
X334.645 Y1889.812
X334.43 Y1889.766
X334.172 Y1889.689
X333.896 Y1889.582
X333.547 Y1889.412
X333.153 Y1889.18
X332.9 Y1889.002
X332.768 Y1888.884
X332.668 Y1888.738
X332.606 Y1888.572
X332.585 Y1888.396
G3 X333.051 Y1888.126 I0.317 J0.011
G1 X333.177 Y1888.193
X335.167 Y1889.248
G3 X335.03 Y1889.846 I-0.149 J0.281
G1 X333.354
X333.175 Y1889.837
X332.987 Y1889.784
X332.823 Y1889.68
X332.694 Y1889.534
X332.613 Y1889.357
X332.585 Y1889.164
G3 X333.1 Y1888.927 I0.317 J0.011
G1 X333.165 Y1888.98
X333.531 Y1889.272
X333.542 Y1889.281
G3 X333.354 Y1889.846 I-0.198 J0.248
G1 X332.935
X332.893 Y1889.845
X332.851 Y1889.839
X332.81 Y1889.828
X332.768 Y1889.809
X332.726 Y1889.783
X332.684 Y1889.749
X332.663 Y1889.727
X332.645 Y1889.705
X332.62 Y1889.663
X332.602 Y1889.621
X332.591 Y1889.579
X332.585 Y1889.538
Y1888.533
Y1883.093
G3 X333.158 Y1882.916 I0.317 J0.011
G1 X333.2 Y1882.973 Z39.508
X333.239 Y1883.027 Z39.531
X333.275 Y1883.076 Z39.569
X333.305 Y1883.116 Z39.62
X333.327 Y1883.147 Z39.68
X333.341 Y1883.166 Z39.747
X333.346 Y1883.172 Z39.818
G0 Z46.
X332.968 Y1857.071
Z40.135
G1 Z39.818 F1016.
X332.964 Y1857.064 Z39.747
X332.952 Y1857.044 Z39.68
X332.933 Y1857.012 Z39.62
X332.907 Y1856.968 Z39.569
X332.876 Y1856.917 Z39.531
X332.842 Y1856.859 Z39.508
X332.806 Y1856.798 Z39.5
G3 X332.585 Y1856.045 I1.36 J-0.809
G1 Y1851.188
X332.609 Y1850.702
X332.674 Y1850.207
X332.819 Y1849.53
X333.03 Y1848.824
X333.282 Y1848.13
X333.562 Y1847.447
X333.864 Y1846.774
X334.184 Y1846.11
X334.522 Y1845.454
X334.876 Y1844.806
X335.245 Y1844.167
X335.629 Y1843.538
X336.028 Y1842.917
X336.442 Y1842.306
X336.87 Y1841.705
X337.311 Y1841.114
X337.767 Y1840.533
X338.236 Y1839.964
X338.719 Y1839.406
X339.215 Y1838.86
X339.724 Y1838.325
X340.245 Y1837.803
X340.778 Y1837.293
X341.323 Y1836.796
X341.88 Y1836.312
X342.448 Y1835.841
X343.027 Y1835.383
X343.616 Y1834.94
X344.216 Y1834.51
X344.825 Y1834.094
X345.445 Y1833.693
X346.073 Y1833.307
X346.71 Y1832.935
X347.356 Y1832.578
X348.01 Y1832.237
X348.672 Y1831.911
X349.341 Y1831.6
X350.018 Y1831.305
X350.701 Y1831.026
X351.39 Y1830.764
X351.684 Y1830.659
X351.765 Y1830.636
X351.847 Y1830.622
X351.931 Y1830.617
X356.672
G3 X356.849 Y1831.19 I-0.011 J0.317
G1 X356.792 Y1831.232 Z39.508
X356.738 Y1831.272 Z39.531
X356.689 Y1831.307 Z39.569
X356.649 Y1831.337 Z39.62
X356.618 Y1831.359 Z39.68
X356.599 Y1831.373 Z39.747
X356.593 Y1831.378 Z39.818
G0 Z46.
X332.968 Y1852.215
Z40.135
G1 Z39.818 F1016.
X332.964 Y1852.208 Z39.747
X332.952 Y1852.188 Z39.68
X332.933 Y1852.155 Z39.62
X332.907 Y1852.112 Z39.569
X332.876 Y1852.06 Z39.531
X332.842 Y1852.003 Z39.508
X332.806 Y1851.942 Z39.5
G3 X332.585 Y1851.188 I1.36 J-0.809
G1 Y1848.006
X332.608 Y1847.54
X332.655 Y1847.183
X332.752 Y1846.728
X332.933 Y1846.123
X333.201 Y1845.436
X333.513 Y1844.767
X333.854 Y1844.113
X334.217 Y1843.47
X334.598 Y1842.839
X334.996 Y1842.217
X335.408 Y1841.605
X335.835 Y1841.003
X336.275 Y1840.411
X336.729 Y1839.83
X337.196 Y1839.259
X337.677 Y1838.699
X338.17 Y1838.15
X338.675 Y1837.612
X339.193 Y1837.086
X339.722 Y1836.572
X340.263 Y1836.07
X340.815 Y1835.581
X341.377 Y1835.104
X341.951 Y1834.639
X342.535 Y1834.188
X343.129 Y1833.75
X343.732 Y1833.326
X344.345 Y1832.915
X344.967 Y1832.519
X345.598 Y1832.136
X346.237 Y1831.768
X346.885 Y1831.414
X347.54 Y1831.074
X348.203 Y1830.75
X348.343 Y1830.685
X348.443 Y1830.647
X348.547 Y1830.625
X348.654 Y1830.617
X351.931
G3 X352.108 Y1831.19 I-0.011 J0.317
G1 X352.051 Y1831.232 Z39.508
X351.997 Y1831.272 Z39.531
X351.949 Y1831.307 Z39.569
X351.908 Y1831.337 Z39.62
X351.878 Y1831.359 Z39.68
X351.859 Y1831.373 Z39.747
X351.852 Y1831.378 Z39.818
G0 Z46.
X332.968 Y1849.033
Z40.135
G1 Z39.818 F1016.
X332.964 Y1849.026 Z39.747
X332.952 Y1849.006 Z39.68
X332.933 Y1848.973 Z39.62
X332.907 Y1848.93 Z39.569
X332.876 Y1848.878 Z39.531
X332.842 Y1848.821 Z39.508
X332.806 Y1848.76 Z39.5
G3 X332.585 Y1848.006 I1.36 J-0.809
G1 Y1845.16
X332.598 Y1844.891
X332.636 Y1844.603
X332.715 Y1844.232
X332.849 Y1843.784
X333.083 Y1843.185
X333.405 Y1842.522
X333.768 Y1841.879
X334.159 Y1841.253
X334.57 Y1840.641
X334.998 Y1840.04
X335.442 Y1839.45
X335.899 Y1838.871
X336.369 Y1838.303
X336.852 Y1837.745
X337.348 Y1837.198
X337.855 Y1836.663
X338.374 Y1836.138
X338.904 Y1835.625
X339.445 Y1835.124
X339.997 Y1834.634
X340.56 Y1834.156
X341.132 Y1833.692
X341.715 Y1833.239
X342.308 Y1832.8
X342.91 Y1832.373
X343.521 Y1831.96
X344.141 Y1831.56
X344.77 Y1831.174
X345.407 Y1830.801
X345.57 Y1830.71
X345.685 Y1830.659
X345.806 Y1830.627
X345.931 Y1830.617
X348.654
G3 X348.831 Y1831.19 I-0.011 J0.317
G1 X348.774 Y1831.232 Z39.508
X348.72 Y1831.272 Z39.531
X348.671 Y1831.307 Z39.569
X348.631 Y1831.337 Z39.62
X348.6 Y1831.359 Z39.68
X348.581 Y1831.373 Z39.747
X348.575 Y1831.378 Z39.818
G0 Z46.
X332.968 Y1846.186
Z40.135
G1 Z39.818 F1016.
X332.964 Y1846.179 Z39.747
X332.952 Y1846.159 Z39.68
X332.933 Y1846.126 Z39.62
X332.907 Y1846.083 Z39.569
X332.876 Y1846.032 Z39.531
X332.842 Y1845.974 Z39.508
X332.806 Y1845.913 Z39.5
G3 X332.585 Y1845.16 I1.36 J-0.809
G1 Y1842.815
X332.6 Y1842.517
X332.633 Y1842.263
X332.701 Y1841.946
X332.811 Y1841.577
X332.998 Y1841.097
X333.303 Y1840.47
X333.677 Y1839.834
X334.087 Y1839.22
X334.521 Y1838.624
X334.973 Y1838.041
X335.441 Y1837.47
X335.923 Y1836.911
X336.417 Y1836.364
X336.923 Y1835.827
X337.441 Y1835.301
X337.97 Y1834.786
X338.509 Y1834.283
X339.059 Y1833.792
X339.62 Y1833.312
X340.19 Y1832.844
X340.77 Y1832.388
X341.36 Y1831.944
X341.958 Y1831.513
X342.566 Y1831.094
X343.106 Y1830.739
X343.233 Y1830.672
X343.371 Y1830.631
X343.513 Y1830.617
X345.931
G3 X346.107 Y1831.19 I-0.011 J0.317
G1 X346.05 Y1831.232 Z39.508
X345.996 Y1831.272 Z39.531
