;FLAVOR:Marlin
;TIME:392
;Filament used: 0.567435m
;Layer height: 0.3
;Generated with Cura_SteamEngine 1.2.1
M190 S35
M104 S220
M109 S220
G28
G1 Z50.00 F400
G92 E0
G1 F200 E3
G92 E0
M132 X Y Z A
M907 X100 Y100 Z50 A100
;LAYER_COUNT:52
;LAYER:0
M107
G0 F3000 X-9.369 Y1.189 Z0.3
;TYPE:SKIRT
G1 F1500 X-9.45 Y0.575 E0.0309
G1 X-9.448 Y-0.076 E0.06338
G1 X-9.357 Y-1.379 E0.12854
G1 X-9.274 Y-1.993 E0.15945
G1 X-9.084 Y-2.674 E0.19473
G1 X-8.672 Y-3.816 E0.25529
G1 X-8.425 Y-4.384 E0.2862
G1 X-8.142 Y-4.863 E0.31395
G1 X-7.621 Y-5.639 E0.36058
G1 X-7.128 Y-6.256 E0.39999
G1 X-6.598 Y-6.818 E0.43853
G1 X-5.993 Y-7.36 E0.47905
G1 X-5.443 Y-7.774 E0.51339
G1 X-4.728 Y-8.219 E0.55541
G1 X-3.863 Y-8.658 E0.60381
G1 X-3.015 Y-8.992 E0.64928
G1 X-2.168 Y-9.235 E0.69324
G1 X-1.563 Y-9.367 E0.72413
G1 X-1.005 Y-9.418 E0.75209
G1 X0.338 Y-9.463 E0.81913
G1 X1.192 Y-9.416 E0.8618
G1 X1.651 Y-9.349 E0.88494
G1 X2.257 Y-9.22 E0.91585
G1 X2.567 Y-9.121 E0.93208
G1 X3.781 Y-8.689 E0.99637
G1 X4.35 Y-8.444 E1.02728
G1 X4.921 Y-8.102 E1.06049
G1 X5.893 Y-7.423 E1.11964
G1 X6.377 Y-7.036 E1.15056
G1 X6.674 Y-6.74 E1.17148
G1 X7.283 Y-6.079 E1.21632
G1 X7.782 Y-5.436 E1.25692
G1 X8.157 Y-4.857 E1.29134
G1 X8.561 Y-4.089 E1.33463
G1 X8.943 Y-3.169 E1.38433
G1 X9.202 Y-2.339 E1.42771
G1 X9.356 Y-1.624 E1.4642
G1 X9.458 Y-.847 E1.50329
G1 X9.496 Y-0.068 E1.54221
G1 X9.453 Y0.85 E1.58805
G1 X9.312 Y1.83 E1.63745
G1 X9.185 Y2.436 E1.66834
G1 X9.017 Y2.931 E1.69442
G1 X8.551 Y4.094 E1.75693
G1 X8.284 Y4.653 E1.78783
G1 X8.007 Y5.09 E1.81365
G1 X7.432 Y5.899 E1.86316
G1 X7.042 Y6.379 E1.89402
G1 X6.741 Y6.676 E1.91512
G1 X5.981 Y7.364 E1.96626
G1 X5.496 Y7.75 E1.99719
G1 X4.888 Y8.108 E2.03239
G1 X3.477 Y8.806 E2.11092
G1 X2.906 Y9.045 E2.14181
G1 X2.21 Y9.226 E2.17768
G1 X1.278 Y9.396 E2.22495
G1 X0.663 Y9.468 E2.25584
G1 X0.187 Y9.468 E2.27959
G1 X-1.103 Y9.406 E2.34402
G1 X-1.719 Y9.337 E2.37495
G1 X-2.354 Y9.178 E2.4076
G1 X-3.532 Y8.796 E2.46939
G1 X-4.107 Y8.567 E2.50027
G1 X-4.425 Y8.402 E2.51814
G1 X-4.917 Y8.122 E2.54638
G1 X-5.639 Y7.618 E2.59031
G1 X-6.542 Y6.856 E2.64926
G1 X-6.988 Y6.427 E2.68013
G1 X-7.339 Y5.996 E2.70786
G1 X-8.002 Y5.077 E2.7644
G1 X-8.453 Y4.31 E2.80879
G1 X-8.718 Y3.746 E2.83988
G1 X-8.945 Y3.17 E2.87077
G1 X-9.083 Y2.636 E2.89828
G1 X-9.369 Y1.189 E2.97187
G0 F3000 X-8.976 Y1.111
G1 F1500 X-9.052 Y0.523 E3.00145
G1 X-9.049 Y-0.049 E3.02999
G1 X-8.958 Y-1.352 E3.09515
G1 X-8.877 Y-1.939 E3.12472
G1 X-8.708 Y-2.538 E3.15577
G1 X-8.296 Y-3.68 E3.21634
G1 X-8.058 Y-4.223 E3.24592
G1 X-7.81 Y-4.64 E3.27012
G1 X-7.289 Y-5.416 E3.31675
G1 X-6.837 Y-5.982 E3.35289
G1 X-6.307 Y-6.544 E3.39143
G1 X-5.752 Y-7.04 E3.42856
G1 X-5.202 Y-7.454 E3.46291
G1 X-4.547 Y-7.863 E3.50143
G1 X-3.682 Y-8.302 E3.54983
G1 X-2.904 Y-8.607 E3.59152
G1 X-2.057 Y-8.85 E3.63548
G1 X-1.478 Y-8.975 E3.66503
G1 X-.991 Y-9.019 E3.68943
G1 X0.352 Y-9.064 E3.75647
G1 X1.135 Y-9.02 E3.79559
G1 X1.594 Y-8.953 E3.81874
G1 X2.433 Y-8.744 E3.86187
G1 X3.647 Y-8.312 E3.92616
G1 X4.191 Y-8.076 E3.95574
G1 X4.692 Y-7.774 E3.98493
G1 X5.664 Y-7.095 E4.04408
G1 X6.126 Y-6.724 E4.07364
G1 X6.38 Y-6.469 E4.0916
G1 X6.989 Y-5.808 E4.13644
G1 X7.446 Y-5.219 E4.17363
G1 X7.821 Y-4.64 E4.20805
G1 X8.192 Y-3.935 E4.2478
G1 X8.574 Y-3.015 E4.29749
G1 X8.811 Y-2.254 E4.33726
G1 X8.965 Y-1.539 E4.37375
G1 X9.059 Y-.827 E4.40958
G1 X9.097 Y-0.048 E4.44849
G1 X9.057 Y0.793 E4.49049
G1 X8.916 Y1.773 E4.53989
G1 X8.792 Y2.352 E4.56943
G1 X8.645 Y2.783 E4.59215
G1 X8.179 Y3.946 E4.65466
G1 X7.922 Y4.48 E4.68422
G1 X7.681 Y4.858 E4.70659
G1 X7.106 Y5.667 E4.75611
G1 X6.731 Y6.126 E4.78568
G1 X6.473 Y6.38 E4.80374
G1 X5.713 Y7.068 E4.85488
G1 X5.248 Y7.435 E4.88444
G1 X4.711 Y7.75 E4.9155
G1 X3.3 Y8.448 E4.99404
G1 X2.752 Y8.674 E5.02361
G1 X2.139 Y8.833 E5.0552
G1 X1.207 Y9.003 E5.10247
G1 X0.617 Y9.069 E5.13209
G1 X0.206 Y9.069 E5.15259
G1 X-1.084 Y9.007 E5.21703
G1 X-1.673 Y8.939 E5.24661
G1 X-2.23 Y8.797 E5.27528
G1 X-3.408 Y8.415 E5.33707
G1 X-3.959 Y8.195 E5.36667
G1 X-4.227 Y8.054 E5.38178
G1 X-4.719 Y7.774 E5.41002
G1 X-5.381 Y7.313 E5.45026
G1 X-6.284 Y6.551 E5.50921
G1 X-6.71 Y6.139 E5.53878
G1 X-7.014 Y5.762 E5.56294
G1 X-7.677 Y4.843 E5.61948
G1 X-8.091 Y4.14 E5.66018
G1 X-8.356 Y3.576 E5.69127
G1 X-8.572 Y3.024 E5.72084
G1 X-8.69 Y2.558 E5.74482
G1 X-8.976 Y1.111 E5.81841
G0 F3000 X-8.584 Y1.034
G1 F1500 X-8.654 Y0.473 E5.84662
G1 X-8.65 Y-0.021 E5.87126
G1 X-8.559 Y-1.324 E5.93643
G1 X-8.48 Y-1.883 E5.96459
G1 X-8.332 Y-2.402 E5.99152
G1 X-7.92 Y-3.544 E6.05209
G1 X-7.691 Y-4.061 E6.0803
G1 X-7.478 Y-4.417 E6.101
G1 X-6.957 Y-5.193 E6.14763
G1 X-6.546 Y-5.707 E6.18046
G1 X-6.016 Y-6.269 E6.219
G1 X-5.512 Y-6.721 E6.25278
G1 X-4.962 Y-7.135 E6.28712
G1 X-4.366 Y-7.506 E6.32214
G1 X-3.501 Y-7.945 E6.37054
G1 X-2.794 Y-8.223 E6.40844
G1 X-1.947 Y-8.466 E6.4524
G1 X-1.394 Y-8.583 E6.4806
G1 X-.978 Y-8.619 E6.50143
G1 X0.365 Y-8.664 E6.56847
G1 X1.077 Y-8.624 E6.60405
G1 X1.536 Y-8.557 E6.62719
G1 X2.299 Y-8.368 E6.66641
G1 X3.513 Y-7.936 E6.7307
G1 X4.031 Y-7.709 E6.75891
G1 X4.463 Y-7.446 E6.78415
G1 X5.435 Y-6.767 E6.8433
G1 X5.874 Y-6.411 E6.8715
G1 X6.086 Y-6.198 E6.88649
G1 X6.695 Y-5.537 E6.93133
G1 X7.11 Y-5.001 E6.96515
G1 X7.485 Y-4.422 E6.99957
G1 X7.822 Y-3.782 E7.03565
G1 X8.204 Y-2.862 E7.08535
G1 X8.42 Y-2.17 E7.12152
G1 X8.574 Y-1.455 E7.15801
G1 X8.659 Y-.808 E7.19056
G1 X8.697 Y-0.029 E7.22947
G1 X8.661 Y0.736 E7.26768
G1 X8.52 Y1.716 E7.31708
G1 X8.4 Y2.268 E7.34526
G1 X8.274 Y2.634 E7.36457
G1 X7.808 Y3.797 E7.42708
G1 X7.561 Y4.305 E7.45526
G1 X7.355 Y4.626 E7.47429
G1 X6.78 Y5.435 E7.52381
G1 X6.421 Y5.872 E7.55202
G1 X6.204 Y6.083 E7.56712
G1 X5.444 Y6.771 E7.61827
G1 X5 Y7.12 E7.64644
G1 X4.534 Y7.391 E7.67334
G1 X3.123 Y8.089 E7.75187
G1 X2.599 Y8.304 E7.78013
G1 X2.067 Y8.439 E7.80752
G1 X1.135 Y8.609 E7.85478
G1 X0.573 Y8.671 E7.88299
G1 X0.225 Y8.669 E7.90035
G1 X-1.065 Y8.607 E7.96478
G1 X-1.626 Y8.54 E7.99297
G1 X-2.107 Y8.417 E8.01774
G1 X-3.285 Y8.035 E8.07952
G1 X-4.029 Y7.706 E8.12011
G1 X-4.521 Y7.426 E8.14835
G1 X-5.123 Y7.007 E8.18494
G1 X-6.026 Y6.245 E8.24389
G1 X-6.431 Y5.851 E8.27208
G1 X-6.69 Y5.528 E8.29274
G1 X-7.353 Y4.609 E8.34927
G1 X-7.729 Y3.97 E8.38626
G1 X-7.994 Y3.406 E8.41735
G1 X-8.198 Y2.879 E8.44554
G1 X-8.298 Y2.481 E8.46602
G1 X-8.584 Y1.034 E8.5396
G0 F3000 X-8.192 Y0.956
G1 F1500 X-8.256 Y0.424 E8.56634
G1 X-8.251 Y0.007 E8.58714
G1 X-8.16 Y-1.296 E8.65231
G1 X-8.083 Y-1.827 E8.67908
G1 X-7.955 Y-2.267 E8.70194
G1 X-7.543 Y-3.409 E8.76251
G1 X-7.324 Y-3.898 E8.78924
G1 X-7.146 Y-4.194 E8.80647
G1 X-6.625 Y-4.97 E8.8531
G1 X-6.255 Y-5.433 E8.88267
G1 X-5.725 Y-5.995 E8.92121
G1 X-5.271 Y-6.401 E8.9516
G1 X-4.721 Y-6.815 E8.98594
G1 X-4.185 Y-7.149 E9.01745
G1 X-3.32 Y-7.588 E9.06584
G1 X-2.684 Y-7.838 E9.09994
G1 X-1.837 Y-8.081 E9.1439
G1 X-1.312 Y-8.19 E9.17065
G1 X-.965 Y-8.219 E9.18802
G1 X0.378 Y-8.264 E9.25506
G1 X1.019 Y-8.228 E9.28709
G1 X1.478 Y-8.161 E9.31024
G1 X2.165 Y-7.991 E9.34554
G1 X3.379 Y-7.559 E9.40983
G1 X3.869 Y-7.342 E9.43657
G1 X4.234 Y-7.118 E9.45793
G1 X5.206 Y-6.439 E9.51709
G1 X5.792 Y-5.927 E9.55591
G1 X6.401 Y-5.266 E9.60075
G1 X6.775 Y-4.784 E9.63119
G1 X7.15 Y-4.205 E9.6656
G1 X7.453 Y-3.629 E9.69807
G1 X7.835 Y-2.709 E9.74777
G1 X8.029 Y-2.086 E9.78032
G1 X8.183 Y-1.371 E9.81681
G1 X8.26 Y-.788 E9.84615
G1 X8.298 Y-0.009 E9.88506
G1 X8.265 Y0.679 E9.91943
G1 X8.124 Y1.659 E9.96882
G1 X8.009 Y2.182 E9.99554
G1 X7.903 Y2.485 E10.01155
G1 X7.437 Y3.648 E10.07406
G1 X7.201 Y4.13 E10.10084
G1 X7.029 Y4.395 E10.1166
G1 X6.454 Y5.204 E10.16611
G1 X5.936 Y5.787 E10.20502
G1 X5.176 Y6.475 E10.25617
G1 X4.753 Y6.804 E10.2829
G1 X4.356 Y7.033 E10.30577
G1 X2.945 Y7.731 E10.38431
G1 X2.448 Y7.932 E10.41105
G1 X1.995 Y8.046 E10.43436
G1 X1.063 Y8.216 E10.48162
G1 X0.53 Y8.272 E10.50836
G1 X0.244 Y8.27 E10.52263
G1 X-1.046 Y8.208 E10.58706
G1 X-1.578 Y8.142 E10.61381
G1 X-1.983 Y8.036 E10.63469
G1 X-3.161 Y7.654 E10.69648
G1 X-3.832 Y7.359 E10.73304
G1 X-4.324 Y7.079 E10.76129
G1 X-4.865 Y6.701 E10.79421
G1 X-5.768 Y5.939 E10.85316
G1 X-6.151 Y5.564 E10.8799
G1 X-6.366 Y5.294 E10.89712
G1 X-7.029 Y4.375 E10.95366
G1 X-7.367 Y3.8 E10.98693
G1 X-7.632 Y3.236 E11.01802
G1 X-7.824 Y2.735 E11.04479
G1 X-7.906 Y2.403 E11.06185
G1 X-8.192 Y0.956 E11.13544
G0 F3000 X-7.799 Y0.878
G1 F1500 X-7.858 Y0.376 E11.16066
G1 X-7.852 Y0.035 E11.17767
G1 X-7.761 Y-1.268 E11.24284
G1 X-7.686 Y-1.768 E11.26806
G1 X-7.579 Y-2.131 E11.28694
G1 X-7.167 Y-3.273 E11.34751
G1 X-6.958 Y-3.733 E11.37272
G1 X-6.814 Y-3.971 E11.3866
G1 X-6.293 Y-4.747 E11.43323
G1 X-5.964 Y-5.158 E11.45949
G1 X-5.434 Y-5.72 E11.49803
G1 X-5.03 Y-6.082 E11.5251
G1 X-4.48 Y-6.496 E11.55944
G1 X-4.004 Y-6.793 E11.58743
G1 X-3.139 Y-7.232 E11.63583
G1 X-2.573 Y-7.454 E11.66616
G1 X-1.726 Y-7.697 E11.71012
G1 X-1.231 Y-7.798 E11.73533
G1 X-.951 Y-7.819 E11.74933
G1 X0.392 Y-7.864 E11.81637
G1 X0.961 Y-7.832 E11.84481
G1 X1.42 Y-7.765 E11.86795
G1 X2.031 Y-7.614 E11.89935
G1 X3.245 Y-7.182 E11.96364
G1 X3.706 Y-6.975 E11.98885
G1 X4.005 Y-6.79 E12.00639
G1 X4.977 Y-6.111 E12.06554
G1 X5.497 Y-5.656 E12.10001
G1 X6.106 Y-4.995 E12.14485
G1 X6.439 Y-4.567 E12.17191
G1 X6.814 Y-3.988 E12.20633
G1 X7.083 Y-3.475 E12.23522
G1 X7.465 Y-2.555 E12.28492
G1 X7.638 Y-2.002 E12.31383
G1 X7.792 Y-1.287 E12.35032
G1 X7.86 Y-.769 E12.37638
G1 X7.898 Y0.01 E12.4153
G1 X7.869 Y0.622 E12.44586
G1 X7.728 Y1.602 E12.49526
G1 X7.617 Y2.095 E12.52047
G1 X7.531 Y2.336 E12.53324
G1 X7.065 Y3.499 E12.59574
G1 X6.703 Y4.163 E12.63347
G1 X6.128 Y4.972 E12.68299
G1 X5.668 Y5.49 E12.71755
G1 X4.908 Y6.178 E12.7687
G1 X4.507 Y6.487 E12.79395
G1 X4.179 Y6.674 E12.81279
G1 X2.768 Y7.372 E12.89133
G1 X2.298 Y7.56 E12.91658
G1 X1.923 Y7.652 E12.93585
G1 X0.991 Y7.822 E12.98311
G1 X0.263 Y7.87 E13.01951
G1 X-1.027 Y7.808 E13.08394
G1 X-1.528 Y7.744 E13.10914
G1 X-1.86 Y7.656 E13.12628
G1 X-3.038 Y7.274 E13.18806
G1 X-3.634 Y7.011 E13.22056
G1 X-4.126 Y6.731 E13.2488
G1 X-4.607 Y6.396 E13.27805
G1 X-5.51 Y5.634 E13.337
G1 X-5.869 Y5.278 E13.36222
G1 X-6.041 Y5.06 E13.37607
G1 X-6.704 Y4.141 E13.43261
G1 X-7.005 Y3.63 E13.4622
G1 X-7.27 Y3.066 E13.49329
G1 X-7.448 Y2.593 E13.5185
G1 X-7.513 Y2.325 E13.53226
G1 X-7.799 Y0.878 E13.60584
G1 F1500 E11.60584
G0 F3000 X-5.36 Y-0.03
G0 X-5.285 Y-0.058
G0 X-3.222 Y-.828
G0 X-3.147 Y-.855
G0 X-2.319 Y-1.166
;TYPE:SUPPORT
G1 F1500 E13.689
G1 X-2.32 Y-1.166 E13.68904
G1 X-2.301 Y-1.202 E13.69108
G1 X-2.189 Y-1.396 E13.70225
G1 X-2.139 Y-1.47 E13.70671
G1 X-2.005 Y-1.653 E13.71802
G1 X-1.986 Y-1.681 E13.71971
G1 X-1.985 Y-1.682 E13.71978
G1 X-1.984 Y-1.682 E13.71983
G1 X-1.768 Y-1.913 E13.73561
G1 X-1.55 Y-2.096 E13.74981
G1 X-1.482 Y-2.144 E13.75396
G1 X-1.482 Y-2.143 E13.75401
G1 X-1.346 Y-2.238 E13.76229
G1 X-1.226 Y-2.308 E13.76922
G1 X-1.159 Y-2.342 E13.77297
G1 X-1.048 Y-2.396 E13.77913
G1 X-.861 Y-2.473 E13.78922
G1 X-.719 Y-2.521 E13.79669
G1 X-.533 Y-2.569 E13.80628
G1 X-.349 Y-2.601 E13.8156
G1 X-.169 Y-2.622 E13.82464
G1 X-.139 Y-2.623 E13.82613
G1 X0.02 Y-2.63 E13.83407
G1 X0.051 Y-2.63 E13.83562
G1 X0.186 Y-2.627 E13.84236
G1 X0.322 Y-2.614 E13.84917
G1 X0.344 Y-2.613 E13.85027
G1 X0.482 Y-2.594 E13.85722
G1 X0.548 Y-2.579 E13.8606
G1 X0.558 Y-2.578 E13.8611
G1 X0.658 Y-2.555 E13.86622
G1 X0.91 Y-2.48 E13.87934
G1 X0.972 Y-2.456 E13.88265
G1 X1.15 Y-2.382 E13.89227
G1 X1.165 Y-2.375 E13.8931
G1 X1.353 Y-2.273 E13.90377
G1 X1.442 Y-2.222 E13.90889
G1 X1.62 Y-2.097 E13.91974
G1 X1.667 Y-2.06 E13.92272
G1 X1.848 Y-1.905 E13.93461
G1 X1.982 Y-1.77 E13.9441
G1 X2.092 Y-1.64 E13.9526
G1 X2.235 Y-1.442 E13.96478
G1 X2.26 Y-1.402 E13.96713
G1 X2.338 Y-1.274 E13.97461
G1 X2.419 Y-1.113 E13.9836
G1 X2.508 Y-.898 E13.99521
G1 X2.551 Y-.771 E14.0019
G1 X2.596 Y-.606 E14.01043
G1 X2.625 Y-.466 E14.01757
G1 X2.65 Y-.3 E14.02594
G1 X2.66 Y-.2 E14.03096
G1 X2.662 Y-.166 E14.03266
G1 X2.667 Y-0.025 E14.0397
G1 X2.66 Y0.189 E14.05038
G1 X2.653 Y0.287 E14.05528
G1 X2.604 Y0.565 E14.06936
G1 X2.533 Y0.822 E14.08266
G1 X2.527 Y0.839 E14.08356
G1 X2.421 Y1.103 E14.09776
G1 X2.33 Y1.281 E14.10773
G1 X2.301 Y1.34 E14.11101
G1 X2.231 Y1.446 E14.11735
G1 X2.192 Y1.506 E14.12092
G1 X2.028 Y1.717 E14.13425
G1 X1.847 Y1.907 E14.14734
G1 X1.793 Y1.955 E14.15095
G1 X1.693 Y2.042 E14.15756
G1 X1.635 Y2.088 E14.16125
G1 X1.55 Y2.149 E14.16647
G1 X1.455 Y2.214 E14.17222
G1 X1.411 Y2.242 E14.17482
G1 X1.262 Y2.327 E14.18338
G1 X1.104 Y2.403 E14.19212
G1 X0.945 Y2.467 E14.20067
G1 X0.841 Y2.502 E14.20615
G1 X0.841 Y2.503 E14.2062
G1 X0.724 Y2.541 E14.21234
G1 X0.61 Y2.569 E14.21819
G1 X0.547 Y2.58 E14.22138
G1 X0.382 Y2.607 E14.22972
G1 X0.297 Y2.616 E14.23399
G1 X0.114 Y2.627 E14.24313
G1 X0.032 Y2.63 E14.24723
G1 X-.195 Y2.618 E14.25857
G1 X-.206 Y2.617 E14.25912
G1 X-.407 Y2.591 E14.26923
G1 X-.433 Y2.585 E14.27056
G1 X-.617 Y2.547 E14.27994
G1 X-.814 Y2.488 E14.2902
G1 X-1.036 Y2.397 E14.30217
G1 X-1.144 Y2.348 E14.30808
G1 X-1.318 Y2.254 E14.31795
G1 X-1.597 Y2.061 E14.33488
G1 X-1.755 Y1.922 E14.34537
G1 X-1.821 Y1.858 E14.34996
G1 X-1.918 Y1.754 E14.35706
G1 X-2.046 Y1.603 E14.36693
G1 X-2.162 Y1.444 E14.37675
G1 X-2.26 Y1.281 E14.38624
G1 X-2.355 Y1.094 E14.3967
G1 X-2.417 Y0.947 E14.40466
G1 X-2.425 Y0.926 E14.40578
G1 X-2.46 Y0.822 E14.41126
G1 X-2.48 Y0.762 E14.41441
G1 X-2.527 Y0.578 E14.42389
G1 X-2.568 Y0.359 E14.435
G1 X-2.583 Y0.216 E14.44218
G1 X-2.591 Y0.118 E14.44708
G1 X-2.594 Y0.014 E14.45227
G1 X-2.581 Y-.242 E14.46506
G1 X-2.551 Y-.463 E14.47619
G1 X-2.503 Y-.682 E14.48737
G1 X-2.488 Y-.728 E14.48979
G1 X-2.427 Y-.919 E14.49979
G1 X-2.354 Y-1.09 E14.50907
G1 X-2.319 Y-1.166 E14.51324
G0 F3000 X-2.442 Y0.00
G1 F1500 X2.514 Y0.00 E14.7605
G0 F3000 X0.00 Y2.476
G1 F1500 X0.00 Y-2.477 E15.0076
G1 F1500 E13.0076
G0 F3000 X0.014 Y-3.306
G0 X0.059 Y-4.189
G0 X0.533 Y-4.252
G0 X0.522 Y-4.153
;TYPE:WALL-OUTER
G1 F1500 E15.09075
G1 X0.004 Y-4.171 E15.11661
G1 X-.462 Y-4.139 E15.13992
G1 X-.535 Y-4.133 E15.14357
G1 X-.959 Y-4.044 E15.16519
G1 X-1.068 Y-4.021 E15.17074
G1 X-1.12 Y-4.003 E15.17349
G1 X-1.466 Y-3.881 E15.19179
G1 X-1.579 Y-3.841 E15.19777
G1 X-1.646 Y-3.808 E15.2015
G1 X-1.961 Y-3.65 E15.21908
G1 X-2.064 Y-3.598 E15.22484
G1 X-2.241 Y-3.478 E15.23551
G1 X-2.361 Y-3.396 E15.24276
G1 X-2.513 Y-3.293 E15.25192
G1 X-2.596 Y-3.219 E15.25746
G1 X-2.78 Y-3.054 E15.2698
G1 X-2.924 Y-2.926 E15.27941
G1 X-3.103 Y-2.719 E15.29306
G1 X-3.272 Y-2.523 E15.30597
G1 X-3.437 Y-2.273 E15.32092
G1 X-3.533 Y-2.128 E15.32959
G1 X-3.57 Y-2.072 E15.33294
G1 X-3.689 Y-1.827 E15.34653
G1 X-3.808 Y-1.585 E15.35998
G1 X-3.849 Y-1.461 E15.3665
G1 X-3.906 Y-1.295 E15.37526
G1 X-3.982 Y-1.071 E15.38706
G1 X-4.039 Y-.78 E15.40185
G1 X-4.086 Y-.54 E15.41405
G1 X-4.12 Y0.00 E15.44105
G1 X-4.117 Y0.047 E15.4434
G1 X-4.086 Y0.54 E15.46804
G1 X-4.039 Y0.785 E15.48049
G1 X-3.992 Y1.021 E15.49249
G1 X-3.982 Y1.071 E15.49503
G1 X-3.938 Y1.202 E15.50193
G1 X-3.862 Y1.427 E15.51378
G1 X-3.808 Y1.585 E15.52211
G1 X-3.694 Y1.819 E15.53509
G1 X-3.598 Y2.017 E15.54607
G1 X-3.571 Y2.071 E15.54908
G1 X-3.511 Y2.162 E15.55452
G1 X-3.301 Y2.481 E15.57358
G1 X-3.279 Y2.514 E15.57555
G1 X-3.127 Y2.691 E15.58719
G1 X-2.918 Y2.933 E15.60315
G1 X-2.802 Y3.036 E15.61089
G1 X-2.513 Y3.293 E15.63018
G1 X-2.461 Y3.328 E15.63331
G1 X-2.135 Y3.55 E15.65299
G1 X-2.065 Y3.598 E15.65722
G1 X-1.785 Y3.738 E15.67284
G1 X-1.58 Y3.842 E15.68431
G1 X-1.512 Y3.866 E15.6879
G1 X-1.068 Y4.021 E15.71137
G1 X-.625 Y4.115 E15.73396
G1 X-.536 Y4.134 E15.7385
G1 X-.361 Y4.146 E15.74725
G1 X0.005 Y4.171 E15.76555
G1 X0.35 Y4.156 E15.78278
G1 X0.531 Y4.148 E15.79182
G1 X0.655 Y4.126 E15.7981
G1 X1.052 Y4.055 E15.81823
G1 X1.198 Y4.01 E15.82585
G1 X1.355 Y3.96 E15.83407
G1 X1.556 Y3.896 E15.84459
G1 X1.72 Y3.821 E15.85359
G1 X1.951 Y3.714 E15.86629
G1 X2.036 Y3.674 E15.87098
G1 X2.235 Y3.55 E15.88267
G1 X2.485 Y3.395 E15.89735
G1 X2.641 Y3.268 E15.90739
G1 X2.895 Y3.061 E15.92373
G1 X2.945 Y3.008 E15.92737
G1 X3.232 Y2.706 E15.94815
G1 X3.26 Y2.676 E15.9502
G1 X3.381 Y2.51 E15.96045
G1 X3.576 Y2.245 E15.97686
G1 X3.645 Y2.119 E15.98403
G1 X3.838 Y1.768 E16.00401
G1 X3.844 Y1.753 E16.00482
