;FLAVOR:Marlin
;TIME:18186
;Filament used: 21.4506m
;Layer height: 0.2
;Generated with Cura_SteamEngine 1.2.2
M190 S35
M104 S220
M109 S220
G28
G1 Z50.00 F400
G92 E0
G1 F200 E3
G92 E0
M132 X Y Z A
M907 X100 Y100 Z50 A100
;LAYER_COUNT:150
;LAYER:0
M107
G0 F3000 X-1.347 Y-37.786 Z0.3
;TYPE:SKIRT
G1 F1500 X3.853 Y-37.985 E0.25962
G1 X4.038 Y-37.989 E0.26885
G1 X73.699 Y-37.979 E3.74425
G1 X74.317 Y-37.939 E3.77515
G1 X74.925 Y-37.82 E3.80606
G1 X75.512 Y-37.623 E3.83695
G1 X76.069 Y-37.353 E3.86783
G1 X76.587 Y-37.013 E3.89874
G1 X77.056 Y-36.609 E3.92963
G1 X77.47 Y-36.148 E3.96054
G1 X77.821 Y-35.637 E3.99147
G1 X78.103 Y-35.086 E4.02235
G1 X78.312 Y-34.503 E4.05325
G1 X78.444 Y-33.898 E4.08414
G1 X78.498 Y-33.179 E4.12011
G1 X78.497 Y36.802 E7.61148
G1 X78.457 Y37.42 E7.64237
G1 X78.338 Y38.028 E7.67328
G1 X78.141 Y38.615 E7.70417
G1 X77.871 Y39.172 E7.73506
G1 X77.531 Y39.69 E7.76597
G1 X77.127 Y40.16 E7.79689
G1 X76.666 Y40.573 E7.82777
G1 X76.156 Y40.924 E7.85866
G1 X75.605 Y41.207 E7.88956
G1 X75.021 Y41.416 E7.9205
G1 X74.416 Y41.548 E7.9514
G1 X73.697 Y41.602 E7.98737
G1 X0.629 Y41.597 E11.63275
G1 X-4.571 Y41.796 E11.89237
G1 X-4.756 Y41.8 E11.9016
G1 X-74.417 Y41.791 E15.377
G1 X-75.035 Y41.751 E15.4079
G1 X-75.642 Y41.632 E15.43876
G1 X-76.23 Y41.435 E15.46969
G1 X-76.787 Y41.165 E15.50058
G1 X-77.305 Y40.825 E15.53149
G1 X-77.774 Y40.421 E15.56237
G1 X-78.188 Y39.96 E15.59328
G1 X-78.539 Y39.449 E15.62421
G1 X-78.821 Y38.898 E15.65509
G1 X-79.03 Y38.315 E15.68599
G1 X-79.162 Y37.71 E15.71689
G1 X-79.216 Y36.991 E15.75286
G1 X-79.216 Y-32.991 E19.24427
G1 X-79.176 Y-33.609 E19.27517
G1 X-79.057 Y-34.217 E19.30608
G1 X-78.86 Y-34.804 E19.33697
G1 X-78.59 Y-35.361 E19.36785
G1 X-78.25 Y-35.879 E19.39876
G1 X-77.846 Y-36.349 E19.42968
G1 X-77.385 Y-36.762 E19.46056
G1 X-76.875 Y-37.113 E19.49145
G1 X-76.324 Y-37.396 E19.52235
G1 X-75.741 Y-37.605 E19.55325
G1 X-75.135 Y-37.737 E19.5842
G1 X-74.416 Y-37.791 E19.62017
G1 X-1.347 Y-37.786 E23.2656
G0 F3000 X-1.357 Y-37.386
G1 F1500 X3.869 Y-37.586 E23.52651
G1 X4.038 Y-37.589 E23.53494
G1 X73.699 Y-37.579 E27.01035
G1 X74.29 Y-37.539 E27.0399
G1 X74.871 Y-37.42 E27.06949
G1 X75.431 Y-37.224 E27.09909
G1 X75.959 Y-36.954 E27.12867
G1 X76.446 Y-36.616 E27.15825
G1 X76.883 Y-36.215 E27.18784
G1 X77.262 Y-35.759 E27.21742
G1 X77.577 Y-35.256 E27.24703
G1 X77.821 Y-34.716 E27.27659
G1 X77.99 Y-34.148 E27.30616
G1 X78.081 Y-33.562 E27.33574
G1 X78.098 Y-33.179 E27.35487
G1 X78.097 Y36.802 E30.84624
G1 X78.057 Y37.394 E30.87584
G1 X77.938 Y37.975 E30.90543
G1 X77.742 Y38.534 E30.93498
G1 X77.472 Y39.062 E30.96457
G1 X77.134 Y39.549 E30.99414
G1 X76.733 Y39.986 E31.02373
G1 X76.278 Y40.366 E31.05331
G1 X75.775 Y40.68 E31.08289
G1 X75.235 Y40.925 E31.11247
G1 X74.666 Y41.094 E31.14209
G1 X74.08 Y41.185 E31.17167
G1 X73.697 Y41.202 E31.1908
G1 X0.639 Y41.197 E34.83568
G1 X-4.587 Y41.397 E35.0966
G1 X-4.756 Y41.4 E35.10503
G1 X-74.417 Y41.391 E38.58043
G1 X-75.008 Y41.351 E38.60998
G1 X-75.589 Y41.232 E38.63957
G1 X-76.149 Y41.036 E38.66917
G1 X-76.677 Y40.766 E38.69876
G1 X-77.164 Y40.428 E38.72833
G1 X-77.601 Y40.027 E38.75792
G1 X-77.98 Y39.571 E38.7875
G1 X-78.295 Y39.069 E38.81707
G1 X-78.539 Y38.528 E38.84668
G1 X-78.708 Y37.96 E38.87625
G1 X-78.799 Y37.374 E38.90583
G1 X-78.816 Y36.991 E38.92496
G1 X-78.816 Y-32.991 E42.41637
G1 X-78.776 Y-33.583 E42.44598
G1 X-78.657 Y-34.163 E42.47552
G1 X-78.461 Y-34.723 E42.50512
G1 X-78.191 Y-35.251 E42.5347
G1 X-77.853 Y-35.738 E42.56428
G1 X-77.452 Y-36.175 E42.59387
G1 X-76.997 Y-36.555 E42.62344
G1 X-76.494 Y-36.869 E42.65303
G1 X-75.954 Y-37.114 E42.68261
G1 X-75.385 Y-37.283 E42.71222
G1 X-74.8 Y-37.374 E42.74176
G1 X-74.416 Y-37.391 E42.76094
G1 X-1.357 Y-37.386 E46.40587
G0 F3000 X-1.342 Y-36.986
G1 F1500 X3.884 Y-37.186 E46.66678
G1 X4.038 Y-37.189 E46.67447
G1 X73.699 Y-37.179 E50.14987
G1 X74.262 Y-37.139 E50.17803
G1 X74.815 Y-37.02 E50.20625
G1 X75.345 Y-36.824 E50.23444
G1 X75.843 Y-36.555 E50.26268
G1 X76.297 Y-36.219 E50.29086
G1 X76.7 Y-35.822 E50.31908
G1 X77.043 Y-35.373 E50.34727
G1 X77.319 Y-34.879 E50.3755
G1 X77.522 Y-34.352 E50.40368
G1 X77.649 Y-33.801 E50.43189
G1 X77.698 Y-33.179 E50.46301
G1 X77.697 Y36.802 E53.95438
G1 X77.657 Y37.366 E53.98259
G1 X77.538 Y37.919 E54.01081
G1 X77.342 Y38.449 E54.039
G1 X77.074 Y38.946 E54.06717
G1 X76.738 Y39.401 E54.09539
G1 X76.341 Y39.804 E54.12361
G1 X75.891 Y40.146 E54.15181
G1 X75.398 Y40.422 E54.18
G1 X74.87 Y40.626 E54.20824
G1 X74.32 Y40.753 E54.2364
G1 X73.697 Y40.802 E54.26758
G1 X0.624 Y40.797 E57.91321
G1 X-4.602 Y40.997 E58.17412
G1 X-4.756 Y41 E58.18181
G1 X-74.417 Y40.991 E61.65721
G1 X-74.98 Y40.951 E61.68537
G1 X-75.533 Y40.832 E61.71359
G1 X-76.063 Y40.636 E61.74178
G1 X-76.561 Y40.367 E61.77002
G1 X-77.015 Y40.031 E61.7982
G1 X-77.418 Y39.634 E61.82642
G1 X-77.761 Y39.185 E61.85461
G1 X-78.037 Y38.691 E61.88284
G1 X-78.24 Y38.164 E61.91102
G1 X-78.367 Y37.613 E61.93923
G1 X-78.416 Y36.991 E61.97035
G1 X-78.416 Y-32.991 E65.46177
G1 X-78.376 Y-33.555 E65.48998
G1 X-78.257 Y-34.108 E65.5182
G1 X-78.061 Y-34.638 E65.54639
G1 X-77.793 Y-35.135 E65.57456
G1 X-77.457 Y-35.59 E65.60278
G1 X-77.06 Y-35.993 E65.631
G1 X-76.61 Y-36.335 E65.6592
G1 X-76.117 Y-36.611 E65.68739
G1 X-75.589 Y-36.815 E65.71563
G1 X-75.039 Y-36.942 E65.74379
G1 X-74.416 Y-36.991 E65.77497
G1 X-1.342 Y-36.986 E69.42065
G0 F3000 X-1.327 Y-36.586
G1 F1500 X3.899 Y-36.786 E69.68156
G1 X4.038 Y-36.789 E69.6885
G1 X73.699 Y-36.779 E73.1639
G1 X74.233 Y-36.739 E73.19062
G1 X74.756 Y-36.62 E73.21738
G1 X75.256 Y-36.425 E73.24415
G1 X75.72 Y-36.157 E73.27089
G1 X76.14 Y-35.824 E73.29763
G1 X76.506 Y-35.431 E73.32442
G1 X76.81 Y-34.989 E73.35118
G1 X77.044 Y-34.507 E73.37791
G1 X77.204 Y-33.995 E73.40468
G1 X77.287 Y-33.465 E73.43144
G1 X77.298 Y-33.179 E73.44572
G1 X77.297 Y36.802 E76.93709
G1 X77.257 Y37.337 E76.96385
G1 X77.138 Y37.86 E76.99061
G1 X76.943 Y38.359 E77.01734
G1 X76.675 Y38.824 E77.04412
G1 X76.342 Y39.244 E77.07086
G1 X75.95 Y39.61 E77.09761
G1 X75.508 Y39.913 E77.12435
G1 X75.025 Y40.148 E77.15115
G1 X74.514 Y40.308 E77.17786
G1 X73.984 Y40.391 E77.20462
G1 X73.697 Y40.402 E77.21895
G1 X0.609 Y40.397 E80.86533
G1 X-4.617 Y40.597 E81.12624
G1 X-4.755 Y40.6 E81.13313
G1 X-74.416 Y40.591 E84.60853
G1 X-74.951 Y40.551 E84.6353
G1 X-75.474 Y40.432 E84.66206
G1 X-75.974 Y40.237 E84.68883
G1 X-76.438 Y39.969 E84.71557
G1 X-76.858 Y39.636 E84.74231
G1 X-77.224 Y39.244 E84.76906
G1 X-77.528 Y38.801 E84.79587
G1 X-77.762 Y38.319 E84.8226
G1 X-77.922 Y37.807 E84.84936
G1 X-78.005 Y37.277 E84.87613
G1 X-78.016 Y36.991 E84.8904
G1 X-78.016 Y-32.991 E88.38182
G1 X-77.976 Y-33.526 E88.40859
G1 X-77.857 Y-34.049 E88.43535
G1 X-77.662 Y-34.548 E88.46207
G1 X-77.394 Y-35.013 E88.48885
G1 X-77.061 Y-35.433 E88.51559
G1 X-76.669 Y-35.799 E88.54235
G1 X-76.227 Y-36.102 E88.56908
G1 X-75.744 Y-36.337 E88.59588
G1 X-75.233 Y-36.497 E88.6226
G1 X-74.703 Y-36.58 E88.64936
G1 X-74.416 Y-36.591 E88.66369
G1 X-1.327 Y-36.586 E92.31011
G0 F3000 X-1.338 Y-36.186
G1 F1500 X3.915 Y-36.387 E92.57238
G1 X4.037 Y-36.389 E92.57847
G1 X73.698 Y-36.379 E96.05387
G1 X74.202 Y-36.339 E96.07909
G1 X74.694 Y-36.22 E96.10434
G1 X75.16 Y-36.025 E96.12955
G1 X75.59 Y-35.759 E96.15477
G1 X75.973 Y-35.429 E96.17999
G1 X76.299 Y-35.043 E96.2052
G1 X76.56 Y-34.61 E96.23043
G1 X76.75 Y-34.141 E96.25567
G1 X76.863 Y-33.649 E96.28086
G1 X76.898 Y-33.179 E96.30437
G1 X76.897 Y36.802 E99.79574
G1 X76.857 Y37.306 E99.82096
G1 X76.738 Y37.797 E99.84616
G1 X76.543 Y38.264 E99.87141
G1 X76.278 Y38.694 E99.89661
G1 X75.948 Y39.077 E99.92183
G1 X75.561 Y39.403 E99.94708
G1 X75.128 Y39.664 E99.9723
G1 X74.66 Y39.854 E99.9975
G1 X74.167 Y39.967 E100.02274
G1 X73.697 Y40.002 E100.04625
G1 X0.62 Y39.997 E103.69208
G1 X-4.633 Y40.198 E103.95434
G1 X-4.755 Y40.2 E103.96043
G1 X-74.416 Y40.191 E107.43583
G1 X-74.92 Y40.151 E107.46105
G1 X-75.412 Y40.032 E107.48631
G1 X-75.878 Y39.837 E107.51151
G1 X-76.308 Y39.571 E107.53673
G1 X-76.691 Y39.241 E107.56196
G1 X-77.017 Y38.855 E107.58716
G1 X-77.278 Y38.422 E107.61239
G1 X-77.468 Y37.953 E107.63763
G1 X-77.581 Y37.461 E107.66282
G1 X-77.616 Y36.991 E107.68633
G1 X-77.616 Y-32.991 E111.17775
G1 X-77.576 Y-33.495 E111.20297
G1 X-77.457 Y-33.986 E111.22818
G1 X-77.263 Y-34.453 E111.25341
G1 X-76.997 Y-34.883 E111.27863
G1 X-76.667 Y-35.266 E111.30385
G1 X-76.28 Y-35.592 E111.3291
G1 X-75.847 Y-35.853 E111.35432
G1 X-75.379 Y-36.043 E111.37952
G1 X-74.886 Y-36.156 E111.40476
G1 X-74.416 Y-36.191 E111.42827
G1 X-1.338 Y-36.186 E115.07414
G1 F1500 E113.07414
G0 F3000 X3.042 Y-32.575
G0 X4.321 Y-32.575
G0 X4.377 Y-32.519
G0 X4.307 Y-32.589
;TYPE:WALL-INNER
G1 F1500 E115.1573
G1 X73.107 Y-32.589 E118.58974
G1 X73.107 Y36.211 E122.02219
G1 X4.307 Y36.211 E125.45463
G1 X4.307 Y-32.589 E128.88708
G0 F3000 X3.907 Y-32.989
;TYPE:WALL-OUTER
G1 F1500 X73.507 Y-32.989 E132.35944
G1 X73.507 Y36.611 E135.8318
G1 X3.907 Y36.611 E139.30415
G1 X3.907 Y-32.989 E142.77651
G0 F3000 X4.107 Y-32.989
G0 X4.377 Y-32.519
G0 X72.907 Y-32.389
G0 X72.788 Y-32.428
;TYPE:SKIN
G1 F1500 X72.946 Y-32.27 E142.78766
G0 F3000 X72.946 Y-31.705
G1 F1500 X72.223 Y-32.428 E142.83867
G1 X72.153 Y-32.498
G0 F3000 X71.657 Y-32.428
G1 F1500 X72.946 Y-31.139 E142.92962
G1 X73.016 Y-31.069
G0 F3000 X72.946 Y-30.573
G1 F1500 X71.091 Y-32.428 E143.0605
G1 X71.021 Y-32.498
G0 F3000 X70.526 Y-32.428
G1 F1500 X72.946 Y-30.008 E143.23124
G1 X73.016 Y-29.938
G0 F3000 X72.946 Y-29.442
G1 F1500 X69.96 Y-32.428 E143.44192
G1 X69.89 Y-32.498
G0 F3000 X69.394 Y-32.428
G1 F1500 X72.946 Y-28.876 E143.69253
G1 X73.016 Y-28.806
G0 F3000 X72.946 Y-28.311
G1 F1500 X68.829 Y-32.428 E143.98301
G1 X68.759 Y-32.498
G0 F3000 X68.263 Y-32.428
G1 F1500 X72.946 Y-27.745 E144.31342
G1 X73.016 Y-27.675
G0 F3000 X72.946 Y-27.179
G1 F1500 X67.697 Y-32.428 E144.68377
G1 X67.627 Y-32.498
G0 F3000 X67.132 Y-32.428
G1 F1500 X72.946 Y-26.614 E145.09397
G1 X73.016 Y-26.544
G0 F3000 X72.946 Y-26.048
G1 F1500 X66.566 Y-32.428 E145.54412
G1 X66.496 Y-32.498
G0 F3000 X66 Y-32.428
G1 F1500 X72.946 Y-25.482 E146.0342
G1 X73.016 Y-25.412
G0 F3000 X72.946 Y-24.917
G1 F1500 X65.434 Y-32.428 E146.56417
G1 X65.364 Y-32.498
G0 F3000 X64.869 Y-32.428
G1 F1500 X72.946 Y-24.351 E147.13405
G1 X73.016 Y-24.281
G0 F3000 X72.946 Y-23.785
G1 F1500 X64.303 Y-32.428 E147.74386
G1 X64.233 Y-32.498
G0 F3000 X63.737 Y-32.428
G1 F1500 X72.946 Y-23.219 E148.3936
G1 X73.016 Y-23.149
G0 F3000 X72.946 Y-22.654
G1 F1500 X63.172 Y-32.428 E149.08321
G1 X63.102 Y-32.498
G0 F3000 X62.606 Y-32.428
G1 F1500 X72.946 Y-22.088 E149.81275
G1 X73.016 Y-22.018
G0 F3000 X72.946 Y-21.522
G1 F1500 X62.04 Y-32.428 E150.58223
G1 X61.97 Y-32.498
G0 F3000 X61.475 Y-32.428
G1 F1500 X72.946 Y-20.957 E151.39157
G1 X73.016 Y-20.887
G0 F3000 X72.946 Y-20.391
G1 F1500 X60.909 Y-32.428 E152.24085
G1 X60.839 Y-32.498
G0 F3000 X60.343 Y-32.428
G1 F1500 X72.946 Y-19.825 E153.13006
G1 X73.016 Y-19.755
G0 F3000 X72.946 Y-19.26
G1 F1500 X59.778 Y-32.428 E154.05913
G1 X59.708 Y-32.498
G0 F3000 X59.212 Y-32.428
G1 F1500 X72.946 Y-18.694 E155.02814
G1 X73.016 Y-18.624
G0 F3000 X72.946 Y-18.128
G1 F1500 X58.646 Y-32.428 E156.03708
G1 X58.576 Y-32.498
G0 F3000 X58.081 Y-32.428
G1 F1500 X72.946 Y-17.563 E157.08589
G1 X73.016 Y-17.493
G0 F3000 X72.946 Y-16.997
G1 F1500 X57.515 Y-32.428 E158.17463
G1 X57.445 Y-32.498
G0 F3000 X56.949 Y-32.428
G1 F1500 X72.946 Y-16.431 E159.3033
G1 X73.016 Y-16.361
G0 F3000 X72.946 Y-15.866
G1 F1500 X56.383 Y-32.428 E160.47188
G1 X56.313 Y-32.498
G0 F3000 X55.818 Y-32.428
G1 F1500 X72.946 Y-15.3 E161.68035
G1 X73.016 Y-15.23
G0 F3000 X72.946 Y-14.734
G1 F1500 X55.252 Y-32.428 E162.92876
G1 X55.182 Y-32.498
G0 F3000 X54.686 Y-32.428
G1 F1500 X72.946 Y-14.169 E164.21706
G1 X73.016 Y-14.099
G0 F3000 X72.946 Y-13.603
G1 F1500 X54.121 Y-32.428 E165.54527
G1 X54.051 Y-32.498
G0 F3000 X53.555 Y-32.428
G1 F1500 X72.946 Y-13.037 E166.91341
G1 X73.016 Y-12.967
G0 F3000 X72.946 Y-12.471
G1 F1500 X52.989 Y-32.428 E168.32148
G1 X52.919 Y-32.498
G0 F3000 X52.424 Y-32.428
G1 F1500 X72.946 Y-11.906 E169.76942
G1 X73.016 Y-11.836
G0 F3000 X72.946 Y-11.34
G1 F1500 X51.858 Y-32.428 E171.25729
G1 X51.788 Y-32.498
G0 F3000 X51.292 Y-32.428
G1 F1500 X72.946 Y-10.774 E172.7851
G1 X73.016 Y-10.704
G0 F3000 X72.946 Y-10.209
G1 F1500 X50.727 Y-32.428 E174.35277
G1 X50.657 Y-32.498
G0 F3000 X50.161 Y-32.428
G1 F1500 X72.946 Y-9.643 E175.96037
G1 X73.016 Y-9.573
G0 F3000 X72.946 Y-9.077
G1 F1500 X49.595 Y-32.428 E177.60791
G1 X49.525 Y-32.498
G0 F3000 X49.03 Y-32.428
G1 F1500 X72.946 Y-8.512 E179.29532
G1 X73.016 Y-8.442
G0 F3000 X72.946 Y-7.946
G1 F1500 X48.464 Y-32.428 E181.02265
G1 X48.394 Y-32.498
G0 F3000 X47.898 Y-32.428
G1 F1500 X72.946 Y-7.38 E182.78993
G1 X73.016 Y-7.31
G0 F3000 X72.946 Y-6.815
G1 F1500 X47.333 Y-32.428 E184.59706
G1 X47.263 Y-32.498
G0 F3000 X46.767 Y-32.428
G1 F1500 X72.946 Y-6.249 E186.44413
G1 X73.016 Y-6.179
G0 F3000 X72.946 Y-5.683
G1 F1500 X46.201 Y-32.428 E188.33114
G1 X46.131 Y-32.498
G0 F3000 X45.635 Y-32.428
G1 F1500 X72.946 Y-5.118 E190.25804
G1 X73.016 Y-5.048
G0 F3000 X72.946 Y-4.552
G1 F1500 X45.07 Y-32.428 E192.22484
G1 X45 Y-32.498
G0 F3000 X44.504 Y-32.428
G1 F1500 X72.946 Y-3.986 E194.23158
G1 X73.016 Y-3.916
G0 F3000 X72.946 Y-3.42
G1 F1500 X43.938 Y-32.428 E196.27825
G1 X43.868 Y-32.498
G0 F3000 X43.373 Y-32.428
G1 F1500 X72.946 Y-2.855 E198.36478
G1 X73.016 Y-2.785
G0 F3000 X72.946 Y-2.289
G1 F1500 X42.807 Y-32.428 E200.49125
G1 X42.737 Y-32.498
G0 F3000 X42.241 Y-32.428
G1 F1500 X72.946 Y-1.723 E202.65766
G1 X73.016 Y-1.653
G0 F3000 X72.946 Y-1.158
G1 F1500 X41.676 Y-32.428 E204.86392
G1 X41.606 Y-32.498
G0 F3000 X41.11 Y-32.428
G1 F1500 X72.946 Y-.592 E207.11013
G1 X73.016 Y-.522
G0 F3000 X72.946 Y-0.026
G1 F1500 X40.544 Y-32.428 E209.39626
G1 X40.474 Y-32.498
G0 F3000 X39.979 Y-32.428
G1 F1500 X72.946 Y0.538 E211.72223
G1 X73.016 Y0.608
G0 F3000 X72.946 Y1.104
G1 F1500 X39.413 Y-32.428 E214.08813
G1 X39.343 Y-32.498
G0 F3000 X38.847 Y-32.428
G1 F1500 X72.946 Y1.67 E216.49396
G1 X73.016 Y1.74
G0 F3000 X72.946 Y2.235
G1 F1500 X38.282 Y-32.428 E218.93966
G1 X38.212 Y-32.498
G0 F3000 X37.716 Y-32.428
G1 F1500 X72.946 Y2.801 E221.42529
G1 X73.016 Y2.871
G0 F3000 X72.946 Y3.367
G1 F1500 X37.15 Y-32.428 E223.95085
G1 X37.08 Y-32.498
G0 F3000 X36.584 Y-32.428
G1 F1500 X72.946 Y3.932 E226.51632
G1 X73.016 Y4.002
G0 F3000 X72.946 Y4.498
G1 F1500 X36.019 Y-32.428 E229.12168
G1 X35.949 Y-32.498
G0 F3000 X35.453 Y-32.428
G1 F1500 X72.946 Y5.064 E231.76698
G1 X73.016 Y5.134
G0 F3000 X72.946 Y5.629
G1 F1500 X34.887 Y-32.428 E234.45218
G1 X34.817 Y-32.498
G0 F3000 X34.322 Y-32.428
G1 F1500 X72.946 Y6.195 E237.17727
G1 X73.016 Y6.265
G0 F3000 X72.946 Y6.761
G1 F1500 X33.756 Y-32.428 E239.94231
G1 X33.686 Y-32.498
G0 F3000 X33.19 Y-32.428
G1 F1500 X72.946 Y7.327 E242.74727
G1 X73.016 Y7.397
G0 F3000 X72.946 Y7.892
G1 F1500 X32.625 Y-32.428 E245.5921
G1 X32.555 Y-32.498
G0 F3000 X32.059 Y-32.428
G1 F1500 X72.946 Y8.458 E248.47686
G1 X73.016 Y8.528
G0 F3000 X72.946 Y9.024
G1 F1500 X31.493 Y-32.428 E251.40156
G1 X31.423 Y-32.498
G0 F3000 X30.928 Y-32.428
G1 F1500 X72.946 Y9.589 E254.36612
G1 X73.016 Y9.659
G0 F3000 X72.946 Y10.155
G1 F1500 X30.362 Y-32.428 E257.37062
G1 X30.292 Y-32.498
G0 F3000 X29.796 Y-32.428
G1 F1500 X72.946 Y10.721 E260.41505
G1 X73.016 Y10.791
G0 F3000 X72.946 Y11.286
G1 F1500 X29.231 Y-32.428 E263.49934
G1 X29.161 Y-32.498
G0 F3000 X28.665 Y-32.428
G1 F1500 X72.946 Y11.852 E266.62357
G1 X73.016 Y11.922
G0 F3000 X72.946 Y12.418
G1 F1500 X28.099 Y-32.428 E269.78773
G1 X28.029 Y-32.498
G0 F3000 X27.534 Y-32.428
G1 F1500 X72.946 Y12.983 E272.99176
G1 X73.016 Y13.053
G0 F3000 X72.946 Y13.549
G1 F1500 X26.968 Y-32.428 E276.23572
G1 X26.898 Y-32.498
G0 F3000 X26.402 Y-32.428
G1 F1500 X72.946 Y14.115 E279.51962
G1 X73.016 Y14.185
G0 F3000 X72.946 Y14.68
G1 F1500 X25.836 Y-32.428 E282.84341
G1 X25.766 Y-32.498
G0 F3000 X25.271 Y-32.428
G1 F1500 X72.946 Y15.246 E286.2071
G1 X73.016 Y15.316
G0 F3000 X72.946 Y15.812
G1 F1500 X24.705 Y-32.428 E289.61073
G1 X24.635 Y-32.498
