;FLAVOR:Marlin
;TIME:1250
;Filament used: 1.20976m
;Layer height: 0.2
;Generated with Cura_SteamEngine 1.2.1
M190 S35
M104 S220
M109 S220
G28
G1 Z50.00 F400
G92 E0
G1 F200 E3
G92 E0
M132 X Y Z A
M907 X100 Y100 Z50 A100
;LAYER_COUNT:25
;LAYER:0
M107
G0 F3000 X39.301 Y1.363 Z0.3
;TYPE:SKIRT
G1 F1500 X39.454 Y6.767 E0.26971
G1 X39.911 Y12.14 E0.53874
G1 X40.67 Y17.471 E0.80739
G1 X41.732 Y22.767 E1.07687
G1 X42.369 Y25.363 E1.21022
G1 X43.073 Y27.926 E1.34283
G1 X44.739 Y33.102 E1.61411
G1 X45.889 Y36.195 E1.77874
G1 X46.067 Y36.788 E1.80963
G1 X46.167 Y37.399 E1.84052
G1 X46.19 Y37.867 E1.86389
G1 X46.191 Y41.39 E2.03966
G1 X46.151 Y42.008 E2.07055
G1 X46.032 Y42.616 E2.10146
G1 X45.836 Y43.203 E2.13234
G1 X45.566 Y43.76 E2.16322
G1 X45.226 Y44.278 E2.19413
G1 X44.822 Y44.748 E2.22505
G1 X44.361 Y45.162 E2.25596
G1 X43.851 Y45.513 E2.28685
G1 X43.3 Y45.795 E2.31773
G1 X42.717 Y46.004 E2.34863
G1 X42.112 Y46.137 E2.37954
G1 X41.39 Y46.191 E2.41566
G1 X37.866 Y46.19 E2.59147
G1 X37.248 Y46.15 E2.62237
G1 X36.64 Y46.03 E2.65329
G1 X36.228 Y45.901 E2.67482
G1 X31.816 Y44.298 E2.90902
G1 X26.653 Y42.718 E3.17839
G1 X21.353 Y41.418 E3.45065
G1 X18.811 Y40.91 E3.57998
G1 X13.469 Y40.073 E3.84974
G1 X8.047 Y39.535 E4.12157
G1 X5.464 Y39.389 E4.25065
G1 X-1.363 Y39.301 E4.59128
G1 X-6.767 Y39.454 E4.86099
G1 X-12.14 Y39.911 E5.13002
G1 X-17.471 Y40.67 E5.39867
G1 X-22.767 Y41.732 E5.66814
G1 X-25.363 Y42.369 E5.8015
G1 X-27.926 Y43.073 E5.93411
G1 X-33.103 Y44.739 E6.20543
G1 X-36.196 Y45.889 E6.37006
G1 X-36.789 Y46.067 E6.40095
G1 X-37.401 Y46.167 E6.43189
G1 X-37.868 Y46.19 E6.45522
G1 X-41.39 Y46.191 E6.63093
G1 X-42.008 Y46.151 E6.66183
G1 X-42.616 Y46.032 E6.69273
G1 X-43.203 Y45.836 E6.72361
G1 X-43.76 Y45.566 E6.75449
G1 X-44.278 Y45.226 E6.7854
G1 X-44.748 Y44.822 E6.81632
G1 X-45.162 Y44.361 E6.84724
G1 X-45.513 Y43.851 E6.87812
G1 X-45.795 Y43.3 E6.90901
G1 X-46.004 Y42.717 E6.9399
G1 X-46.137 Y42.112 E6.97081
G1 X-46.191 Y41.39 E7.00693
G1 X-46.19 Y37.873 E7.18239
G1 X-46.15 Y37.255 E7.21329
G1 X-46.03 Y36.647 E7.24421
G1 X-45.881 Y36.18 E7.26866
G1 X-45.2 Y34.373 E7.36501
G1 X-43.471 Y29.247 E7.6349
G1 X-42.029 Y24.006 E7.90609
G1 X-41.425 Y21.39 E8.04004
G1 X-40.91 Y18.811 E8.17124
G1 X-40.073 Y13.469 E8.44101
G1 X-39.535 Y8.047 E8.71284
G1 X-39.389 Y5.464 E8.84191
G1 X-39.301 Y-1.363 E9.18254
G1 X-39.454 Y-6.767 E9.45226
G1 X-39.911 Y-12.14 E9.72128
G1 X-40.67 Y-17.471 E9.98993
G1 X-41.732 Y-22.767 E10.25941
G1 X-42.369 Y-25.363 E10.39277
G1 X-43.073 Y-27.926 E10.52537
G1 X-44.746 Y-33.126 E10.7979
G1 X-45.916 Y-36.404 E10.97154
G1 X-46.086 Y-36.999 E11.00241
G1 X-46.178 Y-37.612 E11.03334
G1 X-46.195 Y-38.023 E11.05386
G1 X-46.191 Y-41.397 E11.22219
G1 X-46.15 Y-42.015 E11.25309
G1 X-46.03 Y-42.622 E11.28396
G1 X-45.833 Y-43.209 E11.31485
G1 X-45.562 Y-43.766 E11.34576
G1 X-45.221 Y-44.284 E11.3767
G1 X-44.817 Y-44.753 E11.40758
G1 X-44.356 Y-45.166 E11.43846
G1 X-43.845 Y-45.516 E11.46936
G1 X-43.293 Y-45.798 E11.50028
G1 X-42.71 Y-46.006 E11.53116
G1 X-42.105 Y-46.138 E11.56206
G1 X-41.39 Y-46.191 E11.59783
G1 X-37.866 Y-46.19 E11.77364
G1 X-37.248 Y-46.15 E11.80454
G1 X-36.64 Y-46.03 E11.83546
G1 X-36.228 Y-45.901 E11.85699
G1 X-31.817 Y-44.298 E12.09114
G1 X-26.65 Y-42.717 E12.36072
G1 X-21.367 Y-41.422 E12.63209
G1 X-18.801 Y-40.909 E12.76265
G1 X-13.469 Y-40.073 E13.03191
G1 X-8.047 Y-39.535 E13.30374
G1 X-5.464 Y-39.389 E13.43282
G1 X1.363 Y-39.301 E13.77344
G1 X6.767 Y-39.454 E14.04316
G1 X12.14 Y-39.911 E14.31219
G1 X17.471 Y-40.67 E14.58083
G1 X22.767 Y-41.732 E14.85031
G1 X25.363 Y-42.369 E14.98367
G1 X27.926 Y-43.073 E15.11627
G1 X33.103 Y-44.739 E15.3876
G1 X36.196 Y-45.889 E15.55223
G1 X36.789 Y-46.067 E15.58312
G1 X37.401 Y-46.167 E15.61406
G1 X37.868 Y-46.19 E15.63738
G1 X41.39 Y-46.191 E15.8131
G1 X42.008 Y-46.151 E15.84399
G1 X42.616 Y-46.032 E15.8749
G1 X43.203 Y-45.836 E15.90578
G1 X43.76 Y-45.566 E15.93666
G1 X44.278 Y-45.226 E15.96757
G1 X44.748 Y-44.822 E15.99849
G1 X45.162 Y-44.361 E16.02941
G1 X45.513 Y-43.851 E16.06029
G1 X45.795 Y-43.3 E16.09117
G1 X46.004 Y-42.717 E16.12207
G1 X46.137 Y-42.112 E16.15298
G1 X46.191 Y-41.39 E16.1891
G1 X46.19 Y-37.864 E16.36501
G1 X46.15 Y-37.246 E16.39591
G1 X46.03 Y-36.638 E16.42683
G1 X45.879 Y-36.165 E16.4516
G1 X45.197 Y-34.363 E16.54772
G1 X43.471 Y-29.246 E16.81714
G1 X42.029 Y-24.006 E17.08829
G1 X41.425 Y-21.39 E17.22223
G1 X40.91 Y-18.811 E17.35344
G1 X40.073 Y-13.469 E17.6232
G1 X39.535 Y-8.047 E17.89504
G1 X39.389 Y-5.464 E18.02411
G1 X39.301 Y1.363 E18.36474
G0 F3000 X38.901 Y1.37
G1 F1500 X39.054 Y6.793 E18.6354
G1 X39.512 Y12.178 E18.90503
G1 X40.276 Y17.538 E19.17514
G1 X41.346 Y22.872 E19.44656
G1 X41.97 Y25.417 E19.57729
G1 X42.691 Y28.042 E19.7131
G1 X44.365 Y33.244 E19.98574
G1 X45.514 Y36.334 E20.15021
G1 X45.683 Y36.903 E20.17982
G1 X45.774 Y37.489 E20.20941
G1 X45.79 Y37.867 E20.22829
G1 X45.791 Y41.39 E20.40405
G1 X45.751 Y41.981 E20.4336
G1 X45.632 Y42.562 E20.46319
G1 X45.436 Y43.122 E20.49279
G1 X45.167 Y43.65 E20.52235
G1 X44.829 Y44.137 E20.55193
G1 X44.428 Y44.575 E20.58156
G1 X43.973 Y44.954 E20.6111
G1 X43.47 Y45.269 E20.64071
G1 X42.93 Y45.513 E20.67027
G1 X42.362 Y45.683 E20.69985
G1 X41.776 Y45.774 E20.72944
G1 X41.39 Y45.791 E20.74871
G1 X37.866 Y45.79 E20.92453
G1 X37.274 Y45.75 E20.95413
G1 X36.693 Y45.631 E20.98372
G1 X36.365 Y45.526 E21.0009
G1 X31.92 Y43.911 E21.23684
G1 X26.76 Y42.332 E21.50606
G1 X21.457 Y41.031 E21.77847
G1 X18.877 Y40.516 E21.90973
G1 X13.516 Y39.675 E22.18046
G1 X8.088 Y39.137 E22.45259
G1 X5.469 Y38.989 E22.58347
G1 X-1.37 Y38.901 E22.92469
G1 X-6.793 Y39.054 E23.19535
G1 X-12.178 Y39.512 E23.46498
G1 X-17.538 Y40.276 E23.7351
G1 X-22.872 Y41.346 E24.00651
G1 X-25.417 Y41.97 E24.13724
G1 X-28.042 Y42.691 E24.27306
G1 X-33.252 Y44.367 E24.5461
G1 X-36.336 Y45.514 E24.71026
G1 X-36.904 Y45.683 E24.73983
G1 X-37.49 Y45.774 E24.76941
G1 X-37.868 Y45.79 E24.78829
G1 X-41.39 Y45.791 E24.964
G1 X-41.981 Y45.751 E24.99355
G1 X-42.562 Y45.632 E25.02314
G1 X-43.122 Y45.436 E25.05274
G1 X-43.65 Y45.167 E25.08231
G1 X-44.137 Y44.829 E25.11188
G1 X-44.575 Y44.428 E25.14151
G1 X-44.954 Y43.973 E25.17105
G1 X-45.269 Y43.47 E25.20066
G1 X-45.513 Y42.93 E25.23022
G1 X-45.683 Y42.362 E25.2598
G1 X-45.774 Y41.776 E25.28939
G1 X-45.791 Y41.39 E25.30867
G1 X-45.79 Y37.873 E25.48413
G1 X-45.75 Y37.281 E25.51373
G1 X-45.631 Y36.7 E25.54332
G1 X-45.507 Y36.322 E25.56317
G1 X-44.826 Y34.517 E25.65942
G1 X-43.086 Y29.354 E25.93123
G1 X-41.641 Y24.105 E26.20285
G1 X-41.038 Y21.492 E26.33664
G1 X-40.516 Y18.877 E26.46967
G1 X-39.675 Y13.516 E26.74041
G1 X-39.137 Y8.088 E27.01254
G1 X-38.989 Y5.469 E27.14341
G1 X-38.901 Y-1.37 E27.48464
G1 X-39.054 Y-6.793 E27.7553
G1 X-39.512 Y-12.178 E28.02493
G1 X-40.276 Y-17.538 E28.29504
G1 X-41.346 Y-22.872 E28.56646
G1 X-41.97 Y-25.417 E28.69719
G1 X-42.691 Y-28.042 E28.833
G1 X-44.375 Y-33.275 E29.10726
G1 X-45.539 Y-36.538 E29.2801
G1 X-45.7 Y-37.109 E29.3097
G1 X-45.783 Y-37.696 E29.33928
G1 X-45.795 Y-38.022 E29.35555
G1 X-45.791 Y-41.396 E29.52388
G1 X-45.75 Y-41.988 E29.55349
G1 X-45.631 Y-42.569 E29.58307
G1 X-45.434 Y-43.128 E29.61264
G1 X-45.163 Y-43.656 E29.64225
G1 X-44.825 Y-44.142 E29.67179
G1 X-44.424 Y-44.579 E29.70138
G1 X-43.967 Y-44.958 E29.731
G1 X-43.464 Y-45.272 E29.76058
G1 X-42.924 Y-45.515 E29.79012
G1 X-42.355 Y-45.684 E29.81974
G1 X-41.769 Y-45.775 E29.84932
G1 X-41.39 Y-45.791 E29.86825
G1 X-37.866 Y-45.79 E30.04406
G1 X-37.274 Y-45.75 E30.07366
G1 X-36.693 Y-45.631 E30.10325
G1 X-36.364 Y-45.525 E30.1205
G1 X-31.949 Y-43.921 E30.35485
G1 X-26.74 Y-42.327 E30.62662
G1 X-21.444 Y-41.029 E30.89866
G1 X-18.895 Y-40.519 E31.02835
G1 X-13.516 Y-39.675 E31.29999
G1 X-8.088 Y-39.137 E31.57212
G1 X-5.469 Y-38.989 E31.70299
G1 X1.37 Y-38.901 E32.04422
G1 X6.793 Y-39.054 E32.31488
G1 X12.178 Y-39.512 E32.58451
G1 X17.538 Y-40.276 E32.85463
G1 X22.872 Y-41.346 E33.12604
G1 X25.417 Y-41.97 E33.25677
G1 X28.042 Y-42.691 E33.39259
G1 X33.252 Y-44.367 E33.66563
G1 X36.336 Y-45.514 E33.82979
G1 X36.904 Y-45.683 E33.85936
G1 X37.49 Y-45.774 E33.88894
G1 X37.868 Y-45.79 E33.90782
G1 X41.39 Y-45.791 E34.08353
G1 X41.981 Y-45.751 E34.11308
G1 X42.562 Y-45.632 E34.14267
G1 X43.122 Y-45.436 E34.17227
G1 X43.65 Y-45.167 E34.20183
G1 X44.137 Y-44.829 E34.23141
G1 X44.575 Y-44.428 E34.26104
G1 X44.954 Y-43.973 E34.29058
G1 X45.269 Y-43.47 E34.32019
G1 X45.513 Y-42.93 E34.34975
G1 X45.683 Y-42.362 E34.37933
G1 X45.774 Y-41.776 E34.40892
G1 X45.791 Y-41.39 E34.42819
G1 X45.79 Y-37.864 E34.60411
G1 X45.75 Y-37.272 E34.63371
G1 X45.631 Y-36.691 E34.6633
G1 X45.505 Y-36.307 E34.68346
G1 X44.823 Y-34.506 E34.77954
G1 X43.086 Y-29.353 E35.05084
G1 X41.641 Y-24.105 E35.3224
G1 X41.038 Y-21.492 E35.45619
G1 X40.516 Y-18.877 E35.58923
G1 X39.675 Y-13.516 E35.85996
G1 X39.137 Y-8.088 E36.13209
G1 X38.989 Y-5.469 E36.26296
G1 X38.901 Y1.37 E36.60419
G0 F3000 X38.501 Y1.376
G1 F1500 X38.654 Y6.803 E36.87505
G1 X39.116 Y12.235 E37.14704
G1 X39.881 Y17.602 E37.4175
G1 X40.953 Y22.949 E37.68957
G1 X41.59 Y25.546 E37.82298
G1 X42.306 Y28.151 E37.95776
G1 X43.988 Y33.38 E38.2318
G1 X45.139 Y36.474 E38.3965
G1 X45.298 Y37.016 E38.42468
G1 X45.379 Y37.576 E38.45291
G1 X45.39 Y37.867 E38.46744
G1 X45.391 Y41.39 E38.6432
G1 X45.351 Y41.954 E38.67141
G1 X45.232 Y42.506 E38.69958
G1 X45.037 Y43.037 E38.7278
G1 X44.768 Y43.534 E38.756
G1 X44.432 Y43.989 E38.78422
G1 X44.036 Y44.392 E38.8124
G1 X43.586 Y44.735 E38.84063
G1 X43.093 Y45.011 E38.86882
G1 X42.566 Y45.215 E38.89701
G1 X42.015 Y45.342 E38.92522
G1 X41.39 Y45.391 E38.9565
G1 X37.866 Y45.39 E39.13231
G1 X37.302 Y45.35 E39.16052
G1 X36.501 Y45.15 E39.20171
G1 X32.053 Y43.534 E39.43781
G1 X26.863 Y41.946 E39.70859
G1 X21.54 Y40.64 E39.98204
G1 X18.949 Y40.122 E40.11386
G1 X13.549 Y39.276 E40.38655
G1 X8.148 Y38.74 E40.65733
G1 X5.474 Y38.589 E40.79095
G1 X-1.376 Y38.501 E41.13273
G1 X-6.803 Y38.654 E41.40359
G1 X-12.235 Y39.116 E41.67557
G1 X-17.602 Y39.881 E41.94604
G1 X-22.949 Y40.953 E42.21811
G1 X-25.546 Y41.59 E42.35152
G1 X-28.151 Y42.306 E42.4863
G1 X-33.38 Y43.988 E42.76034
G1 X-36.475 Y45.139 E42.92508
G1 X-37.017 Y45.298 E42.95326
G1 X-37.577 Y45.379 E42.98149
G1 X-37.868 Y45.39 E42.99602
G1 X-41.39 Y45.391 E43.17173
G1 X-41.954 Y45.351 E43.19994
G1 X-42.506 Y45.232 E43.22811
G1 X-43.037 Y45.037 E43.25634
G1 X-43.534 Y44.768 E43.28453
G1 X-43.989 Y44.432 E43.31275
G1 X-44.392 Y44.036 E43.34094
G1 X-44.735 Y43.586 E43.36916
G1 X-45.011 Y43.093 E43.39735
G1 X-45.215 Y42.566 E43.42555
G1 X-45.342 Y42.015 E43.45376
G1 X-45.391 Y41.39 E43.48503
G1 X-45.39 Y37.873 E43.6605
G1 X-45.35 Y37.309 E43.68871
G1 X-45.231 Y36.756 E43.71693
G1 X-45.133 Y36.463 E43.73234
G1 X-44.446 Y34.642 E43.82944
G1 X-42.706 Y29.479 E44.10126
G1 X-41.25 Y24.188 E44.37504
G1 X-40.65 Y21.589 E44.50812
G1 X-40.122 Y18.949 E44.64243
G1 X-39.276 Y13.549 E44.91513
G1 X-38.74 Y8.148 E45.18591
G1 X-38.589 Y5.474 E45.31953
G1 X-38.501 Y-1.389 E45.66195
G1 X-38.654 Y-6.803 E45.93216
G1 X-39.116 Y-12.235 E46.20415
G1 X-39.881 Y-17.602 E46.47461
G1 X-40.953 Y-22.949 E46.74668
G1 X-41.59 Y-25.546 E46.88009
G1 X-42.306 Y-28.151 E47.01487
G1 X-44 Y-33.415 E47.29076
G1 X-45.162 Y-36.673 E47.46333
G1 X-45.314 Y-37.217 E47.49151
G1 X-45.395 Y-38.022 E47.53188
G1 X-45.391 Y-41.396 E47.7002
G1 X-45.35 Y-41.96 E47.72842
G1 X-45.231 Y-42.512 E47.75659
G1 X-45.034 Y-43.042 E47.7848
G1 X-44.765 Y-43.539 E47.81299
G1 X-44.429 Y-43.994 E47.84121
G1 X-44.031 Y-44.396 E47.86943
G1 X-43.581 Y-44.738 E47.89763
G1 X-43.088 Y-45.013 E47.9258
G1 X-42.56 Y-45.216 E47.95402
G1 X-42.009 Y-45.343 E47.98223
G1 X-41.39 Y-45.391 E48.0132
G1 X-37.866 Y-45.39 E48.18902
G1 X-37.302 Y-45.35 E48.21722
G1 X-36.501 Y-45.149 E48.25843
G1 X-32.071 Y-43.539 E48.49358
G1 X-26.864 Y-41.946 E48.76525
G1 X-21.526 Y-40.637 E49.03945
G1 X-18.962 Y-40.124 E49.1699
G1 X-13.549 Y-39.276 E49.44325
G1 X-8.148 Y-38.74 E49.71403
G1 X-5.474 Y-38.589 E49.84765
G1 X1.376 Y-38.501 E50.18943
G1 X6.803 Y-38.654 E50.46029
G1 X12.235 Y-39.116 E50.73227
G1 X17.602 Y-39.881 E51.00274
G1 X22.949 Y-40.953 E51.27481
G1 X25.546 Y-41.59 E51.40822
G1 X28.151 Y-42.306 E51.543
G1 X33.38 Y-43.988 E51.81704
G1 X36.475 Y-45.139 E51.98178
G1 X37.017 Y-45.298 E52.00996
G1 X37.577 Y-45.379 E52.03819
G1 X37.868 Y-45.39 E52.05272
G1 X41.39 Y-45.391 E52.22843
G1 X41.954 Y-45.351 E52.25664
G1 X42.506 Y-45.232 E52.28482
G1 X43.037 Y-45.037 E52.31304
G1 X43.534 Y-44.768 E52.34123
G1 X43.989 Y-44.432 E52.36945
G1 X44.392 Y-44.036 E52.39764
G1 X44.735 Y-43.586 E52.42587
G1 X45.011 Y-43.093 E52.45405
G1 X45.215 Y-42.566 E52.48225
G1 X45.342 Y-42.015 E52.51046
G1 X45.391 Y-41.39 E52.54173
G1 X45.39 Y-37.864 E52.71765
G1 X45.35 Y-37.3 E52.74586
G1 X45.231 Y-36.747 E52.77408
G1 X45.131 Y-36.448 E52.78981
G1 X44.443 Y-34.632 E52.88669
G1 X42.707 Y-29.482 E53.15783
G1 X41.248 Y-24.182 E53.43208
G1 X40.65 Y-21.589 E53.56485
G1 X40.122 Y-18.949 E53.69916
G1 X39.276 Y-13.549 E53.97186
G1 X38.74 Y-8.148 E54.24264
G1 X38.589 Y-5.474 E54.37626
G1 X38.501 Y1.376 E54.71803
G0 F3000 X38.101 Y1.358
G1 F1500 X38.256 Y6.848 E54.99204
G1 X38.717 Y12.271 E55.26357
G1 X39.486 Y17.665 E55.5354
G1 X40.566 Y23.054 E55.8096
G1 X41.202 Y25.642 E55.94256
G1 X41.923 Y28.267 E56.07837
G1 X43.607 Y33.502 E56.35273
G1 X44.764 Y36.613 E56.51832
G1 X44.913 Y37.128 E56.54507
G1 X44.99 Y37.867 E56.58214
G1 X44.991 Y41.39 E56.7579
G1 X44.951 Y41.925 E56.78467
G1 X44.832 Y42.448 E56.81143
G1 X44.637 Y42.947 E56.83816
G1 X44.37 Y43.412 E56.86491
G1 X44.037 Y43.832 E56.89165
G1 X43.645 Y44.198 E56.9184
G1 X43.203 Y44.502 E56.94517
G1 X42.72 Y44.737 E56.97197
G1 X42.209 Y44.897 E56.99868
G1 X41.679 Y44.979 E57.02544
G1 X41.39 Y44.991 E57.03987
G1 X37.866 Y44.99 E57.21568
G1 X37.331 Y44.95 E57.24245
G1 X36.638 Y44.774 E57.27812
G1 X32.174 Y43.152 E57.51507
G1 X26.971 Y41.56 E57.78653
G1 X21.621 Y40.248 E58.06135
G1 X19.042 Y39.732 E58.19257
G1 X13.594 Y38.878 E58.46769
G1 X8.165 Y38.34 E58.73987
G1 X5.501 Y38.189 E58.87299
G1 X-1.358 Y38.101 E59.21522
G1 X-6.848 Y38.256 E59.48922
G1 X-12.271 Y38.717 E59.76075
G1 X-17.665 Y39.486 E60.03258
G1 X-23.054 Y40.566 E60.30679
G1 X-25.642 Y41.202 E60.43974
G1 X-28.267 Y41.923 E60.57556
G1 X-33.502 Y43.607 E60.84991
G1 X-36.614 Y44.764 E61.01555
G1 X-37.13 Y44.913 E61.04235
G1 X-37.868 Y44.99 E61.07937
G1 X-41.39 Y44.991 E61.25508
G1 X-41.925 Y44.951 E61.28185
G1 X-42.448 Y44.832 E61.30861
G1 X-42.947 Y44.637 E61.33533
G1 X-43.412 Y44.37 E61.36209
G1 X-43.832 Y44.037 E61.38883
G1 X-44.198 Y43.645 E61.41558
G1 X-44.502 Y43.203 E61.44235
G1 X-44.737 Y42.72 E61.46914
G1 X-44.897 Y42.209 E61.49586
G1 X-44.979 Y41.679 E61.52261
G1 X-44.991 Y41.39 E61.53705
G1 X-44.99 Y37.873 E61.71251
G1 X-44.95 Y37.338 E61.73927
G1 X-44.758 Y36.604 E61.77713
G1 X-44.075 Y34.793 E61.87369
G1 X-42.321 Y29.591 E62.14757
G1 X-40.868 Y24.309 E62.42088
G1 X-40.249 Y21.627 E62.55821
G1 X-39.732 Y19.042 E62.68973
G1 X-38.878 Y13.594 E62.96485
G1 X-38.34 Y8.165 E63.23703
G1 X-38.189 Y5.501 E63.37015
G1 X-38.101 Y-1.358 E63.71237
G1 X-38.256 Y-6.848 E63.98638
G1 X-38.717 Y-12.271 E64.25791
G1 X-39.486 Y-17.665 E64.52974
G1 X-40.566 Y-23.054 E64.80394
G1 X-41.202 Y-25.642 E64.9369
G1 X-41.923 Y-28.267 E65.07271
G1 X-43.609 Y-33.508 E65.34738
G1 X-44.786 Y-36.807 E65.52213
G1 X-44.928 Y-37.324 E65.54888
G1 X-44.995 Y-38.021 E65.58382
G1 X-44.991 Y-41.395 E65.75215
G1 X-44.95 Y-41.93 E65.77891
G1 X-44.831 Y-42.453 E65.80567
G1 X-44.635 Y-42.952 E65.83242
G1 X-44.367 Y-43.417 E65.8592
G1 X-44.033 Y-43.836 E65.88593
G1 X-43.641 Y-44.202 E65.91269
G1 X-43.198 Y-44.505 E65.93946
G1 X-42.715 Y-44.738 E65.96622
G1 X-42.204 Y-44.898 E65.99293
G1 X-41.674 Y-44.98 E66.01969
G1 X-41.39 Y-44.991 E66.03387
G1 X-37.866 Y-44.99 E66.20968
G1 X-37.331 Y-44.95 E66.23645
G1 X-36.637 Y-44.774 E66.27217
G1 X-32.186 Y-43.157 E66.50843
G1 X-26.95 Y-41.555 E66.78161
G1 X-21.631 Y-40.251 E67.05483
G1 X-19.037 Y-39.732 E67.18681
G1 X-13.594 Y-38.878 E67.46168
G1 X-8.165 Y-38.34 E67.73386
G1 X-5.501 Y-38.189 E67.86699
G1 X1.358 Y-38.101 E68.20921
G1 X6.848 Y-38.256 E68.48322
