;FLAVOR:Marlin
;TIME:132
;Filament used: 0.0905552m
;Layer height: 0.2
;Generated with Cura_SteamEngine 1.2.1
M190 S35
M104 S220
M109 S220
G28
G1 Z50.00 F400
G92 E0
G1 F200 E3
G92 E0
M132 X Y Z A
M907 X100 Y100 Z50 A100
;LAYER_COUNT:25
;LAYER:0
M107
G0 F3000 X7.91 Y-6.466 Z0.3
;TYPE:SKIRT
G1 F1500 X11.474 Y-.534 E0.34526
G1 X11.758 Y0.016 E0.37614
G1 X11.968 Y0.599 E0.40705
G1 X12.102 Y1.203 E0.43792
G1 X12.158 Y1.82 E0.46883
G1 X12.133 Y2.439 E0.49974
G1 X12.028 Y3.05 E0.53067
G1 X11.822 Y3.705 E0.56492
G1 X11.177 Y5.334 E0.65233
G1 X10.912 Y5.894 E0.68324
G1 X10.75 Y6.165 E0.69899
G1 X10.132 Y7.125 E0.75595
G1 X9.688 Y7.711 E0.79263
G1 X8.93 Y8.566 E0.84964
G1 X8.513 Y8.982 E0.87902
G1 X8.039 Y9.4 E0.91055
G1 X7.542 Y9.783 E0.94186
G1 X6.385 Y10.561 E1.01142
G1 X5.583 Y10.996 E1.05694
G1 X4.264 Y11.556 E1.12843
G1 X3.39 Y11.832 E1.17415
G1 X1.942 Y12.141 E1.24802
G1 X1.118 Y12.244 E1.28945
G1 X0.039 Y12.284 E1.34332
G1 X-.673 Y12.257 E1.37887
G1 X-1.79 Y12.132 E1.43494
G1 X-2.475 Y12.005 E1.4697
G1 X-3.492 Y11.738 E1.52216
G1 X-4.116 Y11.527 E1.55502
G1 X-5.061 Y11.134 E1.60608
G1 X-5.68 Y10.823 E1.64064
G1 X-6.639 Y10.25 E1.69637
G1 X-7.12 Y9.921 E1.72545
G1 X-7.701 Y9.47 E1.76214
G1 X-8.136 Y9.088 E1.79103
G1 X-8.874 Y8.357 E1.84285
G1 X-9.398 Y7.743 E1.88312
G1 X-10.265 Y6.533 E1.95738
G1 X-10.592 Y6.007 E1.98828
G1 X-10.743 Y5.701 E2.00531
G1 X-11.353 Y4.341 E2.07967
G1 X-11.635 Y3.52 E2.12298
G1 X-11.938 Y2.284 E2.18647
G1 X-12.061 Y1.514 E2.22537
G1 X-12.147 Y0.412 E2.28052
G1 X-12.157 Y-.19 E2.31056
G1 X-12.12 Y-.966 E2.34932
G1 X-12.058 Y-1.538 E2.37802
G1 X-11.88 Y-2.59 E2.43125
G1 X-11.65 Y-3.451 E2.47571
G1 X-11.069 Y-5.025 E2.55942
G1 X-10.818 Y-5.591 E2.59031
G1 X-10.582 Y-5.992 E2.61352
G1 X-9.661 Y-7.399 E2.69742
G1 X-9.289 Y-7.894 E2.72831
G1 X-9.028 Y-8.175 E2.74744
G1 X-7.969 Y-9.227 E2.82192
G1 X-7.323 Y-9.765 E2.86386
G1 X-6.427 Y-10.387 E2.91828
G1 X-5.635 Y-10.832 E2.9636
G1 X-4.035 Y-11.541 E3.05091
G1 X-3.221 Y-11.818 E3.09381
G1 X-2.289 Y-12.044 E3.14165
G1 X-1.608 Y-12.158 E3.1761
G1 X-.461 Y-12.266 E3.23358
G1 X0.142 Y-12.285 E3.26368
G1 X0.894 Y-12.261 E3.30121
G1 X1.561 Y-12.192 E3.33467
G1 X2.882 Y-11.963 E3.40155
G1 X3.484 Y-11.819 E3.43244
G1 X4.063 Y-11.597 E3.46337
G1 X4.608 Y-11.303 E3.49427
G1 X5.11 Y-10.942 E3.52511
G1 X5.563 Y-10.518 E3.55607
G1 X5.956 Y-10.04 E3.58694
G1 X6.298 Y-9.491 E3.61921
G1 X7.91 Y-6.466 E3.79022
G0 F3000 X7.563 Y-6.266
G1 F1500 X11.131 Y-.328 E4.13584
G1 X11.401 Y0.2 E4.16542
G1 X11.598 Y0.759 E4.19499
G1 X11.718 Y1.34 E4.22459
G1 X11.759 Y1.931 E4.25415
G1 X11.72 Y2.523 E4.28375
G1 X11.602 Y3.104 E4.31332
G1 X11.45 Y3.558 E4.33721
G1 X10.805 Y5.187 E4.42462
G1 X10.414 Y5.949 E4.46735
G1 X9.796 Y6.909 E4.52431
G1 X9.388 Y7.446 E4.55796
G1 X8.63 Y8.301 E4.61496
G1 X8.248 Y8.682 E4.64188
G1 X7.774 Y9.1 E4.67341
G1 X7.319 Y9.451 E4.70208
G1 X6.162 Y10.229 E4.77164
G1 X5.427 Y10.628 E4.81336
G1 X4.108 Y11.188 E4.88485
G1 X3.306 Y11.441 E4.92681
G1 X1.858 Y11.75 E5.00067
G1 X1.103 Y11.844 E5.03863
G1 X0.024 Y11.884 E5.0925
G1 X-.628 Y11.86 E5.12505
G1 X-1.745 Y11.735 E5.18113
G1 X-2.373 Y11.618 E5.213
G1 X-3.39 Y11.351 E5.26545
G1 X-3.963 Y11.158 E5.29562
G1 X-4.908 Y10.765 E5.34668
G1 X-5.475 Y10.479 E5.37836
G1 X-6.434 Y9.906 E5.4341
G1 X-6.875 Y9.605 E5.46074
G1 X-7.456 Y9.154 E5.49743
G1 X-7.854 Y8.804 E5.52387
G1 X-8.592 Y8.073 E5.5757
G1 X-9.073 Y7.51 E5.61264
G1 X-9.94 Y6.3 E5.6869
G1 X-10.378 Y5.538 E5.73075
G1 X-10.988 Y4.178 E5.80512
G1 X-11.246 Y3.425 E5.84483
G1 X-11.549 Y2.189 E5.90832
G1 X-11.663 Y1.483 E5.944
G1 X-11.749 Y0.381 E5.99914
G1 X-11.757 Y-.171 E6.02668
G1 X-11.72 Y-.947 E6.06544
G1 X-11.663 Y-1.471 E6.09174
G1 X-11.485 Y-2.523 E6.14497
G1 X-11.275 Y-3.313 E6.18575
G1 X-10.694 Y-4.887 E6.26946
G1 X-10.451 Y-5.428 E6.29905
G1 X-10.247 Y-5.773 E6.31904
G1 X-9.326 Y-7.18 E6.40294
G1 X-8.969 Y-7.653 E6.4325
G1 X-8.746 Y-7.892 E6.44881
G1 X-7.687 Y-8.944 E6.52328
G1 X-7.095 Y-9.436 E6.56169
G1 X-6.199 Y-10.058 E6.6161
G1 X-5.473 Y-10.467 E6.65768
G1 X-3.873 Y-11.176 E6.74499
G1 X-3.127 Y-11.429 E6.78429
G1 X-2.195 Y-11.655 E6.83213
G1 X-1.57 Y-11.76 E6.86375
G1 X-.423 Y-11.868 E6.92123
G1 X0.129 Y-11.885 E6.94878
G1 X0.881 Y-11.861 E6.98632
G1 X1.493 Y-11.798 E7.01701
G1 X2.814 Y-11.569 E7.0839
G1 X3.39 Y-11.429 E7.11347
G1 X3.942 Y-11.212 E7.14306
G1 X4.459 Y-10.923 E7.17261
G1 X4.934 Y-10.568 E7.2022
G1 X5.356 Y-10.151 E7.2318
G1 X5.718 Y-9.682 E7.26135
G1 X5.945 Y-9.303 E7.2834
G1 X7.563 Y-6.266 E7.45507
G0 F3000 X7.217 Y-6.066
G1 F1500 X10.788 Y-.122 E7.80102
G1 X11.044 Y0.382 E7.82922
G1 X11.227 Y0.917 E7.85743
G1 X11.332 Y1.472 E7.88561
G1 X11.358 Y2.037 E7.91383
G1 X11.304 Y2.6 E7.94205
G1 X11.078 Y3.411 E7.98405
G1 X10.433 Y5.04 E8.07146
G1 X10.077 Y5.732 E8.11029
G1 X9.459 Y6.692 E8.16725
G1 X9.089 Y7.181 E8.19784
G1 X8.331 Y8.036 E8.25485
G1 X7.984 Y8.382 E8.27929
G1 X7.51 Y8.8 E8.31082
G1 X7.096 Y9.119 E8.3369
G1 X5.939 Y9.897 E8.40646
G1 X5.27 Y10.26 E8.44443
G1 X3.951 Y10.82 E8.51592
G1 X3.223 Y11.05 E8.55401
G1 X1.775 Y11.359 E8.62788
G1 X1.088 Y11.444 E8.66241
G1 X0.009 Y11.484 E8.71628
G1 X-.584 Y11.462 E8.74589
G1 X-1.701 Y11.337 E8.80196
G1 X-2.272 Y11.231 E8.83094
G1 X-3.289 Y10.964 E8.88339
G1 X-3.809 Y10.788 E8.91078
G1 X-4.754 Y10.395 E8.96184
G1 X-5.27 Y10.136 E8.99065
G1 X-6.229 Y9.563 E9.04638
G1 X-6.63 Y9.289 E9.07061
G1 X-7.211 Y8.838 E9.10731
G1 X-7.573 Y8.52 E9.13135
G1 X-8.311 Y7.789 E9.18317
G1 X-8.747 Y7.277 E9.21672
G1 X-9.614 Y6.067 E9.29098
G1 X-10.013 Y5.374 E9.33088
G1 X-10.623 Y4.014 E9.40524
G1 X-10.858 Y3.329 E9.44137
G1 X-11.161 Y2.093 E9.50486
G1 X-11.264 Y1.452 E9.53725
G1 X-11.35 Y0.35 E9.5924
G1 X-11.357 Y-.152 E9.61745
G1 X-11.32 Y-.928 E9.6562
G1 X-11.269 Y-1.404 E9.68009
G1 X-11.091 Y-2.456 E9.73332
G1 X-10.9 Y-3.174 E9.77039
G1 X-10.319 Y-4.748 E9.85409
G1 X-10.086 Y-5.263 E9.88229
G1 X-9.913 Y-5.554 E9.89918
G1 X-8.992 Y-6.961 E9.98308
G1 X-8.464 Y-7.608 E10.02474
G1 X-7.405 Y-8.66 E10.09921
G1 X-6.867 Y-9.108 E10.13414
G1 X-5.971 Y-9.73 E10.18856
G1 X-5.311 Y-10.101 E10.22633
G1 X-3.711 Y-10.81 E10.31364
G1 X-3.033 Y-11.04 E10.34936
G1 X-2.101 Y-11.266 E10.39721
G1 X-1.533 Y-11.361 E10.42594
G1 X-.386 Y-11.469 E10.48342
G1 X0.117 Y-11.485 E10.50852
G1 X0.869 Y-11.461 E10.54606
G1 X1.424 Y-11.404 E10.57389
G1 X2.745 Y-11.175 E10.64078
G1 X3.294 Y-11.04 E10.66899
G1 X3.818 Y-10.828 E10.69719
G1 X4.307 Y-10.544 E10.7254
G1 X4.752 Y-10.195 E10.75362
G1 X5.142 Y-9.786 E10.78181
G1 X5.592 Y-9.115 E10.82212
G1 X7.217 Y-6.066 E10.99449
G0 F3000 X6.87 Y-5.866
G1 F1500 X10.445 Y0.084 E11.3408
G1 X10.686 Y0.563 E11.36755
G1 X10.853 Y1.073 E11.39432
G1 X10.943 Y1.601 E11.42104
G1 X10.953 Y2.137 E11.44779
G1 X10.884 Y2.669 E11.47455
G1 X10.706 Y3.263 E11.50549
G1 X10.061 Y4.892 E11.5929
G1 X9.741 Y5.516 E11.62789
G1 X9.123 Y6.476 E11.68485
G1 X8.79 Y6.915 E11.71234
G1 X8.032 Y7.77 E11.76934
G1 X7.719 Y8.082 E11.79139
G1 X7.245 Y8.5 E11.82292
G1 X6.873 Y8.787 E11.84636
G1 X5.716 Y9.565 E11.91592
G1 X5.114 Y9.892 E11.9501
G1 X3.795 Y10.452 E12.02159
G1 X3.139 Y10.659 E12.05591
G1 X1.691 Y10.968 E12.12978
G1 X1.073 Y11.045 E12.16085
G1 X-0.006 Y11.085 E12.21472
G1 X-.539 Y11.065 E12.24133
G1 X-1.656 Y10.94 E12.2974
G1 X-2.17 Y10.844 E12.32349
G1 X-3.187 Y10.577 E12.37595
G1 X-3.655 Y10.419 E12.40059
G1 X-4.6 Y10.026 E12.45165
G1 X-5.064 Y9.792 E12.47758
G1 X-6.023 Y9.219 E12.53331
G1 X-6.384 Y8.973 E12.55511
G1 X-6.965 Y8.522 E12.5918
G1 X-7.291 Y8.236 E12.61344
G1 X-8.029 Y7.505 E12.66526
G1 X-8.422 Y7.044 E12.69548
G1 X-9.289 Y5.834 E12.76975
G1 X-9.648 Y5.21 E12.80566
G1 X-10.258 Y3.85 E12.88003
G1 X-10.469 Y3.234 E12.91251
G1 X-10.772 Y1.998 E12.976
G1 X-10.865 Y1.421 E13.00516
G1 X-10.951 Y0.319 E13.06031
G1 X-10.958 Y-.132 E13.08281
G1 X-10.921 Y-.908 E13.12157
G1 X-10.875 Y-1.338 E13.14314
G1 X-10.697 Y-2.39 E13.19637
G1 X-10.524 Y-3.036 E13.22974
G1 X-9.943 Y-4.61 E13.31344
G1 X-9.721 Y-5.098 E13.34019
G1 X-9.578 Y-5.335 E13.354
G1 X-8.657 Y-6.742 E13.4379
G1 X-8.182 Y-7.324 E13.47538
G1 X-7.123 Y-8.376 E13.54985
G1 X-6.639 Y-8.779 E13.58127
G1 X-5.743 Y-9.401 E13.63569
G1 X-5.148 Y-9.735 E13.66973
G1 X-3.548 Y-10.444 E13.75704
G1 X-2.938 Y-10.652 E13.78919
G1 X-2.006 Y-10.878 E13.83704
G1 X-1.495 Y-10.963 E13.86288
G1 X-.348 Y-11.071 E13.92036
G1 X0.104 Y-11.085 E13.94292
G1 X0.856 Y-11.061 E13.98046
G1 X1.356 Y-11.01 E14.00553
G1 X2.677 Y-10.781 E14.07242
G1 X3.197 Y-10.65 E14.09917
G1 X3.692 Y-10.444 E14.12592
G1 X4.151 Y-10.166 E14.15269
G1 X4.563 Y-9.823 E14.17944
G1 X4.92 Y-9.423 E14.20619
G1 X5.239 Y-8.927 E14.23561
G1 X6.87 Y-5.866 E14.40865
G0 F3000 X6.523 Y-5.666
G1 F1500 X10.102 Y0.29 E14.75532
G1 X10.327 Y0.743 E14.78055
G1 X10.479 Y1.225 E14.80577
G1 X10.552 Y1.725 E14.83098
G1 X10.546 Y2.231 E14.85622
G1 X10.46 Y2.729 E14.88143
G1 X10.334 Y3.116 E14.90174
G1 X9.689 Y4.745 E14.98915
G1 X9.405 Y5.299 E15.02021
G1 X8.787 Y6.259 E15.07717
G1 X8.49 Y6.65 E15.10167
G1 X7.732 Y7.505 E15.15867
G1 X7.455 Y7.782 E15.17822
G1 X6.981 Y8.2 E15.20975
G1 X6.65 Y8.455 E15.23059
G1 X5.493 Y9.233 E15.30015
G1 X4.958 Y9.524 E15.33053
G1 X3.639 Y10.084 E15.40203
G1 X3.056 Y10.268 E15.43253
G1 X1.608 Y10.577 E15.50639
G1 X1.059 Y10.645 E15.53399
G1 X-0.02 Y10.685 E15.58786
G1 X-.495 Y10.667 E15.61158
G1 X-1.612 Y10.542 E15.66765
G1 X-2.069 Y10.457 E15.69084
G1 X-3.086 Y10.19 E15.7433
G1 X-3.502 Y10.05 E15.7652
G1 X-4.447 Y9.657 E15.81626
G1 X-4.859 Y9.449 E15.83928
G1 X-5.818 Y8.876 E15.89502
G1 X-6.139 Y8.657 E15.91441
G1 X-6.72 Y8.206 E15.9511
G1 X-7.01 Y7.951 E15.97037
G1 X-7.748 Y7.22 E16.02219
G1 X-8.097 Y6.811 E16.04901
G1 X-8.964 Y5.601 E16.12328
G1 X-9.283 Y5.047 E16.15517
G1 X-9.893 Y3.687 E16.22953
G1 X-10.081 Y3.139 E16.25844
G1 X-10.384 Y1.903 E16.32193
G1 X-10.466 Y1.39 E16.34785
G1 X-10.552 Y0.288 E16.40299
G1 X-10.558 Y-.113 E16.423
G1 X-10.521 Y-.889 E16.46176
G1 X-10.48 Y-1.271 E16.48093
G1 X-10.302 Y-2.323 E16.53416
G1 X-10.149 Y-2.897 E16.56379
G1 X-9.568 Y-4.471 E16.6475
G1 X-9.243 Y-5.116 E16.68353
G1 X-8.322 Y-6.523 E16.76743
G1 X-7.9 Y-7.04 E16.80073
G1 X-6.841 Y-8.092 E16.8752
G1 X-6.411 Y-8.451 E16.90314
G1 X-5.515 Y-9.073 E16.95756
G1 X-4.986 Y-9.37 E16.98783
G1 X-3.386 Y-10.079 E17.07514
G1 X-2.844 Y-10.263 E17.10369
G1 X-1.912 Y-10.489 E17.15154
G1 X-1.458 Y-10.565 E17.17451
G1 X-.311 Y-10.673 E17.23198
G1 X0.091 Y-10.685 E17.25205
G1 X0.843 Y-10.661 E17.28958
G1 X1.288 Y-10.616 E17.3119
G1 X2.609 Y-10.387 E17.37879
G1 X3.098 Y-10.262 E17.40397
G1 X3.562 Y-10.061 E17.42919
G1 X3.989 Y-9.789 E17.45445
G1 X4.367 Y-9.454 E17.47965
G1 X4.688 Y-9.063 E17.50489
G1 X4.886 Y-8.739 E17.52383
G1 X6.523 Y-5.666 E17.69754
G1 F1500 E15.69754
G0 F3000 X2.615 Y-6.715
G0 X1.761 Y-6.943
G0 X1.71 Y-7.062
G0 X1.806 Y-7.036
;TYPE:WALL-OUTER
G1 F1500 E17.78069
G1 X1.667 Y-6.517 E17.8075
G1 X1.405 Y-6.577 E17.82091
G1 X0.894 Y-6.656 E17.84671
G1 X0.37 Y-6.694 E17.87292
G1 X-0.085 Y-6.696 E17.89562
G1 X-.543 Y-6.667 E17.91851
G1 X-1.08 Y-6.59 E17.94558
G1 X-1.535 Y-6.492 E17.9688
G1 X-2.06 Y-6.332 E17.99618
G1 X-2.496 Y-6.166 E18.01945
G1 X-2.988 Y-5.931 E18.04666
G1 X-3.391 Y-5.703 E18.06976
G1 X-3.839 Y-5.4 E18.09674
G1 X-4.253 Y-5.067 E18.12325
G1 X-4.583 Y-4.764 E18.1456
G1 X-4.887 Y-4.443 E18.16766
G1 X-5.209 Y-4.049 E18.19304
G1 X-5.46 Y-3.697 E18.21461
G1 X-5.728 Y-3.254 E18.24044
G1 X-5.964 Y-2.786 E18.26659
G1 X-6.14 Y-2.365 E18.28936
G1 X-6.308 Y-1.855 E18.31614
G1 X-6.423 Y-1.405 E18.33932
G1 X-6.514 Y-.868 E18.36649
G1 X-6.56 Y-.402 E18.38985
G1 X-6.572 Y0.063 E18.41306
G1 X-6.544 Y0.608 E18.44028
G1 X-6.488 Y1.069 E18.46345
G1 X-6.379 Y1.597 E18.49035
G1 X-6.23 Y2.107 E18.51686
G1 X-6.076 Y2.531 E18.53936
G1 X-5.861 Y3.001 E18.56515
G1 X-5.637 Y3.412 E18.5885
G1 X-5.404 Y3.78 E18.61023
G1 X-5.145 Y4.134 E18.63211
G1 X-4.805 Y4.534 E18.65831
G1 X-4.486 Y4.859 E18.68103
G1 X-4.081 Y5.212 E18.70783
G1 X-3.712 Y5.49 E18.73088
G1 X-3.251 Y5.785 E18.75818
G1 X-2.767 Y6.04 E18.78548
G1 X-2.339 Y6.229 E18.80882
G1 X-1.824 Y6.408 E18.83602
G1 X-1.376 Y6.528 E18.85916
G1 X-.848 Y6.627 E18.88596
G1 X-.396 Y6.679 E18.90866
G1 X0.129 Y6.698 E18.93487
G1 X0.572 Y6.685 E18.95698
G1 X1.076 Y6.63 E18.98227
G1 X1.502 Y6.557 E19.00384
G1 X2.003 Y6.43 E19.02962
G1 X2.429 Y6.292 E19.05196
G1 X2.85 Y6.123 E19.0746
G1 X3.334 Y5.883 E19.10155
G1 X3.798 Y5.603 E19.12859
G1 X4.18 Y5.335 E19.15187
G1 X4.542 Y5.04 E19.17516
G1 X4.939 Y4.662 E19.20251
G1 X5.3 Y4.256 E19.22962
G1 X5.583 Y3.888 E19.25278
G1 X5.837 Y3.506 E19.27566
G1 X6.099 Y3.04 E19.30234
G1 X6.317 Y2.561 E19.32859
G1 X6.473 Y2.149 E19.35057
G1 X6.541 Y1.925 E19.36225
G1 X7.091 Y2.072 E19.39065
G1 X7.103 Y2.075 E19.39127
G1 X7.119 Y2.08 E19.39211
G1 X7.006 Y2.439 E19.40109
G1 X7.002 Y2.451 E19.40171
G1 X6.835 Y2.88 E19.42468
G1 X6.627 Y3.324 E19.44914
G1 X6.322 Y3.86 E19.47991
G1 X6.049 Y4.269 E19.50444
G1 X5.733 Y4.675 E19.53011
G1 X5.316 Y5.133 E19.56101
G1 X4.944 Y5.486 E19.5866
G1 X4.469 Y5.866 E19.61694
G1 X4.04 Y6.162 E19.64295
G1 X3.604 Y6.418 E19.66817
G1 X3.054 Y6.687 E19.69872
G1 X2.589 Y6.872 E19.72368
G1 X2.033 Y7.045 E19.75273
G1 X1.545 Y7.16 E19.77775
G1 X1.082 Y7.238 E19.80117
G1 X0.516 Y7.288 E19.82952
G1 X0.028 Y7.3 E19.85387
G1 X-.473 Y7.276 E19.8789
G1 X-1.057 Y7.203 E19.90826
G1 X-1.553 Y7.104 E19.93349
G1 X-2.05 Y6.967 E19.95921
G1 X-2.621 Y6.762 E19.98948
G1 X-3.102 Y6.547 E20.01577
G1 X-3.63 Y6.257 E20.04582
G1 X-4.073 Y5.97 E20.07216
G1 X-4.469 Y5.672 E20.09688
G1 X-4.934 Y5.259 E20.12791
G1 X-5.276 Y4.908 E20.15236
G1 X-5.66 Y4.445 E20.18237
G1 X-5.938 Y4.061 E20.20602
G1 X-6.198 Y3.644 E20.23054
G1 X-6.463 Y3.137 E20.25908
G1 X-6.653 Y2.702 E20.28276
G1 X-6.82 Y2.24 E20.30727
G1 X-6.982 Y1.651 E20.33775
G1 X-7.078 Y1.168 E20.36231
G1 X-7.15 Y0.548 E20.39345
G1 X-7.172 Y0.035 E20.41907
G1 X-7.157 Y-.47 E20.44428
G1 X-7.091 Y-1.078 E20.47479
G1 X-6.999 Y-1.583 E20.5004
G1 X-6.867 Y-2.089 E20.52649
G1 X-6.673 Y-2.65 E20.5561
G1 X-6.47 Y-3.123 E20.58178
G1 X-6.195 Y-3.647 E20.6113
G1 X-5.946 Y-4.049 E20.6349
G1 X-5.66 Y-4.45 E20.65947
G1 X-5.303 Y-4.877 E20.68724
G1 X-4.966 Y-5.228 E20.71151
G1 X-4.597 Y-5.565 E20.73644
G1 X-4.118 Y-5.938 E20.76673
G1 X-3.709 Y-6.211 E20.79127
G1 X-3.164 Y-6.514 E20.82238
G1 X-2.711 Y-6.725 E20.84731
G1 X-2.225 Y-6.909 E20.87323
G1 X-1.639 Y-7.081 E20.9037
G1 X-1.124 Y-7.191 E20.92998
G1 X-.633 Y-7.259 E20.95471
G1 X-0.014 Y-7.297 E20.98565
G1 X0.483 Y-7.292 E21.01044
G1 X1.074 Y-7.237 E21.04005
G1 X1.482 Y-7.171 E21.06067
G1 X1.544 Y-7.161 E21.06381
G1 X1.822 Y-7.096 E21.07805
G1 X1.806 Y-7.036 E21.08082
G0 F3000 X1.755 Y-6.843
G0 X1.541 Y-6.943
G1 F1500 X1.307 Y-6.894 E21.08777
G1 X0.979 Y-6.939 E21.09813
G1 X0.662 Y-6.974 E21.108
G1 X0.364 Y-6.988 E21.11741
G1 X0.077 Y-6.993 E21.12632
G1 X-.197 Y-6.986 E21.13473
G1 X-.464 Y-6.969 E21.14294
G1 X-.72 Y-6.943 E21.15087
G1 X-.968 Y-6.908 E21.15868
G1 X-1.209 Y-6.866 E21.16625
G1 X-1.443 Y-6.817 E21.17358
G1 X-1.67 Y-6.761 E21.18073
G1 X-1.887 Y-6.696 E21.18762
G1 X-2.104 Y-6.63 E21.19455
G1 X-2.312 Y-6.555 E21.20136
G1 X-2.517 Y-6.477 E21.20809
G1 X-2.714 Y-6.391 E21.21474
G1 X-2.907 Y-6.301 E21.22133
G1 X-3.096 Y-6.207 E21.22786
G1 X-3.279 Y-6.107 E21.23428
G1 X-3.46 Y-6.005 E21.24071
G1 X-3.635 Y-5.898 E21.24705
G1 X-3.805 Y-5.785 E21.25339
G1 X-3.972 Y-5.669 E21.25968
G1 X-4.132 Y-5.546 E21.2659
G1 X-4.29 Y-5.421 E21.27216
G1 X-4.446 Y-5.294 E21.27843
G1 X-4.593 Y-5.159 E21.28465
G1 X-4.741 Y-5.024 E21.2909
G1 X-4.881 Y-4.881 E21.29714
G1 X-5.019 Y-4.737 E21.30336
G1 X-5.153 Y-4.587 E21.30963
G1 X-5.281 Y-4.432 E21.3159
G1 X-5.409 Y-4.278 E21.32219
G1 X-5.529 Y-4.115 E21.32853
G1 X-5.646 Y-3.949 E21.33484
G1 X-5.758 Y-3.778 E21.34119
G1 X-5.866 Y-3.604 E21.3476
G1 X-5.972 Y-3.427 E21.35406
G1 X-6.068 Y-3.24 E21.36056
G1 X-6.164 Y-3.053 E21.36716
G1 X-6.255 Y-2.861 E21.37384
G1 X-6.339 Y-2.662 E21.38052
G1 X-6.421 Y-2.461 E21.38729
G1 X-6.492 Y-2.25 E21.39418
G1 X-6.563 Y-2.038 E21.40123
G1 X-6.626 Y-1.817 E21.40849
G1 X-6.684 Y-1.593 E21.41579
G1 X-6.732 Y-1.358 E21.4233
G1 X-6.775 Y-1.118 E21.43099
G1 X-6.811 Y-.871 E21.43887
G1 X-6.838 Y-.615 E21.44686
G1 X-6.858 Y-.353 E21.45509
G1 X-6.867 Y-0.079 E21.4636
